(G-CODE GENERATED BY FLATCAM v8.994 - www.flatcam.org - Version Date: 2020/11/7)

(Name: Dot-Matrix-Terminal.drl_edit_cnc)
(Type: G-code from Geometry)
(Units: MM)

(Created on Tuesday, 23 July 2024 at 17:53)

(This preprocessor is the default preprocessor used by FlatCAM.)
(It is made to work with MACH3 compatible motion controllers.)


(TOOLS DIAMETER: )
(Tool: 1 -> Dia: 0.5)
(Tool: 2 -> Dia: 1.0)
(Tool: 3 -> Dia: 3.2)

(FEEDRATE Z: )
(Tool: 1 -> Feedrate: 100.0)
(Tool: 2 -> Feedrate: 100.0)
(Tool: 3 -> Feedrate: 100.0)

(FEEDRATE RAPIDS: )
(Tool: 1 -> Feedrate Rapids: 1500)
(Tool: 2 -> Feedrate Rapids: 1500)
(Tool: 3 -> Feedrate Rapids: 1500)

(Z_CUT: )
(Tool: 1 -> Z_Cut: -2.0)
(Tool: 2 -> Z_Cut: -2.0)
(Tool: 3 -> Z_Cut: -2.0)

(Tools Offset: )
(Tool: 1 -> Offset Z: 0.0)
(Tool: 2 -> Offset Z: 0.0)
(Tool: 3 -> Offset Z: 0.0)

(Z_MOVE: )
(Tool: 1 -> Z_Move: 2.0)
(Tool: 2 -> Z_Move: 2.0)
(Tool: 3 -> Z_Move: 2.0)

(Z Toolchange: 15 mm)
(X,Y Toolchange: 0.0000, 0.0000 mm)
(Z Start: None mm)
(Z End: 15.0 mm)
(X,Y End: None mm)
(Steps per circle: 64)
(Preprocessor Excellon: default)

(X range:    5.2500 ...   46.9500  mm)
(Y range:    2.0000 ...  100.5000  mm)

(Spindle Speed: 1000 RPM)
G21
G90
G94

G01 F100.00

M5
G00 Z15.0000
T1
G00 X0.0000 Y0.0000                
M6
(MSG, Change to Tool Dia = 0.5000 ||| Total drills for tool T1 = 16)
M0
G00 Z15.0000

G01 F100.00
M03 S1000
G00 X5.5000 Y52.0000
G01 Z-2.0000
G01 Z0
G00 Z2.0000
G00 X13.5000 Y52.0000
G01 Z-2.0000
G01 Z0
G00 Z2.0000
G00 X16.0000 Y52.0000
G01 Z-2.0000
G01 Z0
G00 Z2.0000
G00 X21.0000 Y86.4300
G01 Z-2.0000
G01 Z0
G00 Z2.0000
G00 X21.0000 Y81.5500
G01 Z-2.0000
G01 Z0
G00 Z2.0000
G00 X28.5000 Y62.0000
G01 Z-2.0000
G01 Z0
G00 Z2.0000
G00 X28.5000 Y54.0000
G01 Z-2.0000
G01 Z0
G00 Z2.0000
G00 X24.0000 Y52.0000
G01 Z-2.0000
G01 Z0
G00 Z2.0000
G00 X28.5000 Y50.0000
G01 Z-2.0000
G01 Z0
G00 Z2.0000
G00 X26.5000 Y45.0000
G01 Z-2.0000
G01 Z0
G00 Z2.0000
G00 X40.5000 Y50.0000
G01 Z-2.0000
G01 Z0
G00 Z2.0000
G00 X43.5000 Y45.0000
G01 Z-2.0000
G01 Z0
G00 Z2.0000
G00 X30.5000 Y38.5000
G01 Z-2.0000
G01 Z0
G00 Z2.0000
G00 X30.5000 Y30.5000
G01 Z-2.0000
G01 Z0
G00 Z2.0000
G00 X31.5000 Y6.5000
G01 Z-2.0000
G01 Z0
G00 Z2.0000
G00 X7.0000 Y6.5000
G01 Z-2.0000
G01 Z0
G00 Z2.0000
G01 F100.00

M5
G00 Z15.0000
T2
G00 X0.0000 Y0.0000                
M6
(MSG, Change to Tool Dia = 1.0000 ||| Total drills for tool T2 = 43)
M0
G00 Z15.0000

G01 F100.00
M03 S1000
G00 X13.2780 Y42.4030
G01 Z-2.0000
G01 Z0
G00 Z2.0000
G00 X15.8180 Y42.4030
G01 Z-2.0000
G01 Z0
G00 Z2.0000
G00 X23.9460 Y42.4030
G01 Z-2.0000
G01 Z0
G00 Z2.0000
G00 X26.4860 Y42.4030
G01 Z-2.0000
G01 Z0
G00 Z2.0000
G00 X36.2500 Y47.0000
G01 Z-2.0000
G01 Z0
G00 Z2.0000
G00 X18.7500 Y92.7500
G01 Z-2.0000
G01 Z0
G00 Z2.0000
G00 X18.7500 Y94.7500
G01 Z-2.0000
G01 Z0
G00 Z2.0000
G00 X21.2500 Y94.7500
G01 Z-2.0000
G01 Z0
G00 Z2.0000
G00 X21.2500 Y92.7500
G01 Z-2.0000
G01 Z0
G00 Z2.0000
G00 X36.2500 Y83.5000
G01 Z-2.0000
G01 Z0
G00 Z2.0000
G00 X43.7500 Y83.5000
G01 Z-2.0000
G01 Z0
G00 Z2.0000
G00 X42.5000 Y72.8600
G01 Z-2.0000
G01 Z0
G00 Z2.0000
G00 X42.5000 Y70.3200
G01 Z-2.0000
G01 Z0
G00 Z2.0000
G00 X42.5000 Y67.7800
G01 Z-2.0000
G01 Z0
G00 Z2.0000
G00 X42.5000 Y65.2400
G01 Z-2.0000
G01 Z0
G00 Z2.0000
G00 X42.5000 Y62.7000
G01 Z-2.0000
G01 Z0
G00 Z2.0000
G00 X42.5000 Y60.1600
G01 Z-2.0000
G01 Z0
G00 Z2.0000
G00 X42.5000 Y57.6200
G01 Z-2.0000
G01 Z0
G00 Z2.0000
G00 X42.5000 Y55.0800
G01 Z-2.0000
G01 Z0
G00 Z2.0000
G00 X42.5000 Y52.5400
G01 Z-2.0000
G01 Z0
G00 Z2.0000
G00 X42.5000 Y50.0000
G01 Z-2.0000
G01 Z0
G00 Z2.0000
G00 X43.7500 Y47.0000
G01 Z-2.0000
G01 Z0
G00 Z2.0000
G00 X42.5000 Y43.1400
G01 Z-2.0000
G01 Z0
G00 Z2.0000
G00 X42.5000 Y40.6000
G01 Z-2.0000
G01 Z0
G00 Z2.0000
G00 X42.5000 Y38.0600
G01 Z-2.0000
G01 Z0
G00 Z2.0000
G00 X42.5000 Y35.5200
G01 Z-2.0000
G01 Z0
G00 Z2.0000
G00 X42.5000 Y32.9800
G01 Z-2.0000
G01 Z0
G00 Z2.0000
G00 X42.5000 Y30.4400
G01 Z-2.0000
G01 Z0
G00 Z2.0000
G00 X42.5000 Y27.9000
G01 Z-2.0000
G01 Z0
G00 Z2.0000
G00 X42.5000 Y25.3600
G01 Z-2.0000
G01 Z0
G00 Z2.0000
G00 X42.5000 Y22.8200
G01 Z-2.0000
G01 Z0
G00 Z2.0000
G00 X42.5000 Y20.2800
G01 Z-2.0000
G01 Z0
G00 Z2.0000
G00 X42.5000 Y17.7400
G01 Z-2.0000
G01 Z0
G00 Z2.0000
G00 X42.5000 Y15.2000
G01 Z-2.0000
G01 Z0
G00 Z2.0000
G00 X42.5000 Y12.6600
G01 Z-2.0000
G01 Z0
G00 Z2.0000
G00 X42.5000 Y10.1200
G01 Z-2.0000
G01 Z0
G00 Z2.0000
G00 X42.5000 Y7.5800
G01 Z-2.0000
G01 Z0
G00 Z2.0000
G00 X42.5000 Y5.0400
G01 Z-2.0000
G01 Z0
G00 Z2.0000
G00 X42.5000 Y2.5000
G01 Z-2.0000
G01 Z0
G00 Z2.0000
G00 X26.4860 Y23.8610
G01 Z-2.0000
G01 Z0
G00 Z2.0000
G00 X23.9460 Y23.8610
G01 Z-2.0000
G01 Z0
G00 Z2.0000
G00 X15.8180 Y23.8610
G01 Z-2.0000
G01 Z0
G00 Z2.0000
G00 X13.2780 Y23.8610
G01 Z-2.0000
G01 Z0
G00 Z2.0000
G01 F100.00

M5
G00 Z15.0000
T3
G00 X0.0000 Y0.0000                
M6
(MSG, Change to Tool Dia = 3.2000 ||| Total drills for tool T3 = 2)
M0
G00 Z15.0000

G01 F100.00
M03 S1000
G00 X7.5000 Y97.5000
G01 Z-2.0000
G01 Z0
G00 Z2.0000
G00 X32.5000 Y97.5000
G01 Z-2.0000
G01 Z0
G00 Z2.0000
M05
G00 Z15.00


