(G-CODE GENERATED BY FLATCAM v8.994 - www.flatcam.org - Version Date: 2020/11/7)

(Name: Dot-Matrix-Terminal-F_Cu.gbr_iso_combined_cnc)
(Type: G-code from Geometry)
(Units: MM)

(Created on Tuesday, 23 July 2024 at 18:03)

(This preprocessor is used with a motion controller loaded with GRBL firmware.)
(It is configured to be compatible with almost any version of GRBL firmware.)

(TOOL DIAMETER: 0.2 mm)
(Feedrate_XY: 120.0 mm/min)
(Feedrate_Z: 60.0 mm/min)
(Feedrate rapids 1500.0 mm/min)

(Z_Cut: -0.05 mm)
(Z_Move: 2.0 mm)
(Z Start: None mm)
(Z End: 15.0 mm)
(X,Y End: None mm)
(Steps per circle: 64)
(Steps per circle: 64)
(Preprocessor Geometry: GRBL_11_no_M6)

(X range:   -0.2000 ...   50.1995  mm)
(Y range:   -0.1995 ...  105.1995  mm)

(Spindle Speed: 1000.0 RPM)
G21
G90
G17
G94


G01 F120.00

M5             
G00 Z15.0000
G00 X0.0000 Y0.0000                
T1
(MSG, Change to Tool Dia = 0.2000)
M0
G00 Z15.0000
        
M03 S1000.0
G01 F120.00
G00 X10.1453 Y0.8563
G01 F60.00
G01 Z-0.0500
G01 F120.00
G01 X10.2142 Y0.7643 F120.00
G01 X10.3063 Y0.6953 F120.00
G01 X10.4158 Y0.6545 F120.00
G01 X10.4575 Y0.6500 F120.00
G01 X10.9000 Y0.6500 F120.00
G01 X10.9000 Y0.9500 F120.00
G01 X10.4975 Y0.9500 F120.00
G01 X10.4878 Y0.9508 F120.00
G01 X10.4781 Y0.9524 F120.00
G01 X10.4686 Y0.9550 F120.00
G01 X10.4617 Y0.9576 F120.00
G01 X10.4529 Y0.9618 F120.00
G01 X10.4424 Y0.9682 F120.00
G01 X10.4347 Y0.9743 F120.00
G01 X10.4276 Y0.9810 F120.00
G01 X10.4197 Y0.9904 F120.00
G01 X10.4142 Y0.9986 F120.00
G01 X10.4086 Y1.0095 F120.00
G01 X10.4050 Y1.0186 F120.00
G01 X10.4019 Y1.0305 F120.00
G01 X10.4008 Y1.0378 F120.00
G01 X10.4001 Y1.0451 F120.00
G01 X10.4000 Y1.1500 F120.00
G01 X10.1000 Y1.1500 F120.00
G01 X10.1000 Y1.0075 F120.00
G01 X10.1045 Y0.9658 F120.00
G01 X10.1453 Y0.8563 F120.00
G00 Z2.0000
G00 X10.2340 Y0.9047
G01 F60.00
G01 Z-0.0500
G01 F120.00
G01 X10.2857 Y0.8357 F120.00
G01 X10.3547 Y0.7840 F120.00
G01 X10.4390 Y0.7526 F120.00
G01 X10.4629 Y0.7500 F120.00
G01 X10.8000 Y0.7500 F120.00
G01 X10.8000 Y0.8500 F120.00
G01 X10.5000 Y0.8500 F120.00
G01 X10.4853 Y0.8505 F120.00
G01 X10.4658 Y0.8529 F120.00
G01 X10.4514 Y0.8560 F120.00
G01 X10.4419 Y0.8586 F120.00
G01 X10.4326 Y0.8617 F120.00
G01 X10.4190 Y0.8672 F120.00
G01 X10.4101 Y0.8714 F120.00
G01 X10.3972 Y0.8785 F120.00
G01 X10.3848 Y0.8865 F120.00
G01 X10.3770 Y0.8923 F120.00
G01 X10.3657 Y0.9018 F120.00
G01 X10.3586 Y0.9086 F120.00
G01 X10.3486 Y0.9194 F120.00
G01 X10.3394 Y0.9309 F120.00
G01 X10.3337 Y0.9389 F120.00
G01 X10.3260 Y0.9514 F120.00
G01 X10.3214 Y0.9601 F120.00
G01 X10.3152 Y0.9735 F120.00
G01 X10.3101 Y0.9873 F120.00
G01 X10.3072 Y0.9967 F120.00
G01 X10.3038 Y1.0110 F120.00
G01 X10.3022 Y1.0207 F120.00
G01 X10.3005 Y1.0353 F120.00
G01 X10.3000 Y1.0500 F120.00
G01 X10.2000 Y1.0500 F120.00
G01 X10.2000 Y1.0129 F120.00
G01 X10.2026 Y0.9890 F120.00
G01 X10.2340 Y0.9047 F120.00
G00 Z2.0000
G00 X10.4240 Y2.1350
G01 F60.00
G01 Z-0.0500
G01 F120.00
G01 X10.4145 Y2.1392 F120.00
G01 X10.4014 Y2.1460 F120.00
G01 X10.3889 Y2.1537 F120.00
G01 X10.3770 Y2.1623 F120.00
G01 X10.3657 Y2.1718 F120.00
G01 X10.3552 Y2.1821 F120.00
G01 X10.3454 Y2.1931 F120.00
G01 X10.3365 Y2.2048 F120.00
G01 X10.3310 Y2.2130 F120.00
G01 X10.3236 Y2.2257 F120.00
G01 X10.3172 Y2.2390 F120.00
G01 X10.3117 Y2.2526 F120.00
G01 X10.3072 Y2.2667 F120.00
G01 X10.3038 Y2.2810 F120.00
G01 X10.3015 Y2.2955 F120.00
G01 X10.3002 Y2.3102 F120.00
G01 X10.3000 Y3.2200 F120.00
G01 X10.3002 Y3.2298 F120.00
G01 X10.3015 Y3.2445 F120.00
G01 X10.3038 Y3.2590 F120.00
G01 X10.3072 Y3.2733 F120.00
G01 X10.3101 Y3.2827 F120.00
G01 X10.3152 Y3.2965 F120.00
G01 X10.3214 Y3.3099 F120.00
G01 X10.3260 Y3.3186 F120.00
G01 X10.3337 Y3.3311 F120.00
G01 X10.3423 Y3.3430 F120.00
G01 X10.3518 Y3.3543 F120.00
G01 X10.3621 Y3.3648 F120.00
G01 X10.3731 Y3.3746 F120.00
G01 X10.3809 Y3.3806 F120.00
G01 X10.3930 Y3.3890 F120.00
G01 X10.4014 Y3.3940 F120.00
G01 X10.4145 Y3.4008 F120.00
G01 X10.4240 Y3.4050 F120.00
G01 X10.4145 Y3.4092 F120.00
G01 X10.4014 Y3.4160 F120.00
G01 X10.3889 Y3.4237 F120.00
G01 X10.3809 Y3.4294 F120.00
G01 X10.3694 Y3.4386 F120.00
G01 X10.3586 Y3.4486 F120.00
G01 X10.3518 Y3.4557 F120.00
G01 X10.3423 Y3.4670 F120.00
G01 X10.3337 Y3.4789 F120.00
G01 X10.3260 Y3.4914 F120.00
G01 X10.3214 Y3.5001 F120.00
G01 X10.3152 Y3.5135 F120.00
G01 X10.3117 Y3.5226 F120.00
G01 X10.3072 Y3.5367 F120.00
G01 X10.3038 Y3.5510 F120.00
G01 X10.3015 Y3.5655 F120.00
G01 X10.3002 Y3.5802 F120.00
G01 X10.3000 Y3.5900 F120.00
G01 X10.3000 Y4.4900 F120.00
G01 X10.3005 Y4.5047 F120.00
G01 X10.3022 Y4.5193 F120.00
G01 X10.3049 Y4.5338 F120.00
G01 X10.3086 Y4.5481 F120.00
G01 X10.3134 Y4.5620 F120.00
G01 X10.3192 Y4.5755 F120.00
G01 X10.3260 Y4.5886 F120.00
G01 X10.3337 Y4.6011 F120.00
G01 X10.3423 Y4.6130 F120.00
G01 X10.3518 Y4.6243 F120.00
G01 X10.3621 Y4.6348 F120.00
G01 X10.3731 Y4.6446 F120.00
G01 X10.3848 Y4.6535 F120.00
G01 X10.3972 Y4.6615 F120.00
G01 X10.4101 Y4.6686 F120.00
G01 X10.4240 Y4.6750 F120.00
G01 X10.4101 Y4.6814 F120.00
G01 X10.3972 Y4.6885 F120.00
G01 X10.3848 Y4.6965 F120.00
G01 X10.3731 Y4.7054 F120.00
G01 X10.3621 Y4.7152 F120.00
G01 X10.3518 Y4.7257 F120.00
G01 X10.3423 Y4.7370 F120.00
G01 X10.3337 Y4.7489 F120.00
G01 X10.3260 Y4.7614 F120.00
G01 X10.3192 Y4.7745 F120.00
G01 X10.3134 Y4.7880 F120.00
G01 X10.3086 Y4.8019 F120.00
G01 X10.3049 Y4.8162 F120.00
G01 X10.3022 Y4.8307 F120.00
G01 X10.3005 Y4.8453 F120.00
G01 X10.3000 Y4.8599 F120.00
G01 X9.6900 Y4.8599 F120.00
G01 X9.6459 Y4.8620 F120.00
G01 X9.6070 Y4.8676 F120.00
G01 X9.5926 Y4.8707 F120.00
G01 X9.5598 Y4.8791 F120.00
G01 X9.5269 Y4.8906 F120.00
G01 X9.5132 Y4.8961 F120.00
G01 X9.4778 Y4.9130 F120.00
G01 X9.4482 Y4.9305 F120.00
G01 X9.4359 Y4.9385 F120.00
G01 X9.4044 Y4.9620 F120.00
G01 X9.3717 Y4.9917 F120.00
G01 X8.1783 Y6.1852 F120.00
G01 X8.1552 Y6.2107 F120.00
G01 X8.1460 Y6.2222 F120.00
G01 X8.1257 Y6.2499 F120.00
G01 X8.1079 Y6.2793 F120.00
G01 X8.1008 Y6.2922 F120.00
G01 X8.0841 Y6.3277 F120.00
G01 X8.0693 Y6.3693 F120.00
G01 X8.0595 Y6.4074 F120.00
G01 X8.0568 Y6.4219 F120.00
G01 X8.0520 Y6.4559 F120.00
G01 X8.0499 Y6.5000 F120.00
G01 X8.0499 Y10.3136 F120.00
G01 X4.6783 Y13.6852 F120.00
G01 X4.6522 Y13.7143 F120.00
G01 X4.6314 Y13.7419 F120.00
G01 X4.6231 Y13.7540 F120.00
G01 X4.6030 Y13.7878 F120.00
G01 X4.5861 Y13.8232 F120.00
G01 X4.5806 Y13.8369 F120.00
G01 X4.5693 Y13.8693 F120.00
G01 X4.5595 Y13.9074 F120.00
G01 X4.5568 Y13.9219 F120.00
G01 X4.5520 Y13.9559 F120.00
G01 X4.5499 Y14.0000 F120.00
G01 X4.5499 Y27.0000 F120.00
G01 X4.5520 Y27.0434 F120.00
G01 X4.5532 Y27.0539 F120.00
G01 X4.5585 Y27.0878 F120.00
G01 X4.5669 Y27.1222 F120.00
G01 X4.5708 Y27.1356 F120.00
G01 X4.5806 Y27.1631 F120.00
G01 X4.5881 Y27.1812 F120.00
G01 X4.6030 Y27.2122 F120.00
G01 X4.6257 Y27.2501 F120.00
G01 X4.6513 Y27.2847 F120.00
G01 X4.6585 Y27.2930 F120.00
G01 X4.6817 Y27.3183 F120.00
G01 X17.0499 Y39.6864 F120.00
G01 X17.0499 Y68.9000 F120.00
G01 X16.7527 Y68.9002 F120.00
G01 X16.7196 Y68.9021 F120.00
G01 X16.6820 Y68.9075 F120.00
G01 X16.6723 Y68.9094 F120.00
G01 X16.6450 Y68.9162 F120.00
G01 X16.6308 Y68.9203 F120.00
G01 X16.5951 Y68.9333 F120.00
G01 X16.5563 Y68.9517 F120.00
G01 X16.5195 Y68.9737 F120.00
G01 X16.4850 Y68.9993 F120.00
G01 X16.4531 Y69.0281 F120.00
G01 X16.4243 Y69.0600 F120.00
G01 X16.3987 Y69.0944 F120.00
G01 X16.3790 Y69.1270 F120.00
G01 X16.3722 Y69.1400 F120.00
G01 X16.3583 Y69.1701 F120.00
G01 X16.3438 Y69.2105 F120.00
G01 X16.3334 Y69.2521 F120.00
G01 X16.3283 Y69.2849 F120.00
G01 X16.3267 Y69.2995 F120.00
G01 X16.3250 Y69.3375 F120.00
G01 X16.3251 Y69.8424 F120.00
G01 X16.3271 Y69.8804 F120.00
G01 X16.3317 Y69.9132 F120.00
G01 X16.3344 Y69.9277 F120.00
G01 X16.3438 Y69.9645 F120.00
G01 X16.3565 Y70.0004 F120.00
G01 X16.3623 Y70.0139 F120.00
G01 X16.3767 Y70.0437 F120.00
G01 X16.3961 Y70.0764 F120.00
G01 X16.4044 Y70.0886 F120.00
G01 X16.4243 Y70.1150 F120.00
G01 X16.4531 Y70.1469 F120.00
G01 X16.4775 Y70.1693 F120.00
G01 X16.4888 Y70.1788 F120.00
G01 X16.5154 Y70.1985 F120.00
G01 X16.5277 Y70.2065 F120.00
G01 X16.5563 Y70.2233 F120.00
G01 X16.5861 Y70.2377 F120.00
G01 X16.5996 Y70.2435 F120.00
G01 X16.6262 Y70.2531 F120.00
G01 X16.6402 Y70.2575 F120.00
G01 X16.6723 Y70.2656 F120.00
G01 X16.6868 Y70.2683 F120.00
G01 X16.7147 Y70.2724 F120.00
G01 X16.7294 Y70.2736 F120.00
G01 X16.7625 Y70.2750 F120.00
G01 X17.2375 Y70.2750 F120.00
G01 X17.2804 Y70.2729 F120.00
G01 X17.3132 Y70.2683 F120.00
G01 X17.3277 Y70.2656 F120.00
G01 X17.3598 Y70.2575 F120.00
G01 X17.3738 Y70.2531 F120.00
G01 X17.4004 Y70.2435 F120.00
G01 X17.4139 Y70.2377 F120.00
G01 X17.4437 Y70.2233 F120.00
G01 X17.4723 Y70.2065 F120.00
G01 X17.4846 Y70.1985 F120.00
G01 X17.5112 Y70.1788 F120.00
G01 X17.5188 Y70.1725 F120.00
G01 X17.5397 Y70.1536 F120.00
G01 X17.5536 Y70.1397 F120.00
G01 X17.5725 Y70.1188 F120.00
G01 X17.5817 Y70.1073 F120.00
G01 X17.6013 Y70.0806 F120.00
G01 X17.6233 Y70.0437 F120.00
G01 X17.6417 Y70.0049 F120.00
G01 X17.6562 Y69.9645 F120.00
G01 X17.6656 Y69.9277 F120.00
G01 X17.6683 Y69.9132 F120.00
G01 X17.6729 Y69.8804 F120.00
G01 X17.6748 Y69.8473 F120.00
G01 X17.6750 Y69.5491 F120.00
G01 X17.8217 Y69.4023 F120.00
G01 X17.8480 Y69.3731 F120.00
G01 X17.8686 Y69.3456 F120.00
G01 X17.8769 Y69.3335 F120.00
G01 X17.8970 Y69.2997 F120.00
G01 X17.9119 Y69.2687 F120.00
G01 X17.9177 Y69.2552 F120.00
G01 X17.9293 Y69.2228 F120.00
G01 X17.9334 Y69.2087 F120.00
G01 X17.9415 Y69.1753 F120.00
G01 X17.9474 Y69.1365 F120.00
G01 X17.9487 Y69.1218 F120.00
G01 X17.9501 Y69.0875 F120.00
G01 X17.9501 Y39.5000 F120.00
G01 X17.9485 Y39.4618 F120.00
G01 X17.9468 Y39.4461 F120.00
G01 X17.9415 Y39.4122 F120.00
G01 X17.9334 Y39.3788 F120.00
G01 X17.9277 Y39.3600 F120.00
G01 X17.9151 Y39.3258 F120.00
G01 X17.8992 Y39.2922 F120.00
G01 X17.8921 Y39.2793 F120.00
G01 X17.8743 Y39.2499 F120.00
G01 X17.8540 Y39.2222 F120.00
G01 X17.8448 Y39.2107 F120.00
G01 X17.8183 Y39.1817 F120.00
G01 X5.4501 Y26.8136 F120.00
G01 X5.4501 Y14.1864 F120.00
G01 X8.8183 Y10.8183 F120.00
G01 X8.8480 Y10.7856 F120.00
G01 X8.8686 Y10.7581 F120.00
G01 X8.8769 Y10.7460 F120.00
G01 X8.8970 Y10.7122 F120.00
G01 X8.9159 Y10.6723 F120.00
G01 X8.9293 Y10.6353 F120.00
G01 X8.9334 Y10.6212 F120.00
G01 X8.9415 Y10.5878 F120.00
G01 X8.9468 Y10.5539 F120.00
G01 X8.9484 Y10.5392 F120.00
G01 X8.9501 Y10.5049 F120.00
G01 X8.9501 Y6.6864 F120.00
G01 X9.8764 Y5.7601 F120.00
G01 X10.3000 Y5.7601 F120.00
G01 X10.3005 Y5.7747 F120.00
G01 X10.3022 Y5.7893 F120.00
G01 X10.3049 Y5.8038 F120.00
G01 X10.3086 Y5.8181 F120.00
G01 X10.3134 Y5.8320 F120.00
G01 X10.3192 Y5.8455 F120.00
G01 X10.3260 Y5.8586 F120.00
G01 X10.3337 Y5.8711 F120.00
G01 X10.3423 Y5.8830 F120.00
G01 X10.3518 Y5.8943 F120.00
G01 X10.3621 Y5.9048 F120.00
G01 X10.3731 Y5.9146 F120.00
G01 X10.3848 Y5.9235 F120.00
G01 X10.3972 Y5.9315 F120.00
G01 X10.4101 Y5.9386 F120.00
G01 X10.4240 Y5.9450 F120.00
G01 X10.4101 Y5.9514 F120.00
G01 X10.3972 Y5.9585 F120.00
G01 X10.3848 Y5.9665 F120.00
G01 X10.3731 Y5.9754 F120.00
G01 X10.3621 Y5.9852 F120.00
G01 X10.3518 Y5.9957 F120.00
G01 X10.3423 Y6.0070 F120.00
G01 X10.3337 Y6.0189 F120.00
G01 X10.3260 Y6.0314 F120.00
G01 X10.3192 Y6.0445 F120.00
G01 X10.3134 Y6.0580 F120.00
G01 X10.3086 Y6.0719 F120.00
G01 X10.3049 Y6.0862 F120.00
G01 X10.3022 Y6.1007 F120.00
G01 X10.3005 Y6.1153 F120.00
G01 X10.3000 Y6.1299 F120.00
G01 X9.9951 Y6.1299 F120.00
G01 X9.9559 Y6.1320 F120.00
G01 X9.9170 Y6.1376 F120.00
G01 X9.9026 Y6.1407 F120.00
G01 X9.8698 Y6.1491 F120.00
G01 X9.8323 Y6.1623 F120.00
G01 X9.8188 Y6.1681 F120.00
G01 X9.7878 Y6.1830 F120.00
G01 X9.7582 Y6.2005 F120.00
G01 X9.7459 Y6.2085 F120.00
G01 X9.7183 Y6.2290 F120.00
G01 X9.7070 Y6.2385 F120.00
G01 X9.6817 Y6.2617 F120.00
G01 X9.1817 Y6.7617 F120.00
G01 X9.1551 Y6.7908 F120.00
G01 X9.1460 Y6.8022 F120.00
G01 X9.1257 Y6.8299 F120.00
G01 X9.1077 Y6.8596 F120.00
G01 X9.0986 Y6.8766 F120.00
G01 X9.0840 Y6.9080 F120.00
G01 X9.0706 Y6.9450 F120.00
G01 X9.0666 Y6.9588 F120.00
G01 X9.0596 Y6.9872 F120.00
G01 X9.0577 Y6.9966 F120.00
G01 X9.0520 Y7.0359 F120.00
G01 X9.0499 Y7.0800 F120.00
G01 X9.0499 Y10.8136 F120.00
G01 X5.6784 Y14.1851 F120.00
G01 X5.6520 Y14.2145 F120.00
G01 X5.6314 Y14.2419 F120.00
G01 X5.6216 Y14.2564 F120.00
G01 X5.6029 Y14.2881 F120.00
G01 X5.5843 Y14.3273 F120.00
G01 X5.5723 Y14.3600 F120.00
G01 X5.5678 Y14.3744 F120.00
G01 X5.5585 Y14.4122 F120.00
G01 X5.5520 Y14.4559 F120.00
G01 X5.5499 Y14.5000 F120.00
G01 X5.5499 Y26.5000 F120.00
G01 X5.5513 Y26.5349 F120.00
G01 X5.5526 Y26.5491 F120.00
G01 X5.5585 Y26.5878 F120.00
G01 X5.5693 Y26.6307 F120.00
G01 X5.5806 Y26.6631 F120.00
G01 X5.5843 Y26.6726 F120.00
G01 X5.5986 Y26.7034 F120.00
G01 X5.6079 Y26.7207 F120.00
G01 X5.6231 Y26.7460 F120.00
G01 X5.6314 Y26.7581 F120.00
G01 X5.6520 Y26.7856 F120.00
G01 X5.6817 Y26.8183 F120.00
G01 X18.0499 Y39.1864 F120.00
G01 X18.0499 Y69.0875 F120.00
G01 X18.0516 Y69.1267 F120.00
G01 X18.0532 Y69.1414 F120.00
G01 X18.0585 Y69.1753 F120.00
G01 X18.0666 Y69.2087 F120.00
G01 X18.0707 Y69.2228 F120.00
G01 X18.0841 Y69.2598 F120.00
G01 X18.1008 Y69.2953 F120.00
G01 X18.1079 Y69.3082 F120.00
G01 X18.1230 Y69.3334 F120.00
G01 X18.1285 Y69.3416 F120.00
G01 X18.1490 Y69.3692 F120.00
G01 X18.1585 Y69.3805 F120.00
G01 X18.1817 Y69.4058 F120.00
G01 X18.3250 Y69.5491 F120.00
G01 X18.3250 Y69.8375 F120.00
G01 X18.3267 Y69.8755 F120.00
G01 X18.3283 Y69.8901 F120.00
G01 X18.3334 Y69.9229 F120.00
G01 X18.3412 Y69.9550 F120.00
G01 X18.3453 Y69.9692 F120.00
G01 X18.3548 Y69.9958 F120.00
G01 X18.3602 Y70.0094 F120.00
G01 X18.3744 Y70.0394 F120.00
G01 X18.3815 Y70.0523 F120.00
G01 X18.3987 Y70.0806 F120.00
G01 X18.4243 Y70.1150 F120.00
G01 X18.4531 Y70.1469 F120.00
G01 X18.4850 Y70.1757 F120.00
G01 X18.5194 Y70.2013 F120.00
G01 X18.5563 Y70.2233 F120.00
G01 X18.5951 Y70.2417 F120.00
G01 X18.6355 Y70.2562 F120.00
G01 X18.6771 Y70.2666 F120.00
G01 X18.7196 Y70.2729 F120.00
G01 X18.7625 Y70.2750 F120.00
G01 X19.2424 Y70.2749 F120.00
G01 X19.2804 Y70.2729 F120.00
G01 X19.3229 Y70.2666 F120.00
G01 X19.3645 Y70.2562 F120.00
G01 X19.3958 Y70.2452 F120.00
G01 X19.4094 Y70.2398 F120.00
G01 X19.4350 Y70.2278 F120.00
G01 X19.4523 Y70.2185 F120.00
G01 X19.4806 Y70.2013 F120.00
G01 X19.5150 Y70.1757 F120.00
G01 X19.5469 Y70.1469 F120.00
G01 X19.5757 Y70.1150 F120.00
G01 X19.6013 Y70.0806 F120.00
G01 X19.6185 Y70.0523 F120.00
G01 X19.6278 Y70.0350 F120.00
G01 X19.6398 Y70.0094 F120.00
G01 X19.6452 Y69.9958 F120.00
G01 X19.6562 Y69.9645 F120.00
G01 X19.6666 Y69.9229 F120.00
G01 X19.6729 Y69.8804 F120.00
G01 X19.6749 Y69.8424 F120.00
G01 X19.6750 Y69.3375 F120.00
G01 X19.6736 Y69.3044 F120.00
G01 X19.6724 Y69.2897 F120.00
G01 X19.6666 Y69.2521 F120.00
G01 X19.6588 Y69.2200 F120.00
G01 X19.6547 Y69.2058 F120.00
G01 X19.6417 Y69.1701 F120.00
G01 X19.6256 Y69.1356 F120.00
G01 X19.6185 Y69.1227 F120.00
G01 X19.6013 Y69.0945 F120.00
G01 X19.5788 Y69.0638 F120.00
G01 X19.5725 Y69.0562 F120.00
G01 X19.5536 Y69.0353 F120.00
G01 X19.5397 Y69.0214 F120.00
G01 X19.5150 Y68.9993 F120.00
G01 X19.4806 Y68.9737 F120.00
G01 X19.4437 Y68.9517 F120.00
G01 X19.4139 Y68.9373 F120.00
G01 X19.3958 Y68.9298 F120.00
G01 X19.3692 Y68.9203 F120.00
G01 X19.3550 Y68.9162 F120.00
G01 X19.3229 Y68.9084 F120.00
G01 X19.2901 Y68.9033 F120.00
G01 X19.2755 Y68.9017 F120.00
G01 X19.2473 Y68.9002 F120.00
G01 X18.9501 Y68.9000 F120.00
G01 X18.9501 Y39.0000 F120.00
G01 X18.9484 Y38.9608 F120.00
G01 X18.9468 Y38.9461 F120.00
G01 X18.9415 Y38.9122 F120.00
G01 X18.9323 Y38.8747 F120.00
G01 X18.9277 Y38.8600 F120.00
G01 X18.9159 Y38.8277 F120.00
G01 X18.8992 Y38.7922 F120.00
G01 X18.8921 Y38.7793 F120.00
G01 X18.8743 Y38.7499 F120.00
G01 X18.8540 Y38.7222 F120.00
G01 X18.8448 Y38.7107 F120.00
G01 X18.8183 Y38.6817 F120.00
G01 X6.4501 Y26.3136 F120.00
G01 X6.4501 Y14.6864 F120.00
G01 X9.8183 Y11.3183 F120.00
G01 X9.8455 Y11.2884 F120.00
G01 X9.8517 Y11.2808 F120.00
G01 X9.8690 Y11.2576 F120.00
G01 X9.8795 Y11.2418 F120.00
G01 X9.8923 Y11.2204 F120.00
G01 X9.8993 Y11.2077 F120.00
G01 X9.9141 Y11.1764 F120.00
G01 X9.9194 Y11.1631 F120.00
G01 X9.9309 Y11.1302 F120.00
G01 X9.9393 Y11.0974 F120.00
G01 X9.9423 Y11.0834 F120.00
G01 X9.9474 Y11.0490 F120.00
G01 X9.9487 Y11.0343 F120.00
G01 X9.9501 Y11.0049 F120.00
G01 X9.9501 Y7.2664 F120.00
G01 X10.1864 Y7.0301 F120.00
G01 X10.3000 Y7.0301 F120.00
G01 X10.3005 Y7.0447 F120.00
G01 X10.3022 Y7.0593 F120.00
G01 X10.3049 Y7.0738 F120.00
G01 X10.3086 Y7.0881 F120.00
G01 X10.3134 Y7.1020 F120.00
G01 X10.3192 Y7.1155 F120.00
G01 X10.3260 Y7.1286 F120.00
G01 X10.3337 Y7.1411 F120.00
G01 X10.3423 Y7.1530 F120.00
G01 X10.3518 Y7.1643 F120.00
G01 X10.3621 Y7.1748 F120.00
G01 X10.3731 Y7.1846 F120.00
G01 X10.3848 Y7.1935 F120.00
G01 X10.3972 Y7.2015 F120.00
G01 X10.4101 Y7.2086 F120.00
G01 X10.4240 Y7.2150 F120.00
G01 X10.4145 Y7.2192 F120.00
G01 X10.4014 Y7.2260 F120.00
G01 X10.3889 Y7.2337 F120.00
G01 X10.3770 Y7.2423 F120.00
G01 X10.3657 Y7.2518 F120.00
G01 X10.3552 Y7.2621 F120.00
G01 X10.3454 Y7.2731 F120.00
G01 X10.3365 Y7.2848 F120.00
G01 X10.3285 Y7.2972 F120.00
G01 X10.3214 Y7.3101 F120.00
G01 X10.3152 Y7.3235 F120.00
G01 X10.3101 Y7.3373 F120.00
G01 X10.3060 Y7.3514 F120.00
G01 X10.3029 Y7.3658 F120.00
G01 X10.3010 Y7.3804 F120.00
G01 X10.3001 Y7.3951 F120.00
G01 X10.3000 Y8.3000 F120.00
G01 X10.3002 Y8.3098 F120.00
G01 X10.3015 Y8.3245 F120.00
G01 X10.3038 Y8.3390 F120.00
G01 X10.3072 Y8.3533 F120.00
G01 X10.3101 Y8.3627 F120.00
G01 X10.3152 Y8.3765 F120.00
G01 X10.3214 Y8.3899 F120.00
G01 X10.3260 Y8.3986 F120.00
G01 X10.3337 Y8.4111 F120.00
G01 X10.3423 Y8.4230 F120.00
G01 X10.3518 Y8.4343 F120.00
G01 X10.3621 Y8.4448 F120.00
G01 X10.3731 Y8.4546 F120.00
G01 X10.3809 Y8.4606 F120.00
G01 X10.3930 Y8.4690 F120.00
G01 X10.4014 Y8.4740 F120.00
G01 X10.4145 Y8.4808 F120.00
G01 X10.4240 Y8.4850 F120.00
G01 X10.4145 Y8.4892 F120.00
G01 X10.4014 Y8.4960 F120.00
G01 X10.3889 Y8.5037 F120.00
G01 X10.3809 Y8.5094 F120.00
G01 X10.3694 Y8.5186 F120.00
G01 X10.3621 Y8.5252 F120.00
G01 X10.3518 Y8.5357 F120.00
G01 X10.3423 Y8.5470 F120.00
G01 X10.3337 Y8.5589 F120.00
G01 X10.3260 Y8.5714 F120.00
G01 X10.3214 Y8.5801 F120.00
G01 X10.3152 Y8.5935 F120.00
G01 X10.3117 Y8.6026 F120.00
G01 X10.3072 Y8.6167 F120.00
G01 X10.3038 Y8.6310 F120.00
G01 X10.3015 Y8.6455 F120.00
G01 X10.3002 Y8.6602 F120.00
G01 X10.3000 Y8.6700 F120.00
G01 X10.3002 Y9.5798 F120.00
G01 X10.3015 Y9.5945 F120.00
G01 X10.3029 Y9.6042 F120.00
G01 X10.3060 Y9.6186 F120.00
G01 X10.3101 Y9.6327 F120.00
G01 X10.3152 Y9.6465 F120.00
G01 X10.3214 Y9.6599 F120.00
G01 X10.3285 Y9.6728 F120.00
G01 X10.3365 Y9.6852 F120.00
G01 X10.3454 Y9.6969 F120.00
G01 X10.3552 Y9.7079 F120.00
G01 X10.3657 Y9.7182 F120.00
G01 X10.3770 Y9.7277 F120.00
G01 X10.3889 Y9.7363 F120.00
G01 X10.4014 Y9.7440 F120.00
G01 X10.4145 Y9.7508 F120.00
G01 X10.4240 Y9.7550 F120.00
G01 X10.4145 Y9.7592 F120.00
G01 X10.4014 Y9.7660 F120.00
G01 X10.3889 Y9.7737 F120.00
G01 X10.3809 Y9.7794 F120.00
G01 X10.3694 Y9.7886 F120.00
G01 X10.3621 Y9.7952 F120.00
G01 X10.3518 Y9.8057 F120.00
G01 X10.3423 Y9.8170 F120.00
G01 X10.3337 Y9.8289 F120.00
G01 X10.3260 Y9.8414 F120.00
G01 X10.3214 Y9.8501 F120.00
G01 X10.3152 Y9.8635 F120.00
G01 X10.3117 Y9.8726 F120.00
G01 X10.3072 Y9.8867 F120.00
G01 X10.3038 Y9.9010 F120.00
G01 X10.3015 Y9.9155 F120.00
G01 X10.3002 Y9.9302 F120.00
G01 X10.3000 Y9.9400 F120.00
G01 X10.3000 Y10.8400 F120.00
G01 X10.3005 Y10.8547 F120.00
G01 X10.3022 Y10.8693 F120.00
G01 X10.3049 Y10.8838 F120.00
G01 X10.3086 Y10.8981 F120.00
G01 X10.3134 Y10.9120 F120.00
G01 X10.3192 Y10.9255 F120.00
G01 X10.3260 Y10.9386 F120.00
G01 X10.3337 Y10.9511 F120.00
G01 X10.3423 Y10.9630 F120.00
G01 X10.3518 Y10.9743 F120.00
G01 X10.3621 Y10.9848 F120.00
G01 X10.3731 Y10.9946 F120.00
G01 X10.3848 Y11.0035 F120.00
G01 X10.3972 Y11.0115 F120.00
G01 X10.4101 Y11.0186 F120.00
G01 X10.4240 Y11.0250 F120.00
G01 X10.4101 Y11.0314 F120.00
G01 X10.3972 Y11.0385 F120.00
G01 X10.3848 Y11.0465 F120.00
G01 X10.3731 Y11.0554 F120.00
G01 X10.3621 Y11.0652 F120.00
G01 X10.3518 Y11.0757 F120.00
G01 X10.3423 Y11.0870 F120.00
G01 X10.3337 Y11.0989 F120.00
G01 X10.3260 Y11.1114 F120.00
G01 X10.3192 Y11.1245 F120.00
G01 X10.3134 Y11.1380 F120.00
G01 X10.3086 Y11.1519 F120.00
G01 X10.3049 Y11.1662 F120.00
G01 X10.3022 Y11.1807 F120.00
G01 X10.3005 Y11.1953 F120.00
G01 X10.3000 Y11.2117 F120.00
G01 X10.2861 Y11.2132 F120.00
G01 X10.2570 Y11.2176 F120.00
G01 X10.2474 Y11.2195 F120.00
G01 X10.2188 Y11.2266 F120.00
G01 X10.2000 Y11.2323 F120.00
G01 X10.1723 Y11.2423 F120.00
G01 X10.1588 Y11.2481 F120.00
G01 X10.1278 Y11.2630 F120.00
G01 X10.0899 Y11.2857 F120.00
G01 X10.0544 Y11.3120 F120.00
G01 X10.0217 Y11.3417 F120.00
G01 X6.6817 Y14.6817 F120.00
G01 X6.6555 Y14.7104 F120.00
G01 X6.6460 Y14.7222 F120.00
G01 X6.6257 Y14.7499 F120.00
G01 X6.6030 Y14.7878 F120.00
G01 X6.5841 Y14.8277 F120.00
G01 X6.5723 Y14.8600 F120.00
G01 X6.5679 Y14.8740 F120.00
G01 X6.5585 Y14.9122 F120.00
G01 X6.5520 Y14.9559 F120.00
G01 X6.5499 Y15.0000 F120.00
G01 X6.5499 Y26.0000 F120.00
G01 X6.5520 Y26.0434 F120.00
G01 X6.5576 Y26.0830 F120.00
G01 X6.5595 Y26.0926 F120.00
G01 X6.5669 Y26.1222 F120.00
G01 X6.5723 Y26.1400 F120.00
G01 X6.5841 Y26.1722 F120.00
G01 X6.5986 Y26.2034 F120.00
G01 X6.6032 Y26.2125 F120.00
G01 X6.6257 Y26.2500 F120.00
G01 X6.6460 Y26.2778 F120.00
G01 X6.6552 Y26.2893 F120.00
G01 X6.6817 Y26.3183 F120.00
G01 X19.0499 Y38.6864 F120.00
G01 X19.0499 Y55.5000 F120.00
G01 X19.0520 Y55.5441 F120.00
G01 X19.0568 Y55.5781 F120.00
G01 X19.0595 Y55.5926 F120.00
G01 X19.0693 Y55.6307 F120.00
G01 X19.0841 Y55.6723 F120.00
G01 X19.0986 Y55.7034 F120.00
G01 X19.1079 Y55.7207 F120.00
G01 X19.1230 Y55.7459 F120.00
G01 X19.1285 Y55.7541 F120.00
G01 X19.1520 Y55.7856 F120.00
G01 X19.1817 Y55.8183 F120.00
G01 X22.1817 Y58.8183 F120.00
G01 X22.2107 Y58.8448 F120.00
G01 X22.2222 Y58.8540 F120.00
G01 X22.2499 Y58.8743 F120.00
G01 X22.2793 Y58.8921 F120.00
G01 X22.2922 Y58.8992 F120.00
G01 X22.3277 Y58.9159 F120.00
G01 X22.3600 Y58.9277 F120.00
G01 X22.3740 Y58.9321 F120.00
G01 X22.4122 Y58.9415 F120.00
G01 X22.4461 Y58.9468 F120.00
G01 X22.4608 Y58.9484 F120.00
G01 X22.5000 Y58.9501 F120.00
G01 X30.3136 Y58.9501 F120.00
G01 X32.6852 Y61.3217 F120.00
G01 X32.7107 Y61.3448 F120.00
G01 X32.7222 Y61.3540 F120.00
G01 X32.7499 Y61.3743 F120.00
G01 X32.7835 Y61.3946 F120.00
G01 X32.7966 Y61.4014 F120.00
G01 X32.8277 Y61.4159 F120.00
G01 X32.8647 Y61.4293 F120.00
G01 X32.8788 Y61.4334 F120.00
G01 X32.9122 Y61.4415 F120.00
G01 X32.9461 Y61.4468 F120.00
G01 X32.9608 Y61.4484 F120.00
G01 X33.0000 Y61.4501 F120.00
G01 X39.8136 Y61.4501 F120.00
G01 X40.5499 Y62.1864 F120.00
G01 X40.5499 Y63.7400 F120.00
G01 X40.5518 Y63.7819 F120.00
G01 X40.5568 Y63.8181 F120.00
G01 X40.5596 Y63.8330 F120.00
G01 X40.5696 Y63.8716 F120.00
G01 X40.5806 Y63.9031 F120.00
G01 X40.5851 Y63.9145 F120.00
G01 X40.6013 Y63.9488 F120.00
G01 X40.6079 Y63.9607 F120.00
G01 X40.6239 Y63.9873 F120.00
G01 X40.6314 Y63.9981 F120.00
G01 X40.6530 Y64.0267 F120.00
G01 X40.6749 Y64.0512 F120.00
G01 X41.5117 Y64.8883 F120.00
G01 X41.4980 Y64.9266 F120.00
G01 X41.4938 Y64.9401 F120.00
G01 X41.4712 Y65.0304 F120.00
G01 X41.4685 Y65.0448 F120.00
G01 X41.4563 Y65.1273 F120.00
G01 X41.4546 Y65.1420 F120.00
G01 X41.4500 Y65.2400 F120.00
G01 X41.4543 Y65.3331 F120.00
G01 X41.4563 Y65.3527 F120.00
G01 X41.4694 Y65.4407 F120.00
G01 X41.4723 Y65.4544 F120.00
G01 X41.4926 Y65.5353 F120.00
G01 X41.4983 Y65.5541 F120.00
G01 X41.5299 Y65.6418 F120.00
G01 X41.5696 Y65.7262 F120.00
G01 X41.5788 Y65.7435 F120.00
G01 X41.6270 Y65.8233 F120.00
G01 X41.6823 Y65.8984 F120.00
G01 X41.6915 Y65.9099 F120.00
G01 X41.7508 Y65.9754 F120.00
G01 X41.7646 Y65.9892 F120.00
G01 X41.8339 Y66.0517 F120.00
G01 X41.9086 Y66.1074 F120.00
G01 X41.9249 Y66.1183 F120.00
G01 X42.0050 Y66.1660 F120.00
G01 X42.0892 Y66.2061 F120.00
G01 X42.1073 Y66.2136 F120.00
G01 X42.1956 Y66.2449 F120.00
G01 X42.2856 Y66.2677 F120.00
G01 X42.3048 Y66.2715 F120.00
G01 X42.3971 Y66.2849 F120.00
G01 X42.4902 Y66.2898 F120.00
G01 X42.5098 Y66.2898 F120.00
G01 X42.6029 Y66.2849 F120.00
G01 X42.6952 Y66.2715 F120.00
G01 X42.7144 Y66.2677 F120.00
G01 X42.8048 Y66.2448 F120.00
G01 X42.8927 Y66.2136 F120.00
G01 X42.9108 Y66.2061 F120.00
G01 X42.9950 Y66.1660 F120.00
G01 X43.0751 Y66.1183 F120.00
G01 X43.0914 Y66.1074 F120.00
G01 X43.1661 Y66.0517 F120.00
G01 X43.2425 Y65.9825 F120.00
G01 X43.3052 Y65.9135 F120.00
G01 X43.3177 Y65.8984 F120.00
G01 X43.3730 Y65.8233 F120.00
G01 X43.4212 Y65.7435 F120.00
G01 X43.4304 Y65.7262 F120.00
G01 X43.4701 Y65.6418 F120.00
G01 X43.5020 Y65.5534 F120.00
G01 X43.5074 Y65.5353 F120.00
G01 X43.5298 Y65.4448 F120.00
G01 X43.5449 Y65.3429 F120.00
G01 X43.5500 Y65.2400 F120.00
G01 X43.5457 Y65.1469 F120.00
G01 X43.5437 Y65.1273 F120.00
G01 X43.5297 Y65.0347 F120.00
G01 X43.5048 Y64.9352 F120.00
G01 X43.4736 Y64.8473 F120.00
G01 X43.4661 Y64.8292 F120.00
G01 X43.4260 Y64.7450 F120.00
G01 X43.3783 Y64.6649 F120.00
G01 X43.3674 Y64.6486 F120.00
G01 X43.3117 Y64.5739 F120.00
G01 X43.2459 Y64.5011 F120.00
G01 X43.2354 Y64.4908 F120.00
G01 X43.1735 Y64.4348 F120.00
G01 X43.1584 Y64.4223 F120.00
G01 X43.0833 Y64.3670 F120.00
G01 X42.9950 Y64.3140 F120.00
G01 X42.9108 Y64.2739 F120.00
G01 X42.8927 Y64.2664 F120.00
G01 X42.8048 Y64.2352 F120.00
G01 X42.7096 Y64.2112 F120.00
G01 X42.6952 Y64.2085 F120.00
G01 X42.6127 Y64.1963 F120.00
G01 X42.5931 Y64.1943 F120.00
G01 X42.5000 Y64.1900 F120.00
G01 X42.4020 Y64.1946 F120.00
G01 X42.3873 Y64.1963 F120.00
G01 X42.3048 Y64.2085 F120.00
G01 X42.2901 Y64.2112 F120.00
G01 X42.1999 Y64.2338 F120.00
G01 X42.1859 Y64.2383 F120.00
G01 X42.1483 Y64.2517 F120.00
G01 X41.4501 Y63.5536 F120.00
G01 X41.4501 Y62.7067 F120.00
G01 X41.4551 Y62.8029 F120.00
G01 X41.4685 Y62.8952 F120.00
G01 X41.4723 Y62.9144 F120.00
G01 X41.4952 Y63.0048 F120.00
G01 X41.5299 Y63.1018 F120.00
G01 X41.5696 Y63.1862 F120.00
G01 X41.5788 Y63.2035 F120.00
G01 X41.6217 Y63.2751 F120.00
G01 X41.6326 Y63.2914 F120.00
G01 X41.6883 Y63.3661 F120.00
G01 X41.7575 Y63.4425 F120.00
G01 X41.8339 Y63.5117 F120.00
G01 X41.9086 Y63.5674 F120.00
G01 X41.9249 Y63.5783 F120.00
G01 X41.9965 Y63.6212 F120.00
G01 X42.0138 Y63.6304 F120.00
G01 X42.0982 Y63.6701 F120.00
G01 X42.1866 Y63.7020 F120.00
G01 X42.2047 Y63.7074 F120.00
G01 X42.2856 Y63.7277 F120.00
G01 X42.3048 Y63.7315 F120.00
G01 X42.3971 Y63.7449 F120.00
G01 X42.5000 Y63.7500 F120.00
G01 X42.5931 Y63.7457 F120.00
G01 X42.6127 Y63.7437 F120.00
G01 X42.7048 Y63.7298 F120.00
G01 X42.8048 Y63.7048 F120.00
G01 X42.8927 Y63.6736 F120.00
G01 X42.9108 Y63.6661 F120.00
G01 X42.9950 Y63.6260 F120.00
G01 X43.0833 Y63.5730 F120.00
G01 X43.1661 Y63.5117 F120.00
G01 X43.2354 Y63.4492 F120.00
G01 X43.2492 Y63.4354 F120.00
G01 X43.3052 Y63.3735 F120.00
G01 X43.3147 Y63.3623 F120.00
G01 X43.3730 Y63.2833 F120.00
G01 X43.4212 Y63.2035 F120.00
G01 X43.4304 Y63.1862 F120.00
G01 X43.4661 Y63.1108 F120.00
G01 X43.4736 Y63.0927 F120.00
G01 X43.5049 Y63.0044 F120.00
G01 X43.5277 Y62.9144 F120.00
G01 X43.5315 Y62.8952 F120.00
G01 X43.5449 Y62.8029 F120.00
G01 X43.5500 Y62.7000 F120.00
G01 X43.5449 Y62.5971 F120.00
G01 X43.5314 Y62.5039 F120.00
G01 X43.5277 Y62.4856 F120.00
G01 X43.5048 Y62.3952 F120.00
G01 X43.4736 Y62.3073 F120.00
G01 X43.4661 Y62.2892 F120.00
G01 X43.4304 Y62.2138 F120.00
G01 X43.4212 Y62.1965 F120.00
G01 X43.3730 Y62.1167 F120.00
G01 X43.3117 Y62.0339 F120.00
G01 X43.2425 Y61.9575 F120.00
G01 X43.1735 Y61.8948 F120.00
G01 X43.1584 Y61.8823 F120.00
G01 X43.0833 Y61.8270 F120.00
G01 X43.0035 Y61.7788 F120.00
G01 X42.9862 Y61.7696 F120.00
G01 X42.9063 Y61.7319 F120.00
G01 X42.8927 Y61.7264 F120.00
G01 X42.8048 Y61.6952 F120.00
G01 X42.7144 Y61.6723 F120.00
G01 X42.6952 Y61.6685 F120.00
G01 X42.6029 Y61.6551 F120.00
G01 X42.5098 Y61.6502 F120.00
G01 X42.4902 Y61.6502 F120.00
G01 X42.3971 Y61.6551 F120.00
G01 X42.3039 Y61.6686 F120.00
G01 X42.2856 Y61.6723 F120.00
G01 X42.1952 Y61.6952 F120.00
G01 X42.1073 Y61.7264 F120.00
G01 X42.0892 Y61.7339 F120.00
G01 X42.0050 Y61.7740 F120.00
G01 X41.9167 Y61.8270 F120.00
G01 X41.8339 Y61.8883 F120.00
G01 X41.7646 Y61.9508 F120.00
G01 X41.7508 Y61.9646 F120.00
G01 X41.6883 Y62.0339 F120.00
G01 X41.6326 Y62.1086 F120.00
G01 X41.6217 Y62.1249 F120.00
G01 X41.5740 Y62.2050 F120.00
G01 X41.5299 Y62.2982 F120.00
G01 X41.4980 Y62.3866 F120.00
G01 X41.4926 Y62.4047 F120.00
G01 X41.4701 Y62.4958 F120.00
G01 X41.4563 Y62.5873 F120.00
G01 X41.4543 Y62.6069 F120.00
G01 X41.4501 Y62.6933 F120.00
G01 X41.4501 Y62.0000 F120.00
G01 X41.4485 Y61.9619 F120.00
G01 X41.4468 Y61.9461 F120.00
G01 X41.4417 Y61.9136 F120.00
G01 X41.4332 Y61.8780 F120.00
G01 X41.4292 Y61.8645 F120.00
G01 X41.4170 Y61.8306 F120.00
G01 X41.4134 Y61.8221 F120.00
G01 X41.4014 Y61.7966 F120.00
G01 X41.3947 Y61.7837 F120.00
G01 X41.3770 Y61.7541 F120.00
G01 X41.3686 Y61.7419 F120.00
G01 X41.3471 Y61.7134 F120.00
G01 X41.3183 Y61.6817 F120.00
G01 X40.3148 Y60.6783 F120.00
G01 X40.2858 Y60.6522 F120.00
G01 X40.2581 Y60.6314 F120.00
G01 X40.2460 Y60.6231 F120.00
G01 X40.2165 Y60.6054 F120.00
G01 X40.2034 Y60.5986 F120.00
G01 X40.1723 Y60.5841 F120.00
G01 X40.1353 Y60.5707 F120.00
G01 X40.1212 Y60.5666 F120.00
G01 X40.0878 Y60.5585 F120.00
G01 X40.0539 Y60.5532 F120.00
G01 X40.0392 Y60.5516 F120.00
G01 X40.0000 Y60.5499 F120.00
G01 X33.1864 Y60.5499 F120.00
G01 X30.8148 Y58.1783 F120.00
G01 X30.7858 Y58.1522 F120.00
G01 X30.7581 Y58.1314 F120.00
G01 X30.7460 Y58.1231 F120.00
G01 X30.7122 Y58.1030 F120.00
G01 X30.6723 Y58.0841 F120.00
G01 X30.6400 Y58.0723 F120.00
G01 X30.6212 Y58.0666 F120.00
G01 X30.5926 Y58.0595 F120.00
G01 X30.5830 Y58.0576 F120.00
G01 X30.5441 Y58.0520 F120.00
G01 X30.5000 Y58.0499 F120.00
G01 X22.6864 Y58.0499 F120.00
G01 X19.9501 Y55.3136 F120.00
G01 X19.9501 Y38.5000 F120.00
G01 X19.9480 Y38.4566 F120.00
G01 X19.9468 Y38.4461 F120.00
G01 X19.9414 Y38.4117 F120.00
G01 X19.9309 Y38.3698 F120.00
G01 X19.9277 Y38.3600 F120.00
G01 X19.9160 Y38.3280 F120.00
G01 X19.9014 Y38.2966 F120.00
G01 X19.8963 Y38.2866 F120.00
G01 X19.8743 Y38.2499 F120.00
G01 X19.8480 Y38.2144 F120.00
G01 X19.8183 Y38.1817 F120.00
G01 X7.4501 Y25.8136 F120.00
G01 X7.4501 Y15.1864 F120.00
G01 X10.3725 Y12.2641 F120.00
G01 X10.3848 Y12.2735 F120.00
G01 X10.3972 Y12.2815 F120.00
G01 X10.4101 Y12.2886 F120.00
G01 X10.4240 Y12.2950 F120.00
G01 X10.4145 Y12.2992 F120.00
G01 X10.4014 Y12.3060 F120.00
G01 X10.3889 Y12.3137 F120.00
G01 X10.3770 Y12.3223 F120.00
G01 X10.3657 Y12.3318 F120.00
G01 X10.3552 Y12.3421 F120.00
G01 X10.3454 Y12.3531 F120.00
G01 X10.3394 Y12.3609 F120.00
G01 X10.3310 Y12.3730 F120.00
G01 X10.3236 Y12.3857 F120.00
G01 X10.3172 Y12.3990 F120.00
G01 X10.3117 Y12.4126 F120.00
G01 X10.3072 Y12.4267 F120.00
G01 X10.3049 Y12.4362 F120.00
G01 X10.3022 Y12.4507 F120.00
G01 X10.3005 Y12.4653 F120.00
G01 X10.3000 Y12.4800 F120.00
G01 X10.3002 Y13.3898 F120.00
G01 X10.3015 Y13.4045 F120.00
G01 X10.3029 Y13.4142 F120.00
G01 X10.3060 Y13.4286 F120.00
G01 X10.3101 Y13.4427 F120.00
G01 X10.3152 Y13.4565 F120.00
G01 X10.3214 Y13.4699 F120.00
G01 X10.3285 Y13.4828 F120.00
G01 X10.3365 Y13.4952 F120.00
G01 X10.3454 Y13.5069 F120.00
G01 X10.3552 Y13.5179 F120.00
G01 X10.3657 Y13.5282 F120.00
G01 X10.3770 Y13.5377 F120.00
G01 X10.3889 Y13.5463 F120.00
G01 X10.4014 Y13.5540 F120.00
G01 X10.4145 Y13.5608 F120.00
G01 X10.4240 Y13.5650 F120.00
G01 X10.4101 Y13.5714 F120.00
G01 X10.3972 Y13.5785 F120.00
G01 X10.3848 Y13.5865 F120.00
G01 X10.3731 Y13.5954 F120.00
G01 X10.3621 Y13.6052 F120.00
G01 X10.3518 Y13.6157 F120.00
G01 X10.3423 Y13.6270 F120.00
G01 X10.3337 Y13.6389 F120.00
G01 X10.3260 Y13.6514 F120.00
G01 X10.3192 Y13.6645 F120.00
G01 X10.3134 Y13.6780 F120.00
G01 X10.3086 Y13.6919 F120.00
G01 X10.3049 Y13.7062 F120.00
G01 X10.3022 Y13.7207 F120.00
G01 X10.3005 Y13.7353 F120.00
G01 X10.3000 Y13.7499 F120.00
G01 X9.8000 Y13.7499 F120.00
G01 X9.7657 Y13.7513 F120.00
G01 X9.7483 Y13.7529 F120.00
G01 X9.7119 Y13.7586 F120.00
G01 X9.6788 Y13.7666 F120.00
G01 X9.6600 Y13.7723 F120.00
G01 X9.6277 Y13.7841 F120.00
G01 X9.5923 Y13.8007 F120.00
G01 X9.5793 Y13.8079 F120.00
G01 X9.5497 Y13.8259 F120.00
G01 X9.5181 Y13.8491 F120.00
G01 X9.5070 Y13.8585 F120.00
G01 X9.4817 Y13.8817 F120.00
G01 X7.6783 Y15.6852 F120.00
G01 X7.6525 Y15.7139 F120.00
G01 X7.6314 Y15.7419 F120.00
G01 X7.6231 Y15.7540 F120.00
G01 X7.6029 Y15.7881 F120.00
G01 X7.5861 Y15.8232 F120.00
G01 X7.5806 Y15.8369 F120.00
G01 X7.5694 Y15.8690 F120.00
G01 X7.5586 Y15.9117 F120.00
G01 X7.5568 Y15.9219 F120.00
G01 X7.5521 Y15.9556 F120.00
G01 X7.5513 Y15.9657 F120.00
G01 X7.5499 Y16.0000 F120.00
G01 X7.5499 Y25.5000 F120.00
G01 X7.5520 Y25.5441 F120.00
G01 X7.5568 Y25.5781 F120.00
G01 X7.5595 Y25.5926 F120.00
G01 X7.5693 Y25.6307 F120.00
G01 X7.5806 Y25.6631 F120.00
G01 X7.5861 Y25.6768 F120.00
G01 X7.6030 Y25.7122 F120.00
G01 X7.6230 Y25.7459 F120.00
G01 X7.6314 Y25.7581 F120.00
G01 X7.6520 Y25.7856 F120.00
G01 X7.6817 Y25.8183 F120.00
G01 X20.0499 Y38.1864 F120.00
G01 X20.0499 Y55.0000 F120.00
G01 X20.0520 Y55.0441 F120.00
G01 X20.0568 Y55.0781 F120.00
G01 X20.0595 Y55.0926 F120.00
G01 X20.0666 Y55.1212 F120.00
G01 X20.0723 Y55.1400 F120.00
G01 X20.0841 Y55.1723 F120.00
G01 X20.1030 Y55.2122 F120.00
G01 X20.1257 Y55.2500 F120.00
G01 X20.1490 Y55.2817 F120.00
G01 X20.1585 Y55.2930 F120.00
G01 X20.1817 Y55.3183 F120.00
G01 X22.6817 Y57.8183 F120.00
G01 X22.7144 Y57.8480 F120.00
G01 X22.7499 Y57.8743 F120.00
G01 X22.7878 Y57.8970 F120.00
G01 X22.8188 Y57.9119 F120.00
G01 X22.8323 Y57.9177 F120.00
G01 X22.8693 Y57.9307 F120.00
G01 X22.9122 Y57.9415 F120.00
G01 X22.9559 Y57.9480 F120.00
G01 X23.0000 Y57.9501 F120.00
G01 X30.8136 Y57.9501 F120.00
G01 X33.1852 Y60.3217 F120.00
G01 X33.2148 Y60.3482 F120.00
G01 X33.2499 Y60.3743 F120.00
G01 X33.2878 Y60.3970 F120.00
G01 X33.3188 Y60.4119 F120.00
G01 X33.3369 Y60.4194 F120.00
G01 X33.3647 Y60.4293 F120.00
G01 X33.3788 Y60.4334 F120.00
G01 X33.4115 Y60.4413 F120.00
G01 X33.4219 Y60.4432 F120.00
G01 X33.4559 Y60.4480 F120.00
G01 X33.5000 Y60.4501 F120.00
G01 X40.0600 Y60.4501 F120.00
G01 X40.0992 Y60.4484 F120.00
G01 X40.1139 Y60.4468 F120.00
G01 X40.1478 Y60.4415 F120.00
G01 X40.1859 Y60.4321 F120.00
G01 X40.2000 Y60.4277 F120.00
G01 X40.2323 Y60.4159 F120.00
G01 X40.2678 Y60.3992 F120.00
G01 X40.2807 Y60.3921 F120.00
G01 X40.3100 Y60.3743 F120.00
G01 X40.3378 Y60.3540 F120.00
G01 X40.3493 Y60.3448 F120.00
G01 X40.3748 Y60.3217 F120.00
G01 X42.1042 Y58.5924 F120.00
G01 X42.1956 Y58.6249 F120.00
G01 X42.2856 Y58.6477 F120.00
G01 X42.3048 Y58.6515 F120.00
G01 X42.3971 Y58.6649 F120.00
G01 X42.4902 Y58.6698 F120.00
G01 X42.5098 Y58.6698 F120.00
G01 X42.6029 Y58.6649 F120.00
G01 X42.6952 Y58.6515 F120.00
G01 X42.7144 Y58.6477 F120.00
G01 X42.8048 Y58.6248 F120.00
G01 X42.8927 Y58.5936 F120.00
G01 X42.9108 Y58.5861 F120.00
G01 X42.9950 Y58.5460 F120.00
G01 X43.0751 Y58.4983 F120.00
G01 X43.0914 Y58.4874 F120.00
G01 X43.1661 Y58.4317 F120.00
G01 X43.2425 Y58.3625 F120.00
G01 X43.3117 Y58.2861 F120.00
G01 X43.3730 Y58.2033 F120.00
G01 X43.4260 Y58.1150 F120.00
G01 X43.4701 Y58.0218 F120.00
G01 X43.5017 Y57.9341 F120.00
G01 X43.5049 Y57.9244 F120.00
G01 X43.5298 Y57.8248 F120.00
G01 X43.5449 Y57.7229 F120.00
G01 X43.5500 Y57.6200 F120.00
G01 X43.5457 Y57.5269 F120.00
G01 X43.5437 Y57.5073 F120.00
G01 X43.5297 Y57.4147 F120.00
G01 X43.5074 Y57.3247 F120.00
G01 X43.5017 Y57.3059 F120.00
G01 X43.4736 Y57.2273 F120.00
G01 X43.4661 Y57.2092 F120.00
G01 X43.4260 Y57.1250 F120.00
G01 X43.3730 Y57.0367 F120.00
G01 X43.3117 Y56.9539 F120.00
G01 X43.2492 Y56.8846 F120.00
G01 X43.2354 Y56.8708 F120.00
G01 X43.1735 Y56.8148 F120.00
G01 X43.1584 Y56.8023 F120.00
G01 X43.0833 Y56.7470 F120.00
G01 X43.0035 Y56.6988 F120.00
G01 X42.9862 Y56.6896 F120.00
G01 X42.9018 Y56.6499 F120.00
G01 X42.8048 Y56.6152 F120.00
G01 X42.7048 Y56.5902 F120.00
G01 X42.6127 Y56.5763 F120.00
G01 X42.5931 Y56.5743 F120.00
G01 X42.5000 Y56.5700 F120.00
G01 X42.4069 Y56.5743 F120.00
G01 X42.3873 Y56.5763 F120.00
G01 X42.2993 Y56.5894 F120.00
G01 X42.2856 Y56.5923 F120.00
G01 X42.1952 Y56.6152 F120.00
G01 X42.1073 Y56.6464 F120.00
G01 X42.0892 Y56.6539 F120.00
G01 X42.0138 Y56.6896 F120.00
G01 X41.9965 Y56.6988 F120.00
G01 X41.9167 Y56.7470 F120.00
G01 X41.8339 Y56.8083 F120.00
G01 X41.7575 Y56.8775 F120.00
G01 X41.6883 Y56.9539 F120.00
G01 X41.6270 Y57.0367 F120.00
G01 X41.5788 Y57.1165 F120.00
G01 X41.5696 Y57.1338 F120.00
G01 X41.5299 Y57.2182 F120.00
G01 X41.4980 Y57.3066 F120.00
G01 X41.4926 Y57.3247 F120.00
G01 X41.4702 Y57.4152 F120.00
G01 X41.4563 Y57.5073 F120.00
G01 X41.4543 Y57.5269 F120.00
G01 X41.4500 Y57.6200 F120.00
G01 X41.4543 Y57.7131 F120.00
G01 X41.4563 Y57.7327 F120.00
G01 X41.4702 Y57.8248 F120.00
G01 X41.4926 Y57.9153 F120.00
G01 X41.4960 Y57.9274 F120.00
G01 X39.8736 Y59.5499 F120.00
G01 X33.6864 Y59.5499 F120.00
G01 X31.3183 Y57.1817 F120.00
G01 X31.2930 Y57.1585 F120.00
G01 X31.2847 Y57.1513 F120.00
G01 X31.2502 Y57.1258 F120.00
G01 X31.2122 Y57.1030 F120.00
G01 X31.1812 Y57.0881 F120.00
G01 X31.1677 Y57.0823 F120.00
G01 X31.1307 Y57.0693 F120.00
G01 X31.0885 Y57.0587 F120.00
G01 X31.0781 Y57.0568 F120.00
G01 X31.0441 Y57.0520 F120.00
G01 X31.0000 Y57.0499 F120.00
G01 X23.1864 Y57.0499 F120.00
G01 X20.9501 Y54.8136 F120.00
G01 X20.9501 Y38.0000 F120.00
G01 X20.9484 Y37.9608 F120.00
G01 X20.9468 Y37.9461 F120.00
G01 X20.9415 Y37.9122 F120.00
G01 X20.9323 Y37.8747 F120.00
G01 X20.9277 Y37.8600 F120.00
G01 X20.9159 Y37.8277 F120.00
G01 X20.8992 Y37.7922 F120.00
G01 X20.8921 Y37.7793 F120.00
G01 X20.8743 Y37.7499 F120.00
G01 X20.8540 Y37.7222 F120.00
G01 X20.8448 Y37.7107 F120.00
G01 X20.8183 Y37.6817 F120.00
G01 X8.4501 Y25.3136 F120.00
G01 X8.4501 Y16.1864 F120.00
G01 X9.9864 Y14.6501 F120.00
G01 X10.3000 Y14.6501 F120.00
G01 X10.3005 Y14.6647 F120.00
G01 X10.3022 Y14.6793 F120.00
G01 X10.3049 Y14.6938 F120.00
G01 X10.3086 Y14.7081 F120.00
G01 X10.3134 Y14.7220 F120.00
G01 X10.3192 Y14.7355 F120.00
G01 X10.3260 Y14.7486 F120.00
G01 X10.3337 Y14.7611 F120.00
G01 X10.3423 Y14.7730 F120.00
G01 X10.3518 Y14.7843 F120.00
G01 X10.3621 Y14.7948 F120.00
G01 X10.3731 Y14.8046 F120.00
G01 X10.3848 Y14.8135 F120.00
G01 X10.3972 Y14.8215 F120.00
G01 X10.4101 Y14.8286 F120.00
G01 X10.4240 Y14.8350 F120.00
G01 X10.4101 Y14.8414 F120.00
G01 X10.3972 Y14.8485 F120.00
G01 X10.3848 Y14.8565 F120.00
G01 X10.3731 Y14.8654 F120.00
G01 X10.3621 Y14.8752 F120.00
G01 X10.3518 Y14.8857 F120.00
G01 X10.3423 Y14.8970 F120.00
G01 X10.3337 Y14.9089 F120.00
G01 X10.3260 Y14.9214 F120.00
G01 X10.3192 Y14.9345 F120.00
G01 X10.3134 Y14.9480 F120.00
G01 X10.3086 Y14.9619 F120.00
G01 X10.3049 Y14.9762 F120.00
G01 X10.3022 Y14.9907 F120.00
G01 X10.3005 Y15.0053 F120.00
G01 X10.3000 Y15.0199 F120.00
G01 X10.0251 Y15.0199 F120.00
G01 X9.9859 Y15.0220 F120.00
G01 X9.9470 Y15.0276 F120.00
G01 X9.9326 Y15.0307 F120.00
G01 X9.8998 Y15.0391 F120.00
G01 X9.8623 Y15.0523 F120.00
G01 X9.8488 Y15.0581 F120.00
G01 X9.8178 Y15.0730 F120.00
G01 X9.7882 Y15.0905 F120.00
G01 X9.7759 Y15.0985 F120.00
G01 X9.7444 Y15.1220 F120.00
G01 X9.7117 Y15.1517 F120.00
G01 X8.6817 Y16.1817 F120.00
G01 X8.6585 Y16.2070 F120.00
G01 X8.6460 Y16.2222 F120.00
G01 X8.6285 Y16.2459 F120.00
G01 X8.6231 Y16.2540 F120.00
G01 X8.6030 Y16.2878 F120.00
G01 X8.5861 Y16.3232 F120.00
G01 X8.5823 Y16.3323 F120.00
G01 X8.5723 Y16.3600 F120.00
G01 X8.5666 Y16.3788 F120.00
G01 X8.5585 Y16.4122 F120.00
G01 X8.5526 Y16.4510 F120.00
G01 X8.5513 Y16.4657 F120.00
G01 X8.5499 Y16.5000 F120.00
G01 X8.5499 Y25.0000 F120.00
G01 X8.5520 Y25.0441 F120.00
G01 X8.5576 Y25.0830 F120.00
G01 X8.5607 Y25.0974 F120.00
G01 X8.5693 Y25.1307 F120.00
G01 X8.5806 Y25.1631 F120.00
G01 X8.5861 Y25.1768 F120.00
G01 X8.5986 Y25.2034 F120.00
G01 X8.6079 Y25.2207 F120.00
G01 X8.6230 Y25.2459 F120.00
G01 X8.6314 Y25.2581 F120.00
G01 X8.6520 Y25.2856 F120.00
G01 X8.6817 Y25.3183 F120.00
G01 X21.0499 Y37.6864 F120.00
G01 X21.0499 Y54.5000 F120.00
G01 X21.0521 Y54.5442 F120.00
G01 X21.0568 Y54.5781 F120.00
G01 X21.0607 Y54.5974 F120.00
G01 X21.0678 Y54.6257 F120.00
G01 X21.0723 Y54.6400 F120.00
G01 X21.0808 Y54.6636 F120.00
G01 X21.0861 Y54.6769 F120.00
G01 X21.1004 Y54.7070 F120.00
G01 X21.1052 Y54.7162 F120.00
G01 X21.1265 Y54.7512 F120.00
G01 X21.1520 Y54.7856 F120.00
G01 X21.1817 Y54.8183 F120.00
G01 X23.1852 Y56.8217 F120.00
G01 X23.2156 Y56.8489 F120.00
G01 X23.2419 Y56.8686 F120.00
G01 X23.2540 Y56.8769 F120.00
G01 X23.2878 Y56.8970 F120.00
G01 X23.3188 Y56.9119 F120.00
G01 X23.3369 Y56.9194 F120.00
G01 X23.3695 Y56.9308 F120.00
G01 X23.4122 Y56.9415 F120.00
G01 X23.4559 Y56.9480 F120.00
G01 X23.5000 Y56.9501 F120.00
G01 X31.0000 Y56.9501 F120.00
G01 X31.0428 Y56.9481 F120.00
G01 X31.0781 Y56.9432 F120.00
G01 X31.0927 Y56.9404 F120.00
G01 X31.1308 Y56.9307 F120.00
G01 X31.1631 Y56.9194 F120.00
G01 X31.1812 Y56.9119 F120.00
G01 X31.2120 Y56.8971 F120.00
G01 X31.2454 Y56.8773 F120.00
G01 X31.2581 Y56.8686 F120.00
G01 X31.2826 Y56.8504 F120.00
G01 X31.2930 Y56.8415 F120.00
G01 X31.3183 Y56.8183 F120.00
G01 X33.3218 Y54.8147 F120.00
G01 X33.3481 Y54.7853 F120.00
G01 X33.3686 Y54.7581 F120.00
G01 X33.3783 Y54.7438 F120.00
G01 X33.3945 Y54.7168 F120.00
G01 X33.3991 Y54.7081 F120.00
G01 X33.4158 Y54.6725 F120.00
G01 X33.4286 Y54.6374 F120.00
G01 X33.4334 Y54.6212 F120.00
G01 X33.4405 Y54.5926 F120.00
G01 X33.4424 Y54.5830 F120.00
G01 X33.4480 Y54.5434 F120.00
G01 X33.4501 Y54.5000 F120.00
G01 X33.4501 Y44.6864 F120.00
G01 X33.7739 Y44.3626 F120.00
G01 X33.8735 Y44.3626 F120.00
G01 X33.8815 Y44.3773 F120.00
G01 X33.8987 Y44.4056 F120.00
G01 X33.9212 Y44.4362 F120.00
G01 X33.9307 Y44.4475 F120.00
G01 X33.9531 Y44.4719 F120.00
G01 X33.9812 Y44.4975 F120.00
G01 X33.9888 Y44.5038 F120.00
G01 X34.0114 Y44.5206 F120.00
G01 X34.0236 Y44.5289 F120.00
G01 X34.0563 Y44.5483 F120.00
G01 X34.0861 Y44.5627 F120.00
G01 X34.0996 Y44.5685 F120.00
G01 X34.1355 Y44.5812 F120.00
G01 X34.1723 Y44.5906 F120.00
G01 X34.1868 Y44.5933 F120.00
G01 X34.2196 Y44.5979 F120.00
G01 X34.2576 Y44.5999 F120.00
G01 X34.7424 Y44.5999 F120.00
G01 X34.7755 Y44.5983 F120.00
G01 X34.7901 Y44.5967 F120.00
G01 X34.8229 Y44.5916 F120.00
G01 X34.8598 Y44.5825 F120.00
G01 X34.8738 Y44.5781 F120.00
G01 X34.9049 Y44.5667 F120.00
G01 X34.9437 Y44.5483 F120.00
G01 X34.9806 Y44.5263 F120.00
G01 X35.0150 Y44.5007 F120.00
G01 X35.0469 Y44.4719 F120.00
G01 X35.0757 Y44.4400 F120.00
G01 X35.1013 Y44.4056 F120.00
G01 X35.1185 Y44.3773 F120.00
G01 X35.1265 Y44.3626 F120.00
G01 X35.4114 Y44.3626 F120.00
G01 X35.4202 Y44.3763 F120.00
G01 X35.4408 Y44.4038 F120.00
G01 X35.4604 Y44.4257 F120.00
G01 X35.4707 Y44.4363 F120.00
G01 X35.4925 Y44.4560 F120.00
G01 X35.5040 Y44.4652 F120.00
G01 X35.5278 Y44.4826 F120.00
G01 X35.5571 Y44.5004 F120.00
G01 X35.5702 Y44.5072 F120.00
G01 X35.5969 Y44.5196 F120.00
G01 X35.6292 Y44.5313 F120.00
G01 X35.6433 Y44.5354 F120.00
G01 X35.6720 Y44.5423 F120.00
G01 X35.7011 Y44.5469 F120.00
G01 X35.7157 Y44.5485 F120.00
G01 X35.7451 Y44.5499 F120.00
G01 X37.2500 Y44.5500 F120.00
G01 X37.2843 Y44.5485 F120.00
G01 X37.2989 Y44.5469 F120.00
G01 X37.3280 Y44.5423 F120.00
G01 X37.3661 Y44.5328 F120.00
G01 X37.4031 Y44.5196 F120.00
G01 X37.4342 Y44.5050 F120.00
G01 X37.4471 Y44.4979 F120.00
G01 X37.4722 Y44.4826 F120.00
G01 X37.4999 Y44.4623 F120.00
G01 X37.5075 Y44.4560 F120.00
G01 X37.5293 Y44.4363 F120.00
G01 X37.5363 Y44.4293 F120.00
G01 X37.5499 Y44.4144 F120.00
G01 X37.5499 Y44.5536 F120.00
G01 X37.4569 Y44.6098 F120.00
G01 X37.3380 Y44.6468 F120.00
G01 X37.2975 Y44.6505 F120.00
G01 X35.7025 Y44.6505 F120.00
G01 X35.6620 Y44.6468 F120.00
G01 X35.5431 Y44.6098 F120.00
G01 X35.4496 Y44.5533 F120.00
G01 X35.4326 Y44.5446 F120.00
G01 X35.4149 Y44.5376 F120.00
G01 X35.4013 Y44.5335 F120.00
G01 X35.3240 Y44.5134 F120.00
G01 X35.3143 Y44.5116 F120.00
G01 X35.2995 Y44.5097 F120.00
G01 X35.2846 Y44.5090 F120.00
G01 X35.2747 Y44.5092 F120.00
G01 X35.2648 Y44.5098 F120.00
G01 X35.2500 Y44.5117 F120.00
G01 X35.2306 Y44.5159 F120.00
G01 X35.1498 Y44.5419 F120.00
G01 X35.1404 Y44.5455 F120.00
G01 X35.1311 Y44.5496 F120.00
G01 X35.1221 Y44.5541 F120.00
G01 X35.1090 Y44.5617 F120.00
G01 X35.0965 Y44.5703 F120.00
G01 X35.0815 Y44.5824 F120.00
G01 X34.9664 Y44.6534 F120.00
G01 X34.8456 Y44.6934 F120.00
G01 X34.7765 Y44.7005 F120.00
G01 X34.2235 Y44.7005 F120.00
G01 X34.1544 Y44.6934 F120.00
G01 X34.0310 Y44.6526 F120.00
G01 X34.0149 Y44.6451 F120.00
G01 X34.0015 Y44.6402 F120.00
G01 X33.9153 Y44.6167 F120.00
G01 X33.8957 Y44.6134 F120.00
G01 X33.8759 Y44.6120 F120.00
G01 X33.8561 Y44.6126 F120.00
G01 X33.8364 Y44.6152 F120.00
G01 X33.8267 Y44.6172 F120.00
G01 X33.8123 Y44.6212 F120.00
G01 X33.7362 Y44.6453 F120.00
G01 X33.7225 Y44.6510 F120.00
G01 X33.7135 Y44.6553 F120.00
G01 X33.7006 Y44.6627 F120.00
G01 X33.6882 Y44.6710 F120.00
G01 X33.6803 Y44.6770 F120.00
G01 X33.6690 Y44.6867 F120.00
G01 X33.6585 Y44.6973 F120.00
G01 X33.6520 Y44.7048 F120.00
G01 X33.6011 Y44.7661 F120.00
G01 X33.5901 Y44.7823 F120.00
G01 X33.5807 Y44.7995 F120.00
G01 X33.5730 Y44.8176 F120.00
G01 X33.5699 Y44.8269 F120.00
G01 X33.5660 Y44.8411 F120.00
G01 X33.5529 Y44.9053 F120.00
G01 X33.5511 Y44.9206 F120.00
G01 X33.5505 Y44.9360 F120.00
G01 X33.5505 Y54.4363 F120.00
G01 X33.5507 Y54.4460 F120.00
G01 X33.5523 Y54.4688 F120.00
G01 X33.5540 Y54.4839 F120.00
G01 X33.5514 Y54.5143 F120.00
G01 X33.5506 Y54.5308 F120.00
G01 X33.5476 Y54.5577 F120.00
G01 X33.5421 Y54.6202 F120.00
G01 X33.5195 Y54.6824 F120.00
G01 X33.4998 Y54.7420 F120.00
G01 X33.4653 Y54.7943 F120.00
G01 X33.4305 Y54.8507 F120.00
G01 X33.3803 Y54.8982 F120.00
G01 X31.5076 Y56.7709 F120.00
G01 X31.4948 Y56.7850 F120.00
G01 X31.4861 Y56.7963 F120.00
G01 X31.4758 Y56.8123 F120.00
G01 X31.4355 Y56.8866 F120.00
G01 X31.4295 Y56.9003 F120.00
G01 X31.4246 Y56.9143 F120.00
G01 X31.4207 Y56.9287 F120.00
G01 X31.4179 Y56.9433 F120.00
G01 X31.4158 Y56.9631 F120.00
G01 X31.4158 Y56.9830 F120.00
G01 X31.4211 Y57.0576 F120.00
G01 X31.4227 Y57.0725 F120.00
G01 X31.4266 Y57.0921 F120.00
G01 X31.4308 Y57.1065 F120.00
G01 X31.4380 Y57.1251 F120.00
G01 X31.4447 Y57.1386 F120.00
G01 X31.4523 Y57.1515 F120.00
G01 X31.4861 Y57.2037 F120.00
G01 X31.4979 Y57.2187 F120.00
G01 X31.5076 Y57.2291 F120.00
G01 X33.6331 Y59.3546 F120.00
G01 X33.6436 Y59.3643 F120.00
G01 X33.6509 Y59.3704 F120.00
G01 X33.6624 Y59.3788 F120.00
G01 X33.6745 Y59.3864 F120.00
G01 X33.7488 Y59.4267 F120.00
G01 X33.7668 Y59.4344 F120.00
G01 X33.7808 Y59.4389 F120.00
G01 X33.7951 Y59.4425 F120.00
G01 X33.8096 Y59.4449 F120.00
G01 X33.8462 Y59.4489 F120.00
G01 X33.8622 Y59.4495 F120.00
G01 X39.6978 Y59.4495 F120.00
G01 X39.7120 Y59.4490 F120.00
G01 X39.7262 Y59.4475 F120.00
G01 X39.7403 Y59.4449 F120.00
G01 X39.7495 Y59.4427 F120.00
G01 X39.8212 Y59.4217 F120.00
G01 X39.8351 Y59.4170 F120.00
G01 X39.8487 Y59.4114 F120.00
G01 X39.8661 Y59.4023 F120.00
G01 X39.8825 Y59.3915 F120.00
G01 X39.9109 Y59.3689 F120.00
G01 X39.9230 Y59.3583 F120.00
G01 X41.2637 Y58.0178 F120.00
G01 X41.2735 Y58.0073 F120.00
G01 X41.2795 Y58.0000 F120.00
G01 X41.2879 Y57.9884 F120.00
G01 X41.2955 Y57.9763 F120.00
G01 X41.3358 Y57.9022 F120.00
G01 X41.3434 Y57.8844 F120.00
G01 X41.3479 Y57.8706 F120.00
G01 X41.3514 Y57.8565 F120.00
G01 X41.3539 Y57.8422 F120.00
G01 X41.3554 Y57.8277 F120.00
G01 X41.3577 Y57.7905 F120.00
G01 X41.3581 Y57.7805 F120.00
G01 X41.3580 Y57.7704 F120.00
G01 X41.3451 Y57.6200 F120.00
G01 X41.3626 Y57.4195 F120.00
G01 X41.4148 Y57.2250 F120.00
G01 X41.4998 Y57.0426 F120.00
G01 X41.6147 Y56.8785 F120.00
G01 X41.7577 Y56.7353 F120.00
G01 X41.9293 Y56.6151 F120.00
G01 X41.9407 Y56.6065 F120.00
G01 X41.9515 Y56.5971 F120.00
G01 X41.9582 Y56.5904 F120.00
G01 X41.9678 Y56.5798 F120.00
G01 X42.0175 Y56.5177 F120.00
G01 X42.0233 Y56.5096 F120.00
G01 X42.0313 Y56.4970 F120.00
G01 X42.0382 Y56.4838 F120.00
G01 X42.0423 Y56.4748 F120.00
G01 X42.0476 Y56.4609 F120.00
G01 X42.0519 Y56.4466 F120.00
G01 X42.0551 Y56.4320 F120.00
G01 X42.0566 Y56.4222 F120.00
G01 X42.0651 Y56.3379 F120.00
G01 X42.0652 Y56.3180 F120.00
G01 X42.0640 Y56.3032 F120.00
G01 X42.0616 Y56.2885 F120.00
G01 X42.0582 Y56.2740 F120.00
G01 X42.0537 Y56.2598 F120.00
G01 X42.0501 Y56.2505 F120.00
G01 X42.0439 Y56.2370 F120.00
G01 X42.0122 Y56.1743 F120.00
G01 X42.0027 Y56.1575 F120.00
G01 X41.9915 Y56.1417 F120.00
G01 X41.9789 Y56.1271 F120.00
G01 X41.9685 Y56.1169 F120.00
G01 X41.9376 Y56.0904 F120.00
G01 X41.9293 Y56.0843 F120.00
G01 X41.7580 Y55.9643 F120.00
G01 X41.6157 Y55.8220 F120.00
G01 X41.5003 Y55.6572 F120.00
G01 X41.4410 Y55.5300 F120.00
G01 X41.5524 Y55.5300 F120.00
G01 X41.5696 Y55.5662 F120.00
G01 X41.5763 Y55.5793 F120.00
G01 X41.6217 Y55.6551 F120.00
G01 X41.6297 Y55.6674 F120.00
G01 X41.6883 Y55.7461 F120.00
G01 X41.7541 Y55.8189 F120.00
G01 X41.7646 Y55.8292 F120.00
G01 X41.8265 Y55.8852 F120.00
G01 X41.8416 Y55.8977 F120.00
G01 X41.9167 Y55.9530 F120.00
G01 X42.0007 Y56.0037 F120.00
G01 X42.0138 Y56.0104 F120.00
G01 X42.0982 Y56.0501 F120.00
G01 X42.1866 Y56.0820 F120.00
G01 X42.2047 Y56.0874 F120.00
G01 X42.2952 Y56.1098 F120.00
G01 X42.3873 Y56.1237 F120.00
G01 X42.4069 Y56.1257 F120.00
G01 X42.5000 Y56.1300 F120.00
G01 X42.5931 Y56.1257 F120.00
G01 X42.6127 Y56.1237 F120.00
G01 X42.7048 Y56.1098 F120.00
G01 X42.7953 Y56.0874 F120.00
G01 X42.8141 Y56.0817 F120.00
G01 X42.9018 Y56.0501 F120.00
G01 X42.9862 Y56.0104 F120.00
G01 X42.9993 Y56.0037 F120.00
G01 X43.0833 Y55.9530 F120.00
G01 X43.1584 Y55.8977 F120.00
G01 X43.1735 Y55.8852 F120.00
G01 X43.2354 Y55.8292 F120.00
G01 X43.2459 Y55.8189 F120.00
G01 X43.3117 Y55.7461 F120.00
G01 X43.3703 Y55.6674 F120.00
G01 X43.3783 Y55.6551 F120.00
G01 X43.4237 Y55.5793 F120.00
G01 X43.4304 Y55.5662 F120.00
G01 X43.4476 Y55.5300 F120.00
G01 X43.5590 Y55.5300 F120.00
G01 X43.4997 Y55.6572 F120.00
G01 X43.3843 Y55.8220 F120.00
G01 X43.2420 Y55.9643 F120.00
G01 X43.0707 Y56.0843 F120.00
G01 X43.0593 Y56.0929 F120.00
G01 X43.0521 Y56.0991 F120.00
G01 X43.0418 Y56.1090 F120.00
G01 X43.0322 Y56.1196 F120.00
G01 X42.9825 Y56.1817 F120.00
G01 X42.9713 Y56.1981 F120.00
G01 X42.9618 Y56.2156 F120.00
G01 X42.9540 Y56.2338 F120.00
G01 X42.9481 Y56.2528 F120.00
G01 X42.9449 Y56.2674 F120.00
G01 X42.9428 Y56.2821 F120.00
G01 X42.9357 Y56.3516 F120.00
G01 X42.9346 Y56.3714 F120.00
G01 X42.9355 Y56.3913 F120.00
G01 X42.9384 Y56.4109 F120.00
G01 X42.9432 Y56.4302 F120.00
G01 X42.9499 Y56.4489 F120.00
G01 X42.9561 Y56.4624 F120.00
G01 X42.9922 Y56.5333 F120.00
G01 X43.0026 Y56.5498 F120.00
G01 X43.0146 Y56.5651 F120.00
G01 X43.0245 Y56.5758 F120.00
G01 X43.0315 Y56.5825 F120.00
G01 X43.0544 Y56.6024 F120.00
G01 X43.0665 Y56.6121 F120.00
G01 X43.2424 Y56.7353 F120.00
G01 X43.3847 Y56.8776 F120.00
G01 X43.5002 Y57.0426 F120.00
G01 X43.5852 Y57.2250 F120.00
G01 X43.6373 Y57.4195 F120.00
G01 X43.6549 Y57.6200 F120.00
G01 X43.6373 Y57.8205 F120.00
G01 X43.5852 Y58.0150 F120.00
G01 X43.5002 Y58.1974 F120.00
G01 X43.3847 Y58.3624 F120.00
G01 X43.2424 Y58.5047 F120.00
G01 X43.0707 Y58.6249 F120.00
G01 X43.0593 Y58.6335 F120.00
G01 X43.0521 Y58.6397 F120.00
G01 X43.0418 Y58.6496 F120.00
G01 X43.0322 Y58.6602 F120.00
G01 X42.9856 Y58.7184 F120.00
G01 X42.9795 Y58.7263 F120.00
G01 X42.9713 Y58.7387 F120.00
G01 X42.9618 Y58.7562 F120.00
G01 X42.9540 Y58.7745 F120.00
G01 X42.9481 Y58.7934 F120.00
G01 X42.9449 Y58.8080 F120.00
G01 X42.9434 Y58.8178 F120.00
G01 X42.9357 Y58.8922 F120.00
G01 X42.9347 Y58.9071 F120.00
G01 X42.9351 Y58.9269 F120.00
G01 X42.9375 Y58.9467 F120.00
G01 X42.9418 Y58.9660 F120.00
G01 X42.9480 Y58.9849 F120.00
G01 X42.9561 Y59.0030 F120.00
G01 X42.9899 Y59.0697 F120.00
G01 X42.9999 Y59.0864 F120.00
G01 X43.0084 Y59.0982 F120.00
G01 X43.0178 Y59.1093 F120.00
G01 X43.0279 Y59.1198 F120.00
G01 X43.0544 Y59.1430 F120.00
G01 X43.0624 Y59.1496 F120.00
G01 X43.0707 Y59.1557 F120.00
G01 X43.2420 Y59.2757 F120.00
G01 X43.3843 Y59.4180 F120.00
G01 X43.4997 Y59.5828 F120.00
G01 X43.5590 Y59.7100 F120.00
G01 X43.4476 Y59.7100 F120.00
G01 X43.4304 Y59.6738 F120.00
G01 X43.4237 Y59.6607 F120.00
G01 X43.3783 Y59.5849 F120.00
G01 X43.3703 Y59.5726 F120.00
G01 X43.3117 Y59.4939 F120.00
G01 X43.2492 Y59.4246 F120.00
G01 X43.2389 Y59.4141 F120.00
G01 X43.1661 Y59.3483 F120.00
G01 X43.0833 Y59.2870 F120.00
G01 X42.9950 Y59.2340 F120.00
G01 X42.9108 Y59.1939 F120.00
G01 X42.8927 Y59.1864 F120.00
G01 X42.8141 Y59.1583 F120.00
G01 X42.7953 Y59.1526 F120.00
G01 X42.7048 Y59.1302 F120.00
G01 X42.6029 Y59.1151 F120.00
G01 X42.5098 Y59.1102 F120.00
G01 X42.4902 Y59.1102 F120.00
G01 X42.3971 Y59.1151 F120.00
G01 X42.2993 Y59.1294 F120.00
G01 X42.2856 Y59.1323 F120.00
G01 X42.1952 Y59.1552 F120.00
G01 X42.1073 Y59.1864 F120.00
G01 X42.0892 Y59.1939 F120.00
G01 X42.0138 Y59.2296 F120.00
G01 X41.9965 Y59.2388 F120.00
G01 X41.9167 Y59.2870 F120.00
G01 X41.8339 Y59.3483 F120.00
G01 X41.7575 Y59.4175 F120.00
G01 X41.6948 Y59.4865 F120.00
G01 X41.6823 Y59.5016 F120.00
G01 X41.6326 Y59.5686 F120.00
G01 X41.6217 Y59.5849 F120.00
G01 X41.5740 Y59.6650 F120.00
G01 X41.5299 Y59.7582 F120.00
G01 X41.4983 Y59.8459 F120.00
G01 X41.4951 Y59.8556 F120.00
G01 X41.4723 Y59.9456 F120.00
G01 X41.4685 Y59.9648 F120.00
G01 X41.4563 Y60.0473 F120.00
G01 X41.4543 Y60.0669 F120.00
G01 X41.4500 Y60.1600 F120.00
G01 X41.4551 Y60.2629 F120.00
G01 X41.4702 Y60.3648 F120.00
G01 X41.4926 Y60.4553 F120.00
G01 X41.4983 Y60.4741 F120.00
G01 X41.5264 Y60.5527 F120.00
G01 X41.5339 Y60.5708 F120.00
G01 X41.5740 Y60.6550 F120.00
G01 X41.6270 Y60.7433 F120.00
G01 X41.6883 Y60.8261 F120.00
G01 X41.7575 Y60.9025 F120.00
G01 X41.8339 Y60.9717 F120.00
G01 X41.9086 Y61.0274 F120.00
G01 X41.9249 Y61.0383 F120.00
G01 X42.0050 Y61.0860 F120.00
G01 X42.0892 Y61.1261 F120.00
G01 X42.1073 Y61.1336 F120.00
G01 X42.1866 Y61.1620 F120.00
G01 X42.2047 Y61.1674 F120.00
G01 X42.2952 Y61.1898 F120.00
G01 X42.3971 Y61.2049 F120.00
G01 X42.5000 Y61.2100 F120.00
G01 X42.5931 Y61.2057 F120.00
G01 X42.6127 Y61.2037 F120.00
G01 X42.6952 Y61.1915 F120.00
G01 X42.7144 Y61.1877 F120.00
G01 X42.8048 Y61.1648 F120.00
G01 X42.9018 Y61.1301 F120.00
G01 X42.9950 Y61.0860 F120.00
G01 X43.0833 Y61.0330 F120.00
G01 X43.1661 Y60.9717 F120.00
G01 X43.2389 Y60.9059 F120.00
G01 X43.2492 Y60.8954 F120.00
G01 X43.3117 Y60.8261 F120.00
G01 X43.3703 Y60.7474 F120.00
G01 X43.3783 Y60.7351 F120.00
G01 X43.4237 Y60.6593 F120.00
G01 X43.4304 Y60.6462 F120.00
G01 X43.4476 Y60.6100 F120.00
G01 X43.5590 Y60.6100 F120.00
G01 X43.4997 Y60.7372 F120.00
G01 X43.3843 Y60.9020 F120.00
G01 X43.2420 Y61.0443 F120.00
G01 X43.0707 Y61.1643 F120.00
G01 X43.0593 Y61.1729 F120.00
G01 X43.0521 Y61.1791 F120.00
G01 X43.0418 Y61.1890 F120.00
G01 X43.0322 Y61.1996 F120.00
G01 X42.9795 Y61.2657 F120.00
G01 X42.9687 Y61.2824 F120.00
G01 X42.9597 Y61.3001 F120.00
G01 X42.9524 Y61.3185 F120.00
G01 X42.9469 Y61.3376 F120.00
G01 X42.9434 Y61.3572 F120.00
G01 X42.9357 Y61.4316 F120.00
G01 X42.9347 Y61.4465 F120.00
G01 X42.9348 Y61.4614 F120.00
G01 X42.9367 Y61.4811 F120.00
G01 X42.9405 Y61.5006 F120.00
G01 X42.9447 Y61.5149 F120.00
G01 X42.9518 Y61.5335 F120.00
G01 X42.9922 Y61.6133 F120.00
G01 X43.0026 Y61.6298 F120.00
G01 X43.0146 Y61.6451 F120.00
G01 X43.0245 Y61.6558 F120.00
G01 X43.0315 Y61.6625 F120.00
G01 X43.0544 Y61.6824 F120.00
G01 X43.0665 Y61.6921 F120.00
G01 X43.2424 Y61.8153 F120.00
G01 X43.3847 Y61.9576 F120.00
G01 X43.5002 Y62.1226 F120.00
G01 X43.5852 Y62.3050 F120.00
G01 X43.6373 Y62.4995 F120.00
G01 X43.6549 Y62.7000 F120.00
G01 X43.6373 Y62.9005 F120.00
G01 X43.5852 Y63.0950 F120.00
G01 X43.5002 Y63.2774 F120.00
G01 X43.3847 Y63.4424 F120.00
G01 X43.2424 Y63.5847 F120.00
G01 X43.0711 Y63.7046 F120.00
G01 X43.0635 Y63.7102 F120.00
G01 X43.0525 Y63.7194 F120.00
G01 X43.0422 Y63.7293 F120.00
G01 X43.0326 Y63.7399 F120.00
G01 X42.9860 Y63.7981 F120.00
G01 X42.9744 Y63.8142 F120.00
G01 X42.9667 Y63.8270 F120.00
G01 X42.9622 Y63.8359 F120.00
G01 X42.9544 Y63.8541 F120.00
G01 X42.9485 Y63.8731 F120.00
G01 X42.9454 Y63.8877 F120.00
G01 X42.9433 Y63.9024 F120.00
G01 X42.9356 Y63.9769 F120.00
G01 X42.9351 Y63.9967 F120.00
G01 X42.9365 Y64.0165 F120.00
G01 X42.9398 Y64.0361 F120.00
G01 X42.9436 Y64.0505 F120.00
G01 X42.9503 Y64.0692 F120.00
G01 X42.9565 Y64.0827 F120.00
G01 X42.9928 Y64.1539 F120.00
G01 X43.0032 Y64.1702 F120.00
G01 X43.0151 Y64.1855 F120.00
G01 X43.0250 Y64.1961 F120.00
G01 X43.0320 Y64.2028 F120.00
G01 X43.0549 Y64.2227 F120.00
G01 X43.0669 Y64.2324 F120.00
G01 X43.2424 Y64.3553 F120.00
G01 X43.3847 Y64.4976 F120.00
G01 X43.5002 Y64.6626 F120.00
G01 X43.5852 Y64.8450 F120.00
G01 X43.6373 Y65.0395 F120.00
G01 X43.6549 Y65.2400 F120.00
G01 X43.6373 Y65.4405 F120.00
G01 X43.5852 Y65.6350 F120.00
G01 X43.5002 Y65.8174 F120.00
G01 X43.3847 Y65.9824 F120.00
G01 X43.2424 Y66.1247 F120.00
G01 X43.0711 Y66.2446 F120.00
G01 X43.0597 Y66.2532 F120.00
G01 X43.0525 Y66.2594 F120.00
G01 X43.0422 Y66.2693 F120.00
G01 X43.0326 Y66.2799 F120.00
G01 X42.9860 Y66.3381 F120.00
G01 X42.9771 Y66.3501 F120.00
G01 X42.9717 Y66.3584 F120.00
G01 X42.9622 Y66.3759 F120.00
G01 X42.9544 Y66.3941 F120.00
G01 X42.9485 Y66.4131 F120.00
G01 X42.9454 Y66.4277 F120.00
G01 X42.9433 Y66.4424 F120.00
G01 X42.9356 Y66.5169 F120.00
G01 X42.9351 Y66.5367 F120.00
G01 X42.9365 Y66.5565 F120.00
G01 X42.9388 Y66.5712 F120.00
G01 X42.9436 Y66.5905 F120.00
G01 X42.9503 Y66.6092 F120.00
G01 X42.9565 Y66.6227 F120.00
G01 X42.9927 Y66.6937 F120.00
G01 X43.0031 Y66.7101 F120.00
G01 X43.0150 Y66.7254 F120.00
G01 X43.0215 Y66.7326 F120.00
G01 X43.0319 Y66.7428 F120.00
G01 X43.0549 Y66.7627 F120.00
G01 X43.0669 Y66.7724 F120.00
G01 X43.2424 Y66.8953 F120.00
G01 X43.3847 Y67.0376 F120.00
G01 X43.5002 Y67.2026 F120.00
G01 X43.5852 Y67.3850 F120.00
G01 X43.6373 Y67.5795 F120.00
G01 X43.6549 Y67.7800 F120.00
G01 X43.6373 Y67.9805 F120.00
G01 X43.5852 Y68.1750 F120.00
G01 X43.5002 Y68.3574 F120.00
G01 X43.3847 Y68.5224 F120.00
G01 X43.2424 Y68.6647 F120.00
G01 X43.0711 Y68.7846 F120.00
G01 X43.0597 Y68.7932 F120.00
G01 X43.0525 Y68.7994 F120.00
G01 X43.0422 Y68.8093 F120.00
G01 X43.0326 Y68.8199 F120.00
G01 X42.9860 Y68.8781 F120.00
G01 X42.9771 Y68.8901 F120.00
G01 X42.9717 Y68.8984 F120.00
G01 X42.9622 Y68.9159 F120.00
G01 X42.9544 Y68.9341 F120.00
G01 X42.9485 Y68.9531 F120.00
G01 X42.9454 Y68.9677 F120.00
G01 X42.9433 Y68.9824 F120.00
G01 X42.9356 Y69.0569 F120.00
G01 X42.9351 Y69.0767 F120.00
G01 X42.9365 Y69.0965 F120.00
G01 X42.9388 Y69.1112 F120.00
G01 X42.9436 Y69.1305 F120.00
G01 X42.9503 Y69.1492 F120.00
G01 X42.9565 Y69.1627 F120.00
G01 X42.9927 Y69.2337 F120.00
G01 X43.0031 Y69.2501 F120.00
G01 X43.0150 Y69.2654 F120.00
G01 X43.0249 Y69.2761 F120.00
G01 X43.0319 Y69.2828 F120.00
G01 X43.0549 Y69.3027 F120.00
G01 X43.0669 Y69.3124 F120.00
G01 X43.2424 Y69.4353 F120.00
G01 X43.3847 Y69.5776 F120.00
G01 X43.5002 Y69.7426 F120.00
G01 X43.5852 Y69.9250 F120.00
G01 X43.6373 Y70.1195 F120.00
G01 X43.6549 Y70.3200 F120.00
G01 X43.6373 Y70.5205 F120.00
G01 X43.5852 Y70.7150 F120.00
G01 X43.5002 Y70.8974 F120.00
G01 X43.3847 Y71.0624 F120.00
G01 X43.2424 Y71.2047 F120.00
G01 X43.0711 Y71.3246 F120.00
G01 X43.0597 Y71.3332 F120.00
G01 X43.0525 Y71.3394 F120.00
G01 X43.0422 Y71.3493 F120.00
G01 X43.0326 Y71.3599 F120.00
G01 X42.9860 Y71.4181 F120.00
G01 X42.9744 Y71.4342 F120.00
G01 X42.9644 Y71.4514 F120.00
G01 X42.9601 Y71.4604 F120.00
G01 X42.9544 Y71.4741 F120.00
G01 X42.9485 Y71.4931 F120.00
G01 X42.9454 Y71.5077 F120.00
G01 X42.9433 Y71.5224 F120.00
G01 X42.9361 Y71.5919 F120.00
G01 X42.9350 Y71.6117 F120.00
G01 X42.9359 Y71.6316 F120.00
G01 X42.9388 Y71.6512 F120.00
G01 X42.9436 Y71.6705 F120.00
G01 X42.9503 Y71.6892 F120.00
G01 X42.9565 Y71.7027 F120.00
G01 X42.9927 Y71.7737 F120.00
G01 X43.0031 Y71.7901 F120.00
G01 X43.0150 Y71.8054 F120.00
G01 X43.0215 Y71.8126 F120.00
G01 X43.0319 Y71.8228 F120.00
G01 X43.0549 Y71.8427 F120.00
G01 X43.0669 Y71.8524 F120.00
G01 X43.2424 Y71.9753 F120.00
G01 X43.3847 Y72.1176 F120.00
G01 X43.5002 Y72.2826 F120.00
G01 X43.5852 Y72.4650 F120.00
G01 X43.6373 Y72.6595 F120.00
G01 X43.6549 Y72.8600 F120.00
G01 X43.6373 Y73.0605 F120.00
G01 X43.5852 Y73.2550 F120.00
G01 X43.5002 Y73.4374 F120.00
G01 X43.3847 Y73.6024 F120.00
G01 X43.2424 Y73.7447 F120.00
G01 X43.0775 Y73.8602 F120.00
G01 X42.8950 Y73.9452 F120.00
G01 X42.7006 Y73.9973 F120.00
G01 X42.5000 Y74.0149 F120.00
G01 X42.2995 Y73.9974 F120.00
G01 X42.1050 Y73.9452 F120.00
G01 X41.9226 Y73.8602 F120.00
G01 X41.7576 Y73.7447 F120.00
G01 X41.6153 Y73.6024 F120.00
G01 X41.4998 Y73.4374 F120.00
G01 X41.4148 Y73.2550 F120.00
G01 X41.3627 Y73.0606 F120.00
G01 X41.3451 Y72.8600 F120.00
G01 X41.3626 Y72.6595 F120.00
G01 X41.4148 Y72.4650 F120.00
G01 X41.4998 Y72.2826 F120.00
G01 X41.6153 Y72.1177 F120.00
G01 X41.7576 Y71.9753 F120.00
G01 X41.9289 Y71.8554 F120.00
G01 X41.9365 Y71.8498 F120.00
G01 X41.9475 Y71.8406 F120.00
G01 X41.9578 Y71.8307 F120.00
G01 X41.9674 Y71.8201 F120.00
G01 X42.0140 Y71.7619 F120.00
G01 X42.0229 Y71.7499 F120.00
G01 X42.0283 Y71.7416 F120.00
G01 X42.0378 Y71.7241 F120.00
G01 X42.0456 Y71.7059 F120.00
G01 X42.0515 Y71.6869 F120.00
G01 X42.0546 Y71.6723 F120.00
G01 X42.0567 Y71.6576 F120.00
G01 X42.0639 Y71.5881 F120.00
G01 X42.0650 Y71.5683 F120.00
G01 X42.0641 Y71.5484 F120.00
G01 X42.0612 Y71.5288 F120.00
G01 X42.0564 Y71.5095 F120.00
G01 X42.0497 Y71.4908 F120.00
G01 X42.0435 Y71.4773 F120.00
G01 X42.0073 Y71.4063 F120.00
G01 X41.9969 Y71.3899 F120.00
G01 X41.9850 Y71.3746 F120.00
G01 X41.9785 Y71.3674 F120.00
G01 X41.9681 Y71.3572 F120.00
G01 X41.9451 Y71.3373 F120.00
G01 X41.9331 Y71.3276 F120.00
G01 X41.7576 Y71.2047 F120.00
G01 X41.6153 Y71.0624 F120.00
G01 X41.4998 Y70.8974 F120.00
G01 X41.4148 Y70.7150 F120.00
G01 X41.3627 Y70.5206 F120.00
G01 X41.3451 Y70.3200 F120.00
G01 X41.3626 Y70.1195 F120.00
G01 X41.4148 Y69.9250 F120.00
G01 X41.4998 Y69.7426 F120.00
G01 X41.6153 Y69.5777 F120.00
G01 X41.7576 Y69.4353 F120.00
G01 X41.9289 Y69.3154 F120.00
G01 X41.9403 Y69.3068 F120.00
G01 X41.9475 Y69.3006 F120.00
G01 X41.9611 Y69.2873 F120.00
G01 X41.9704 Y69.2765 F120.00
G01 X42.0171 Y69.2180 F120.00
G01 X42.0283 Y69.2016 F120.00
G01 X42.0378 Y69.1841 F120.00
G01 X42.0456 Y69.1659 F120.00
G01 X42.0515 Y69.1469 F120.00
G01 X42.0546 Y69.1323 F120.00
G01 X42.0561 Y69.1225 F120.00
G01 X42.0639 Y69.0481 F120.00
G01 X42.0650 Y69.0283 F120.00
G01 X42.0645 Y69.0134 F120.00
G01 X42.0629 Y68.9986 F120.00
G01 X42.0602 Y68.9839 F120.00
G01 X42.0578 Y68.9743 F120.00
G01 X42.0515 Y68.9554 F120.00
G01 X42.0457 Y68.9417 F120.00
G01 X42.0096 Y68.8703 F120.00
G01 X42.0022 Y68.8578 F120.00
G01 X41.9968 Y68.8498 F120.00
G01 X41.9911 Y68.8420 F120.00
G01 X41.9817 Y68.8309 F120.00
G01 X41.9680 Y68.8172 F120.00
G01 X41.9451 Y68.7973 F120.00
G01 X41.9331 Y68.7876 F120.00
G01 X41.7576 Y68.6647 F120.00
G01 X41.6153 Y68.5224 F120.00
G01 X41.4998 Y68.3574 F120.00
G01 X41.4148 Y68.1750 F120.00
G01 X41.3627 Y67.9806 F120.00
G01 X41.3451 Y67.7800 F120.00
G01 X41.3626 Y67.5797 F120.00
G01 X41.3630 Y67.5654 F120.00
G01 X41.3623 Y67.5511 F120.00
G01 X41.3607 Y67.5370 F120.00
G01 X41.3591 Y67.5276 F120.00
G01 X41.3453 Y67.4591 F120.00
G01 X41.3406 Y67.4403 F120.00
G01 X41.3340 Y67.4220 F120.00
G01 X41.3280 Y67.4088 F120.00
G01 X41.3210 Y67.3961 F120.00
G01 X41.3103 Y67.3799 F120.00
G01 X41.2852 Y67.3459 F120.00
G01 X41.2788 Y67.3381 F120.00
G01 X41.2686 Y67.3271 F120.00
G01 X39.6558 Y65.7143 F120.00
G01 X39.6488 Y65.7076 F120.00
G01 X39.6315 Y65.6926 F120.00
G01 X39.6197 Y65.6831 F120.00
G01 X39.6000 Y65.6598 F120.00
G01 X39.5888 Y65.6476 F120.00
G01 X39.5720 Y65.6264 F120.00
G01 X39.5317 Y65.5783 F120.00
G01 X39.5036 Y65.5183 F120.00
G01 X39.4755 Y65.4623 F120.00
G01 X39.4628 Y65.4009 F120.00
G01 X39.4476 Y65.3364 F120.00
G01 X39.4495 Y65.2673 F120.00
G01 X39.4495 Y62.8745 F120.00
G01 X39.4490 Y62.8602 F120.00
G01 X39.4467 Y62.8413 F120.00
G01 X39.4439 Y62.8273 F120.00
G01 X39.4217 Y62.7511 F120.00
G01 X39.4187 Y62.7417 F120.00
G01 X39.4133 Y62.7278 F120.00
G01 X39.4068 Y62.7143 F120.00
G01 X39.4020 Y62.7057 F120.00
G01 X39.3967 Y62.6973 F120.00
G01 X39.3880 Y62.6851 F120.00
G01 X39.3818 Y62.6774 F120.00
G01 X39.3717 Y62.6665 F120.00
G01 X39.3608 Y62.6563 F120.00
G01 X39.3080 Y62.6106 F120.00
G01 X39.2963 Y62.6012 F120.00
G01 X39.2797 Y62.5901 F120.00
G01 X39.2665 Y62.5829 F120.00
G01 X39.2482 Y62.5748 F120.00
G01 X39.2340 Y62.5700 F120.00
G01 X39.2195 Y62.5663 F120.00
G01 X39.1587 Y62.5533 F120.00
G01 X39.1398 Y62.5510 F120.00
G01 X39.1255 Y62.5505 F120.00
G01 X29.5609 Y62.5506 F120.00
G01 X29.5419 Y62.5519 F120.00
G01 X29.5278 Y62.5541 F120.00
G01 X29.5185 Y62.5561 F120.00
G01 X29.4422 Y62.5783 F120.00
G01 X29.4286 Y62.5828 F120.00
G01 X29.4197 Y62.5864 F120.00
G01 X29.4067 Y62.5926 F120.00
G01 X29.3941 Y62.5996 F120.00
G01 X29.3821 Y62.6076 F120.00
G01 X29.3671 Y62.6195 F120.00
G01 X29.3255 Y62.6592 F120.00
G01 X29.3186 Y62.6661 F120.00
G01 X29.3111 Y62.6745 F120.00
G01 X29.1778 Y62.8078 F120.00
G01 X29.0273 Y62.9132 F120.00
G01 X28.8607 Y62.9909 F120.00
G01 X28.6831 Y63.0385 F120.00
G01 X28.5000 Y63.0545 F120.00
G01 X28.3169 Y63.0385 F120.00
G01 X28.1393 Y62.9909 F120.00
G01 X27.9727 Y62.9132 F120.00
G01 X27.8222 Y62.8078 F120.00
G01 X27.6922 Y62.6778 F120.00
G01 X27.5868 Y62.5273 F120.00
G01 X27.5091 Y62.3607 F120.00
G01 X27.4615 Y62.1831 F120.00
G01 X27.4455 Y62.0000 F120.00
G01 X27.4615 Y61.8169 F120.00
G01 X27.5091 Y61.6393 F120.00
G01 X27.5868 Y61.4727 F120.00
G01 X27.6922 Y61.3222 F120.00
G01 X27.8222 Y61.1922 F120.00
G01 X27.9727 Y61.0868 F120.00
G01 X28.1393 Y61.0091 F120.00
G01 X28.3169 Y60.9615 F120.00
G01 X28.5000 Y60.9455 F120.00
G01 X28.6831 Y60.9615 F120.00
G01 X28.8607 Y61.0091 F120.00
G01 X29.0273 Y61.0868 F120.00
G01 X29.1778 Y61.1922 F120.00
G01 X29.3111 Y61.3254 F120.00
G01 X29.3182 Y61.3335 F120.00
G01 X29.3283 Y61.3435 F120.00
G01 X29.3392 Y61.3529 F120.00
G01 X29.3938 Y61.3965 F120.00
G01 X29.4053 Y61.4051 F120.00
G01 X29.4175 Y61.4128 F120.00
G01 X29.4301 Y61.4196 F120.00
G01 X29.4433 Y61.4255 F120.00
G01 X29.4614 Y61.4319 F120.00
G01 X29.4753 Y61.4355 F120.00
G01 X29.5270 Y61.4457 F120.00
G01 X29.5462 Y61.4486 F120.00
G01 X29.5656 Y61.4495 F120.00
G01 X31.8935 Y61.4494 F120.00
G01 X31.9125 Y61.4481 F120.00
G01 X31.9266 Y61.4459 F120.00
G01 X31.9359 Y61.4439 F120.00
G01 X32.0122 Y61.4217 F120.00
G01 X32.0216 Y61.4187 F120.00
G01 X32.0355 Y61.4133 F120.00
G01 X32.0489 Y61.4068 F120.00
G01 X32.0618 Y61.3994 F120.00
G01 X32.0701 Y61.3939 F120.00
G01 X32.0820 Y61.3850 F120.00
G01 X32.0932 Y61.3751 F120.00
G01 X32.1037 Y61.3645 F120.00
G01 X32.1590 Y61.3003 F120.00
G01 X32.1678 Y61.2883 F120.00
G01 X32.1780 Y61.2712 F120.00
G01 X32.1845 Y61.2578 F120.00
G01 X32.1900 Y61.2440 F120.00
G01 X32.1945 Y61.2298 F120.00
G01 X32.1979 Y61.2153 F120.00
G01 X32.2101 Y61.1314 F120.00
G01 X32.2115 Y61.1116 F120.00
G01 X32.2112 Y61.0967 F120.00
G01 X32.2098 Y61.0819 F120.00
G01 X32.2073 Y61.0672 F120.00
G01 X32.2051 Y61.0575 F120.00
G01 X32.2008 Y61.0432 F120.00
G01 X32.1934 Y61.0248 F120.00
G01 X32.1604 Y60.9529 F120.00
G01 X32.1530 Y60.9398 F120.00
G01 X32.1417 Y60.9233 F120.00
G01 X32.1322 Y60.9117 F120.00
G01 X32.1179 Y60.8964 F120.00
G01 X30.3635 Y59.1421 F120.00
G01 X30.3491 Y59.1296 F120.00
G01 X30.3415 Y59.1239 F120.00
G01 X30.3295 Y59.1160 F120.00
G01 X30.2556 Y59.0755 F120.00
G01 X30.2423 Y59.0692 F120.00
G01 X30.2286 Y59.0640 F120.00
G01 X30.2145 Y59.0598 F120.00
G01 X30.2001 Y59.0566 F120.00
G01 X30.1904 Y59.0551 F120.00
G01 X30.1592 Y59.0516 F120.00
G01 X30.1485 Y59.0508 F120.00
G01 X30.1378 Y59.0505 F120.00
G01 X22.5637 Y59.0505 F120.00
G01 X22.5540 Y59.0507 F120.00
G01 X22.5312 Y59.0523 F120.00
G01 X22.5161 Y59.0540 F120.00
G01 X22.4857 Y59.0514 F120.00
G01 X22.4692 Y59.0506 F120.00
G01 X22.4422 Y59.0476 F120.00
G01 X22.3798 Y59.0421 F120.00
G01 X22.3175 Y59.0195 F120.00
G01 X22.2580 Y58.9998 F120.00
G01 X22.2027 Y58.9634 F120.00
G01 X22.1493 Y58.9305 F120.00
G01 X22.1017 Y58.8803 F120.00
G01 X19.6036 Y56.3821 F120.00
G01 X19.5932 Y56.3724 F120.00
G01 X19.5858 Y56.3663 F120.00
G01 X19.5743 Y56.3579 F120.00
G01 X19.5622 Y56.3503 F120.00
G01 X19.4923 Y56.3122 F120.00
G01 X19.4742 Y56.3040 F120.00
G01 X19.4649 Y56.3006 F120.00
G01 X19.4506 Y56.2964 F120.00
G01 X19.4361 Y56.2932 F120.00
G01 X19.4262 Y56.2917 F120.00
G01 X19.4164 Y56.2907 F120.00
G01 X19.4015 Y56.2901 F120.00
G01 X19.3866 Y56.2906 F120.00
G01 X19.3169 Y56.2956 F120.00
G01 X19.3021 Y56.2972 F120.00
G01 X19.2826 Y56.3010 F120.00
G01 X19.2683 Y56.3052 F120.00
G01 X19.2590 Y56.3085 F120.00
G01 X19.2453 Y56.3144 F120.00
G01 X19.2364 Y56.3189 F120.00
G01 X19.2194 Y56.3292 F120.00
G01 X19.1554 Y56.3768 F120.00
G01 X19.1401 Y56.3895 F120.00
G01 X19.1295 Y56.4000 F120.00
G01 X19.1229 Y56.4074 F120.00
G01 X19.1136 Y56.4191 F120.00
G01 X19.1053 Y56.4314 F120.00
G01 X19.0979 Y56.4444 F120.00
G01 X19.0896 Y56.4624 F120.00
G01 X19.0602 Y56.5418 F120.00
G01 X19.0552 Y56.5609 F120.00
G01 X19.0526 Y56.5756 F120.00
G01 X19.0512 Y56.5903 F120.00
G01 X19.0505 Y56.6112 F120.00
G01 X19.0507 Y68.4933 F120.00
G01 X19.0519 Y68.5076 F120.00
G01 X19.0533 Y68.5170 F120.00
G01 X19.0551 Y68.5263 F120.00
G01 X19.0586 Y68.5402 F120.00
G01 X19.0813 Y68.6167 F120.00
G01 X19.0867 Y68.6305 F120.00
G01 X19.0955 Y68.6483 F120.00
G01 X19.1033 Y68.6611 F120.00
G01 X19.1120 Y68.6732 F120.00
G01 X19.1215 Y68.6846 F120.00
G01 X19.1283 Y68.6918 F120.00
G01 X19.1392 Y68.7020 F120.00
G01 X19.1958 Y68.7510 F120.00
G01 X19.2077 Y68.7601 F120.00
G01 X19.2246 Y68.7707 F120.00
G01 X19.2424 Y68.7797 F120.00
G01 X19.2563 Y68.7852 F120.00
G01 X19.2706 Y68.7896 F120.00
G01 X19.3140 Y68.8014 F120.00
G01 X19.3277 Y68.8042 F120.00
G01 X19.3456 Y68.8066 F120.00
G01 X19.4664 Y68.8466 F120.00
G01 X19.5735 Y68.9126 F120.00
G01 X19.6624 Y69.0015 F120.00
G01 X19.7284 Y69.1086 F120.00
G01 X19.7684 Y69.2294 F120.00
G01 X19.7755 Y69.2985 F120.00
G01 X19.7755 Y69.8765 F120.00
G01 X19.7684 Y69.9456 F120.00
G01 X19.7284 Y70.0664 F120.00
G01 X19.6624 Y70.1735 F120.00
G01 X19.5584 Y70.2778 F120.00
G01 X19.5521 Y70.2850 F120.00
G01 X19.5435 Y70.2963 F120.00
G01 X19.5356 Y70.3082 F120.00
G01 X19.5308 Y70.3165 F120.00
G01 X19.4950 Y70.3822 F120.00
G01 X19.4887 Y70.3957 F120.00
G01 X19.4851 Y70.4049 F120.00
G01 X19.4805 Y70.4191 F120.00
G01 X19.4760 Y70.4384 F120.00
G01 X19.4735 Y70.4581 F120.00
G01 X19.4729 Y70.4730 F120.00
G01 X19.4734 Y70.4879 F120.00
G01 X19.4784 Y70.5576 F120.00
G01 X19.4808 Y70.5774 F120.00
G01 X19.4839 Y70.5921 F120.00
G01 X19.4881 Y70.6065 F120.00
G01 X19.4934 Y70.6205 F120.00
G01 X19.4997 Y70.6341 F120.00
G01 X19.5070 Y70.6472 F120.00
G01 X19.5395 Y70.6979 F120.00
G01 X19.5452 Y70.7061 F120.00
G01 X19.5547 Y70.7180 F120.00
G01 X19.5649 Y70.7291 F120.00
G01 X19.6624 Y70.8265 F120.00
G01 X19.7284 Y70.9336 F120.00
G01 X19.7684 Y71.0544 F120.00
G01 X19.7755 Y71.1235 F120.00
G01 X19.7755 Y71.7015 F120.00
G01 X19.7684 Y71.7706 F120.00
G01 X19.7284 Y71.8914 F120.00
G01 X19.6624 Y71.9985 F120.00
G01 X19.5735 Y72.0874 F120.00
G01 X19.4664 Y72.1534 F120.00
G01 X19.3456 Y72.1934 F120.00
G01 X19.3321 Y72.1950 F120.00
G01 X19.3181 Y72.1977 F120.00
G01 X19.3043 Y72.2013 F120.00
G01 X19.2952 Y72.2043 F120.00
G01 X19.2171 Y72.2360 F120.00
G01 X19.2037 Y72.2424 F120.00
G01 X19.1950 Y72.2473 F120.00
G01 X19.1784 Y72.2583 F120.00
G01 X19.1668 Y72.2676 F120.00
G01 X19.1524 Y72.2813 F120.00
G01 X19.1425 Y72.2924 F120.00
G01 X19.1335 Y72.3043 F120.00
G01 X19.0906 Y72.3656 F120.00
G01 X19.0852 Y72.3740 F120.00
G01 X19.0781 Y72.3872 F120.00
G01 X19.0738 Y72.3962 F120.00
G01 X19.0684 Y72.4101 F120.00
G01 X19.0639 Y72.4244 F120.00
G01 X19.0616 Y72.4341 F120.00
G01 X19.0525 Y72.4883 F120.00
G01 X19.0514 Y72.4975 F120.00
G01 X19.0506 Y72.5115 F120.00
G01 X19.0505 Y73.4363 F120.00
G01 X19.0507 Y73.4460 F120.00
G01 X19.0523 Y73.4688 F120.00
G01 X19.0540 Y73.4839 F120.00
G01 X19.0514 Y73.5143 F120.00
G01 X19.0506 Y73.5308 F120.00
G01 X19.0476 Y73.5578 F120.00
G01 X19.0421 Y73.6202 F120.00
G01 X19.0206 Y73.6792 F120.00
G01 X18.9998 Y73.7420 F120.00
G01 X18.9653 Y73.7943 F120.00
G01 X18.9305 Y73.8507 F120.00
G01 X18.8803 Y73.8982 F120.00
G01 X18.3766 Y74.4019 F120.00
G01 X18.3638 Y74.4160 F120.00
G01 X18.3524 Y74.4312 F120.00
G01 X18.3448 Y74.4433 F120.00
G01 X18.3090 Y74.5088 F120.00
G01 X18.3004 Y74.5267 F120.00
G01 X18.2936 Y74.5453 F120.00
G01 X18.2886 Y74.5646 F120.00
G01 X18.2869 Y74.5743 F120.00
G01 X18.2852 Y74.5891 F120.00
G01 X18.2846 Y74.6090 F120.00
G01 X18.2905 Y74.6936 F120.00
G01 X18.2925 Y74.7083 F120.00
G01 X18.2944 Y74.7181 F120.00
G01 X18.2997 Y74.7372 F120.00
G01 X18.3069 Y74.7557 F120.00
G01 X18.3158 Y74.7734 F120.00
G01 X18.3265 Y74.7902 F120.00
G01 X18.3775 Y74.8579 F120.00
G01 X18.3909 Y74.8726 F120.00
G01 X18.3981 Y74.8794 F120.00
G01 X18.4096 Y74.8889 F120.00
G01 X18.4217 Y74.8975 F120.00
G01 X18.4302 Y74.9027 F120.00
G01 X18.4478 Y74.9119 F120.00
G01 X18.4615 Y74.9177 F120.00
G01 X18.5270 Y74.9421 F120.00
G01 X18.5458 Y74.9481 F120.00
G01 X18.5652 Y74.9522 F120.00
G01 X18.5848 Y74.9543 F120.00
G01 X18.6057 Y74.9550 F120.00
G01 X19.3578 Y74.9550 F120.00
G01 X19.3664 Y74.9557 F120.00
G01 X19.4801 Y74.9887 F120.00
G01 X19.5780 Y75.0466 F120.00
G01 X19.6363 Y75.1049 F120.00
G01 X19.4797 Y75.1049 F120.00
G01 X19.4606 Y75.0941 F120.00
G01 X19.4384 Y75.0836 F120.00
G01 X19.4294 Y75.0798 F120.00
G01 X19.4109 Y75.0732 F120.00
G01 X19.3969 Y75.0687 F120.00
G01 X19.3683 Y75.0617 F120.00
G01 X19.3440 Y75.0579 F120.00
G01 X19.3294 Y75.0563 F120.00
G01 X19.3049 Y75.0551 F120.00
G01 X17.6500 Y75.0550 F120.00
G01 X17.6255 Y75.0560 F120.00
G01 X17.6108 Y75.0572 F120.00
G01 X17.5865 Y75.0608 F120.00
G01 X17.5729 Y75.0637 F120.00
G01 X18.8217 Y73.8148 F120.00
G01 X18.8480 Y73.7856 F120.00
G01 X18.8743 Y73.7501 F120.00
G01 X18.8970 Y73.7122 F120.00
G01 X18.9119 Y73.6812 F120.00
G01 X18.9177 Y73.6677 F120.00
G01 X18.9293 Y73.6353 F120.00
G01 X18.9334 Y73.6212 F120.00
G01 X18.9405 Y73.5926 F120.00
G01 X18.9432 Y73.5781 F120.00
G01 X18.9480 Y73.5441 F120.00
G01 X18.9501 Y73.5049 F120.00
G01 X18.9501 Y72.1000 F120.00
G01 X19.2375 Y72.1000 F120.00
G01 X19.2755 Y72.0983 F120.00
G01 X19.2901 Y72.0967 F120.00
G01 X19.3180 Y72.0925 F120.00
G01 X19.3277 Y72.0906 F120.00
G01 X19.3550 Y72.0838 F120.00
G01 X19.3738 Y72.0781 F120.00
G01 X19.4004 Y72.0685 F120.00
G01 X19.4094 Y72.0648 F120.00
G01 X19.4350 Y72.0528 F120.00
G01 X19.4480 Y72.0460 F120.00
G01 X19.4764 Y72.0289 F120.00
G01 X19.4886 Y72.0206 F120.00
G01 X19.5150 Y72.0007 F120.00
G01 X19.5397 Y71.9786 F120.00
G01 X19.5503 Y71.9683 F120.00
G01 X19.5725 Y71.9438 F120.00
G01 X19.5817 Y71.9323 F120.00
G01 X19.6013 Y71.9056 F120.00
G01 X19.6233 Y71.8687 F120.00
G01 X19.6377 Y71.8389 F120.00
G01 X19.6435 Y71.8254 F120.00
G01 X19.6547 Y71.7942 F120.00
G01 X19.6588 Y71.7800 F120.00
G01 X19.6666 Y71.7479 F120.00
G01 X19.6717 Y71.7151 F120.00
G01 X19.6733 Y71.7005 F120.00
G01 X19.6749 Y71.6674 F120.00
G01 X19.6750 Y71.1625 F120.00
G01 X19.6736 Y71.1294 F120.00
G01 X19.6724 Y71.1147 F120.00
G01 X19.6666 Y71.0771 F120.00
G01 X19.6575 Y71.0402 F120.00
G01 X19.6547 Y71.0308 F120.00
G01 X19.6452 Y71.0042 F120.00
G01 X19.6377 Y70.9861 F120.00
G01 X19.6233 Y70.9563 F120.00
G01 X19.6013 Y70.9194 F120.00
G01 X19.5757 Y70.8850 F120.00
G01 X19.5503 Y70.8567 F120.00
G01 X19.5397 Y70.8464 F120.00
G01 X19.5188 Y70.8275 F120.00
G01 X19.5112 Y70.8212 F120.00
G01 X19.4886 Y70.8044 F120.00
G01 X19.4723 Y70.7935 F120.00
G01 X19.4480 Y70.7790 F120.00
G01 X19.4394 Y70.7744 F120.00
G01 X19.4049 Y70.7583 F120.00
G01 X19.3645 Y70.7438 F120.00
G01 X19.3229 Y70.7334 F120.00
G01 X19.2901 Y70.7283 F120.00
G01 X19.2755 Y70.7267 F120.00
G01 X19.2375 Y70.7250 F120.00
G01 X18.7625 Y70.7250 F120.00
G01 X18.7196 Y70.7271 F120.00
G01 X18.6868 Y70.7317 F120.00
G01 X18.6723 Y70.7344 F120.00
G01 X18.6355 Y70.7438 F120.00
G01 X18.6042 Y70.7548 F120.00
G01 X18.5906 Y70.7602 F120.00
G01 X18.5650 Y70.7722 F120.00
G01 X18.5520 Y70.7790 F120.00
G01 X18.5237 Y70.7960 F120.00
G01 X18.5114 Y70.8044 F120.00
G01 X18.4850 Y70.8243 F120.00
G01 X18.4603 Y70.8464 F120.00
G01 X18.4497 Y70.8567 F120.00
G01 X18.4307 Y70.8775 F120.00
G01 X18.4212 Y70.8888 F120.00
G01 X18.4015 Y70.9154 F120.00
G01 X18.3935 Y70.9277 F120.00
G01 X18.3790 Y70.9520 F120.00
G01 X18.3722 Y70.9650 F120.00
G01 X18.3583 Y70.9951 F120.00
G01 X18.3438 Y71.0355 F120.00
G01 X18.3334 Y71.0771 F120.00
G01 X18.3271 Y71.1196 F120.00
G01 X18.3250 Y71.1625 F120.00
G01 X18.3250 Y71.4509 F120.00
G01 X18.1783 Y71.5977 F120.00
G01 X18.1522 Y71.6267 F120.00
G01 X18.1314 Y71.6544 F120.00
G01 X18.1231 Y71.6665 F120.00
G01 X18.1054 Y71.6960 F120.00
G01 X18.0986 Y71.7091 F120.00
G01 X18.0861 Y71.7357 F120.00
G01 X18.0806 Y71.7494 F120.00
G01 X18.0707 Y71.7772 F120.00
G01 X18.0679 Y71.7865 F120.00
G01 X18.0607 Y71.8151 F120.00
G01 X18.0576 Y71.8295 F120.00
G01 X18.0520 Y71.8684 F120.00
G01 X18.0499 Y71.9125 F120.00
G01 X18.0499 Y73.3136 F120.00
G01 X16.6783 Y74.6852 F120.00
G01 X16.6522 Y74.7143 F120.00
G01 X16.6314 Y74.7419 F120.00
G01 X16.6231 Y74.7540 F120.00
G01 X16.6079 Y74.7793 F120.00
G01 X16.6008 Y74.7922 F120.00
G01 X16.5861 Y74.8232 F120.00
G01 X16.5806 Y74.8369 F120.00
G01 X16.5693 Y74.8693 F120.00
G01 X16.5585 Y74.9122 F120.00
G01 X16.5520 Y74.9559 F120.00
G01 X16.5499 Y74.9951 F120.00
G01 X16.5499 Y76.5000 F120.00
G01 X16.5520 Y76.5441 F120.00
G01 X16.5576 Y76.5830 F120.00
G01 X16.5595 Y76.5926 F120.00
G01 X16.5666 Y76.6212 F120.00
G01 X16.5723 Y76.6400 F120.00
G01 X16.5841 Y76.6723 F120.00
G01 X16.6030 Y76.7122 F120.00
G01 X16.6230 Y76.7459 F120.00
G01 X16.6314 Y76.7581 F120.00
G01 X16.6520 Y76.7856 F120.00
G01 X16.6783 Y76.8148 F120.00
G01 X17.0067 Y77.1433 F120.00
G01 X17.0392 Y77.1728 F120.00
G01 X17.0472 Y77.1790 F120.00
G01 X17.0749 Y77.1993 F120.00
G01 X17.1128 Y77.2220 F120.00
G01 X17.1527 Y77.2409 F120.00
G01 X17.1897 Y77.2543 F120.00
G01 X17.2038 Y77.2584 F120.00
G01 X17.2324 Y77.2655 F120.00
G01 X17.2420 Y77.2674 F120.00
G01 X17.2711 Y77.2718 F120.00
G01 X17.2858 Y77.2734 F120.00
G01 X17.3250 Y77.2751 F120.00
G01 X17.4703 Y77.2751 F120.00
G01 X17.4894 Y77.2859 F120.00
G01 X17.5115 Y77.2964 F120.00
G01 X17.5252 Y77.3019 F120.00
G01 X17.5437 Y77.3084 F120.00
G01 X17.5531 Y77.3113 F120.00
G01 X17.5817 Y77.3183 F120.00
G01 X17.6060 Y77.3221 F120.00
G01 X17.6206 Y77.3237 F120.00
G01 X17.6451 Y77.3249 F120.00
G01 X19.3000 Y77.3250 F120.00
G01 X19.3294 Y77.3237 F120.00
G01 X19.3392 Y77.3228 F120.00
G01 X19.3586 Y77.3200 F120.00
G01 X19.3779 Y77.3161 F120.00
G01 X19.3976 Y77.3111 F120.00
G01 X19.4065 Y77.3084 F120.00
G01 X19.4339 Y77.2984 F120.00
G01 X19.4606 Y77.2859 F120.00
G01 X19.4693 Y77.2813 F120.00
G01 X19.4862 Y77.2713 F120.00
G01 X19.5025 Y77.2604 F120.00
G01 X19.5182 Y77.2486 F120.00
G01 X19.5258 Y77.2424 F120.00
G01 X19.5475 Y77.2225 F120.00
G01 X19.5674 Y77.2008 F120.00
G01 X19.5736 Y77.1932 F120.00
G01 X19.5854 Y77.1775 F120.00
G01 X19.5963 Y77.1612 F120.00
G01 X19.6063 Y77.1443 F120.00
G01 X19.6109 Y77.1356 F120.00
G01 X19.6234 Y77.1089 F120.00
G01 X19.6334 Y77.0813 F120.00
G01 X19.6363 Y77.0719 F120.00
G01 X19.6411 Y77.0529 F120.00
G01 X19.6450 Y77.0336 F120.00
G01 X19.6483 Y77.0093 F120.00
G01 X19.6499 Y76.9799 F120.00
G01 X19.6500 Y76.6750 F120.00
G01 X19.6483 Y76.6407 F120.00
G01 X19.6450 Y76.6164 F120.00
G01 X19.6423 Y76.6019 F120.00
G01 X19.6349 Y76.5734 F120.00
G01 X19.6234 Y76.5411 F120.00
G01 X19.6131 Y76.5188 F120.00
G01 X19.6085 Y76.5097 F120.00
G01 X19.5910 Y76.4806 F120.00
G01 X19.5706 Y76.4530 F120.00
G01 X19.5475 Y76.4275 F120.00
G01 X19.5222 Y76.4046 F120.00
G01 X19.4985 Y76.3868 F120.00
G01 X19.4903 Y76.3813 F120.00
G01 X19.4735 Y76.3712 F120.00
G01 X19.4606 Y76.3641 F120.00
G01 X19.4339 Y76.3516 F120.00
G01 X19.4063 Y76.3416 F120.00
G01 X19.3921 Y76.3375 F120.00
G01 X19.3731 Y76.3327 F120.00
G01 X19.3635 Y76.3308 F120.00
G01 X19.3343 Y76.3267 F120.00
G01 X19.3049 Y76.3251 F120.00
G01 X17.6451 Y76.3251 F120.00
G01 X17.6206 Y76.3263 F120.00
G01 X17.6108 Y76.3272 F120.00
G01 X17.5865 Y76.3308 F120.00
G01 X17.5721 Y76.3339 F120.00
G01 X17.5531 Y76.3387 F120.00
G01 X17.5391 Y76.3432 F120.00
G01 X17.5161 Y76.3516 F120.00
G01 X17.4970 Y76.3604 F120.00
G01 X17.4501 Y76.3136 F120.00
G01 X17.4501 Y75.9922 F120.00
G01 X17.4597 Y75.9987 F120.00
G01 X17.4765 Y76.0088 F120.00
G01 X17.4938 Y76.0181 F120.00
G01 X17.5115 Y76.0264 F120.00
G01 X17.5206 Y76.0302 F120.00
G01 X17.5484 Y76.0399 F120.00
G01 X17.5769 Y76.0473 F120.00
G01 X17.5865 Y76.0492 F120.00
G01 X17.6060 Y76.0521 F120.00
G01 X17.6206 Y76.0537 F120.00
G01 X17.6500 Y76.0550 F120.00
G01 X19.3049 Y76.0549 F120.00
G01 X19.3343 Y76.0533 F120.00
G01 X19.3586 Y76.0500 F120.00
G01 X19.3731 Y76.0473 F120.00
G01 X19.3976 Y76.0411 F120.00
G01 X19.4065 Y76.0384 F120.00
G01 X19.4248 Y76.0319 F120.00
G01 X19.4384 Y76.0264 F120.00
G01 X19.4606 Y76.0159 F120.00
G01 X19.4797 Y76.0051 F120.00
G01 X19.8080 Y76.0051 F120.00
G01 X19.8190 Y76.0172 F120.00
G01 X19.8680 Y76.0670 F120.00
G01 X19.8789 Y76.0772 F120.00
G01 X19.8904 Y76.0865 F120.00
G01 X19.8985 Y76.0923 F120.00
G01 X19.9112 Y76.1002 F120.00
G01 X19.9199 Y76.1049 F120.00
G01 X19.9289 Y76.1092 F120.00
G01 X19.9427 Y76.1147 F120.00
G01 X19.9569 Y76.1192 F120.00
G01 X19.9665 Y76.1217 F120.00
G01 X20.0444 Y76.1389 F120.00
G01 X20.0642 Y76.1414 F120.00
G01 X20.0790 Y76.1419 F120.00
G01 X20.0939 Y76.1413 F120.00
G01 X20.1087 Y76.1396 F120.00
G01 X20.1185 Y76.1379 F120.00
G01 X20.1330 Y76.1343 F120.00
G01 X20.1472 Y76.1298 F120.00
G01 X20.2128 Y76.1058 F120.00
G01 X20.2221 Y76.1021 F120.00
G01 X20.2313 Y76.0980 F120.00
G01 X20.2402 Y76.0934 F120.00
G01 X20.2531 Y76.0857 F120.00
G01 X20.2655 Y76.0770 F120.00
G01 X20.2771 Y76.0674 F120.00
G01 X20.2844 Y76.0606 F120.00
G01 X20.2914 Y76.0534 F120.00
G01 X20.3265 Y76.0151 F120.00
G01 X20.3347 Y76.0051 F120.00
G01 X20.3686 Y76.0051 F120.00
G01 X20.4239 Y76.0605 F120.00
G01 X20.3987 Y76.0944 F120.00
G01 X20.3815 Y76.1227 F120.00
G01 X20.3744 Y76.1356 F120.00
G01 X20.3583 Y76.1701 F120.00
G01 X20.3453 Y76.2058 F120.00
G01 X20.3412 Y76.2200 F120.00
G01 X20.3334 Y76.2521 F120.00
G01 X20.3271 Y76.2946 F120.00
G01 X20.3250 Y76.3375 F120.00
G01 X20.3250 Y76.9375 F120.00
G01 X20.3271 Y76.9804 F120.00
G01 X20.3334 Y77.0229 F120.00
G01 X20.3438 Y77.0645 F120.00
G01 X20.3583 Y77.1049 F120.00
G01 X20.3767 Y77.1437 F120.00
G01 X20.3987 Y77.1806 F120.00
G01 X20.4243 Y77.2150 F120.00
G01 X20.4531 Y77.2469 F120.00
G01 X20.4775 Y77.2693 F120.00
G01 X20.4888 Y77.2788 F120.00
G01 X20.5194 Y77.3013 F120.00
G01 X20.5477 Y77.3185 F120.00
G01 X20.5606 Y77.3256 F120.00
G01 X20.5951 Y77.3417 F120.00
G01 X20.6308 Y77.3547 F120.00
G01 X20.6450 Y77.3588 F120.00
G01 X20.6771 Y77.3666 F120.00
G01 X20.7196 Y77.3729 F120.00
G01 X20.7625 Y77.3750 F120.00
G01 X21.2375 Y77.3750 F120.00
G01 X21.2804 Y77.3729 F120.00
G01 X21.3132 Y77.3683 F120.00
G01 X21.3277 Y77.3656 F120.00
G01 X21.3645 Y77.3562 F120.00
G01 X21.4004 Y77.3435 F120.00
G01 X21.4139 Y77.3377 F120.00
G01 X21.4437 Y77.3233 F120.00
G01 X21.4723 Y77.3065 F120.00
G01 X21.4846 Y77.2985 F120.00
G01 X21.5150 Y77.2757 F120.00
G01 X21.5433 Y77.2503 F120.00
G01 X21.5536 Y77.2397 F120.00
G01 X21.5757 Y77.2150 F120.00
G01 X21.5985 Y77.1846 F120.00
G01 X21.6039 Y77.1764 F120.00
G01 X21.6185 Y77.1523 F120.00
G01 X21.6256 Y77.1394 F120.00
G01 X21.6398 Y77.1094 F120.00
G01 X21.6435 Y77.1004 F120.00
G01 X21.6482 Y77.0875 F120.00
G01 X21.7540 Y77.0875 F120.00
G01 X21.7280 Y77.1662 F120.00
G01 X21.6619 Y77.2733 F120.00
G01 X21.6549 Y77.2810 F120.00
G01 X21.6488 Y77.2883 F120.00
G01 X21.6431 Y77.2960 F120.00
G01 X21.6352 Y77.3079 F120.00
G01 X21.5925 Y77.3863 F120.00
G01 X21.5847 Y77.4046 F120.00
G01 X21.5815 Y77.4140 F120.00
G01 X21.5776 Y77.4284 F120.00
G01 X21.5741 Y77.4479 F120.00
G01 X21.5731 Y77.4578 F120.00
G01 X21.5725 Y77.4727 F120.00
G01 X21.5730 Y77.4876 F120.00
G01 X21.5780 Y77.5572 F120.00
G01 X21.5797 Y77.5721 F120.00
G01 X21.5814 Y77.5820 F120.00
G01 X21.5848 Y77.5966 F120.00
G01 X21.5878 Y77.6061 F120.00
G01 X21.5930 Y77.6202 F120.00
G01 X21.6016 Y77.6382 F120.00
G01 X21.6093 Y77.6511 F120.00
G01 X21.6431 Y77.7033 F120.00
G01 X21.6518 Y77.7147 F120.00
G01 X21.6623 Y77.7264 F120.00
G01 X21.7284 Y77.8336 F120.00
G01 X21.7684 Y77.9544 F120.00
G01 X21.7755 Y78.0235 F120.00
G01 X21.7755 Y78.7015 F120.00
G01 X21.7684 Y78.7706 F120.00
G01 X21.7284 Y78.8914 F120.00
G01 X21.6624 Y78.9985 F120.00
G01 X21.5905 Y79.0704 F120.00
G01 X21.5803 Y79.0821 F120.00
G01 X21.5740 Y79.0903 F120.00
G01 X21.5681 Y79.0988 F120.00
G01 X21.5353 Y79.1518 F120.00
G01 X21.5301 Y79.1608 F120.00
G01 X21.5254 Y79.1700 F120.00
G01 X21.5211 Y79.1794 F120.00
G01 X21.5174 Y79.1890 F120.00
G01 X21.4998 Y79.2420 F120.00
G01 X21.4634 Y79.2974 F120.00
G01 X21.4305 Y79.3507 F120.00
G01 X21.3803 Y79.3983 F120.00
G01 X21.0693 Y79.7092 F120.00
G01 X21.0626 Y79.7162 F120.00
G01 X21.0476 Y79.7335 F120.00
G01 X21.0381 Y79.7453 F120.00
G01 X21.0148 Y79.7650 F120.00
G01 X21.0026 Y79.7762 F120.00
G01 X20.9813 Y79.7931 F120.00
G01 X20.9333 Y79.8333 F120.00
G01 X20.8765 Y79.8598 F120.00
G01 X20.8304 Y79.8829 F120.00
G01 X20.8139 Y79.8922 F120.00
G01 X20.7983 Y79.9031 F120.00
G01 X20.7838 Y79.9153 F120.00
G01 X20.7292 Y79.9665 F120.00
G01 X20.7157 Y79.9810 F120.00
G01 X20.7037 Y79.9969 F120.00
G01 X20.6958 Y80.0095 F120.00
G01 X20.6889 Y80.0227 F120.00
G01 X20.6830 Y80.0364 F120.00
G01 X20.6781 Y80.0504 F120.00
G01 X20.6560 Y80.1374 F120.00
G01 X20.6530 Y80.1571 F120.00
G01 X20.6521 Y80.1719 F120.00
G01 X20.6523 Y80.1868 F120.00
G01 X20.6536 Y80.2017 F120.00
G01 X20.6560 Y80.2164 F120.00
G01 X20.6594 Y80.2309 F120.00
G01 X20.6861 Y80.3113 F120.00
G01 X20.6898 Y80.3206 F120.00
G01 X20.6960 Y80.3341 F120.00
G01 X20.7059 Y80.3513 F120.00
G01 X20.7175 Y80.3674 F120.00
G01 X20.7306 Y80.3824 F120.00
G01 X20.7451 Y80.3959 F120.00
G01 X20.8034 Y80.4429 F120.00
G01 X20.8154 Y80.4518 F120.00
G01 X20.8281 Y80.4598 F120.00
G01 X20.8368 Y80.4647 F120.00
G01 X20.8458 Y80.4690 F120.00
G01 X20.8597 Y80.4747 F120.00
G01 X20.8788 Y80.4807 F120.00
G01 X20.8934 Y80.4839 F120.00
G01 X20.9660 Y80.4948 F120.00
G01 X20.9851 Y80.4959 F120.00
G01 X20.9997 Y80.4955 F120.00
G01 X21.1831 Y80.5115 F120.00
G01 X21.3607 Y80.5591 F120.00
G01 X21.5273 Y80.6368 F120.00
G01 X21.6778 Y80.7422 F120.00
G01 X21.8111 Y80.8754 F120.00
G01 X21.8182 Y80.8835 F120.00
G01 X21.8283 Y80.8935 F120.00
G01 X21.8392 Y80.9028 F120.00
G01 X21.8937 Y80.9465 F120.00
G01 X21.9053 Y80.9551 F120.00
G01 X21.9175 Y80.9628 F120.00
G01 X21.9301 Y80.9696 F120.00
G01 X21.9433 Y80.9755 F120.00
G01 X21.9568 Y80.9804 F120.00
G01 X21.9706 Y80.9844 F120.00
G01 X21.9800 Y80.9865 F120.00
G01 X22.0270 Y80.9957 F120.00
G01 X22.0414 Y80.9980 F120.00
G01 X22.0511 Y80.9990 F120.00
G01 X22.0656 Y80.9995 F120.00
G01 X22.2054 Y80.9995 F120.00
G01 X22.2245 Y80.9986 F120.00
G01 X22.2433 Y80.9959 F120.00
G01 X22.2572 Y80.9927 F120.00
G01 X22.3288 Y80.9717 F120.00
G01 X22.3428 Y80.9670 F120.00
G01 X22.3608 Y80.9593 F120.00
G01 X22.3780 Y80.9497 F120.00
G01 X22.3941 Y80.9386 F120.00
G01 X22.4186 Y80.9189 F120.00
G01 X22.4268 Y80.9120 F120.00
G01 X22.4345 Y80.9046 F120.00
G01 X22.5015 Y80.8376 F120.00
G01 X22.6086 Y80.7716 F120.00
G01 X22.7294 Y80.7316 F120.00
G01 X22.7985 Y80.7245 F120.00
G01 X23.4765 Y80.7245 F120.00
G01 X23.5456 Y80.7316 F120.00
G01 X23.6664 Y80.7716 F120.00
G01 X23.7736 Y80.8377 F120.00
G01 X23.7817 Y80.8451 F120.00
G01 X23.7890 Y80.8512 F120.00
G01 X23.7967 Y80.8569 F120.00
G01 X23.8086 Y80.8648 F120.00
G01 X23.8781 Y80.9030 F120.00
G01 X23.8915 Y80.9096 F120.00
G01 X23.9099 Y80.9169 F120.00
G01 X23.9290 Y80.9224 F120.00
G01 X23.9437 Y80.9252 F120.00
G01 X23.9535 Y80.9264 F120.00
G01 X23.9734 Y80.9275 F120.00
G01 X23.9882 Y80.9270 F120.00
G01 X24.0579 Y80.9220 F120.00
G01 X24.0728 Y80.9203 F120.00
G01 X24.0876 Y80.9176 F120.00
G01 X24.0973 Y80.9152 F120.00
G01 X24.1068 Y80.9123 F120.00
G01 X24.1209 Y80.9070 F120.00
G01 X24.1389 Y80.8984 F120.00
G01 X24.1518 Y80.8907 F120.00
G01 X24.2040 Y80.8569 F120.00
G01 X24.2154 Y80.8482 F120.00
G01 X24.2267 Y80.8381 F120.00
G01 X24.3338 Y80.7720 F120.00
G01 X24.4125 Y80.7460 F120.00
G01 X24.4125 Y80.8518 F120.00
G01 X24.3996 Y80.8565 F120.00
G01 X24.3906 Y80.8602 F120.00
G01 X24.3606 Y80.8744 F120.00
G01 X24.3477 Y80.8815 F120.00
G01 X24.3237 Y80.8960 F120.00
G01 X24.3114 Y80.9044 F120.00
G01 X24.2850 Y80.9243 F120.00
G01 X24.2603 Y80.9464 F120.00
G01 X24.2497 Y80.9567 F120.00
G01 X24.2275 Y80.9812 F120.00
G01 X24.2183 Y80.9927 F120.00
G01 X24.1987 Y81.0194 F120.00
G01 X24.1815 Y81.0477 F120.00
G01 X24.1744 Y81.0606 F120.00
G01 X24.1583 Y81.0951 F120.00
G01 X24.1469 Y81.1262 F120.00
G01 X24.1425 Y81.1402 F120.00
G01 X24.1334 Y81.1771 F120.00
G01 X24.1283 Y81.2099 F120.00
G01 X24.1267 Y81.2245 F120.00
G01 X24.1251 Y81.2576 F120.00
G01 X24.1250 Y81.7375 F120.00
G01 X24.1267 Y81.7755 F120.00
G01 X24.1283 Y81.7901 F120.00
G01 X24.1334 Y81.8229 F120.00
G01 X24.1412 Y81.8550 F120.00
G01 X24.1453 Y81.8692 F120.00
G01 X24.1583 Y81.9049 F120.00
G01 X24.1722 Y81.9350 F120.00
G01 X24.1790 Y81.9480 F120.00
G01 X24.1987 Y81.9806 F120.00
G01 X24.2243 Y82.0150 F120.00
G01 X24.2531 Y82.0469 F120.00
G01 X24.2812 Y82.0725 F120.00
G01 X24.2927 Y82.0817 F120.00
G01 X24.3194 Y82.1013 F120.00
G01 X24.3520 Y82.1210 F120.00
G01 X24.3650 Y82.1278 F120.00
G01 X24.3906 Y82.1398 F120.00
G01 X24.3996 Y82.1435 F120.00
G01 X24.4125 Y82.1482 F120.00
G01 X24.4125 Y82.2540 F120.00
G01 X24.3338 Y82.2280 F120.00
G01 X24.2267 Y82.1619 F120.00
G01 X24.2190 Y82.1549 F120.00
G01 X24.2117 Y82.1488 F120.00
G01 X24.2040 Y82.1431 F120.00
G01 X24.1921 Y82.1352 F120.00
G01 X24.1137 Y82.0925 F120.00
G01 X24.0954 Y82.0847 F120.00
G01 X24.0765 Y82.0788 F120.00
G01 X24.0570 Y82.0748 F120.00
G01 X24.0373 Y82.0728 F120.00
G01 X24.0224 Y82.0726 F120.00
G01 X24.0124 Y82.0730 F120.00
G01 X23.9328 Y82.0790 F120.00
G01 X23.9131 Y82.0824 F120.00
G01 X23.9034 Y82.0848 F120.00
G01 X23.8891 Y82.0894 F120.00
G01 X23.8707 Y82.0971 F120.00
G01 X23.8531 Y82.1066 F120.00
G01 X23.7983 Y82.1419 F120.00
G01 X23.7862 Y82.1511 F120.00
G01 X23.7736 Y82.1623 F120.00
G01 X23.6664 Y82.2284 F120.00
G01 X23.5456 Y82.2684 F120.00
G01 X23.4765 Y82.2755 F120.00
G01 X22.7985 Y82.2755 F120.00
G01 X22.7294 Y82.2684 F120.00
G01 X22.6086 Y82.2284 F120.00
G01 X22.4794 Y82.1487 F120.00
G01 X22.4663 Y82.1413 F120.00
G01 X22.4527 Y82.1349 F120.00
G01 X22.4433 Y82.1312 F120.00
G01 X22.4338 Y82.1280 F120.00
G01 X22.3639 Y82.1081 F120.00
G01 X22.3492 Y82.1045 F120.00
G01 X22.3394 Y82.1028 F120.00
G01 X22.3294 Y82.1015 F120.00
G01 X22.3194 Y82.1008 F120.00
G01 X22.3093 Y82.1005 F120.00
G01 X22.0656 Y82.1005 F120.00
G01 X22.0466 Y82.1014 F120.00
G01 X22.0278 Y82.1041 F120.00
G01 X22.0139 Y82.1073 F120.00
G01 X21.9376 Y82.1297 F120.00
G01 X21.9197 Y82.1364 F120.00
G01 X21.9067 Y82.1426 F120.00
G01 X21.8941 Y82.1496 F120.00
G01 X21.8821 Y82.1576 F120.00
G01 X21.8745 Y82.1634 F120.00
G01 X21.8635 Y82.1727 F120.00
G01 X21.8255 Y82.2092 F120.00
G01 X21.8186 Y82.2161 F120.00
G01 X21.8111 Y82.2245 F120.00
G01 X21.6776 Y82.3580 F120.00
G01 X21.6664 Y82.3669 F120.00
G01 X21.6525 Y82.3799 F120.00
G01 X21.6399 Y82.3942 F120.00
G01 X21.5963 Y82.4488 F120.00
G01 X21.5876 Y82.4605 F120.00
G01 X21.5799 Y82.4728 F120.00
G01 X21.5730 Y82.4856 F120.00
G01 X21.5671 Y82.4989 F120.00
G01 X21.5621 Y82.5125 F120.00
G01 X21.5582 Y82.5265 F120.00
G01 X21.5473 Y82.5725 F120.00
G01 X21.5450 Y82.5874 F120.00
G01 X21.5421 Y82.6202 F120.00
G01 X21.5195 Y82.6824 F120.00
G01 X21.4998 Y82.7420 F120.00
G01 X21.4634 Y82.7973 F120.00
G01 X21.4305 Y82.8507 F120.00
G01 X21.3803 Y82.8983 F120.00
G01 X20.7593 Y83.5192 F120.00
G01 X20.7526 Y83.5262 F120.00
G01 X20.7345 Y83.5472 F120.00
G01 X20.7234 Y83.5619 F120.00
G01 X20.7155 Y83.5738 F120.00
G01 X20.7086 Y83.5863 F120.00
G01 X20.7025 Y83.5992 F120.00
G01 X20.6990 Y83.6080 F120.00
G01 X20.6716 Y83.6830 F120.00
G01 X20.6666 Y83.7022 F120.00
G01 X20.6641 Y83.7169 F120.00
G01 X20.6627 Y83.7317 F120.00
G01 X20.6624 Y83.7416 F120.00
G01 X20.6628 Y83.7565 F120.00
G01 X20.6644 Y83.7713 F120.00
G01 X20.6670 Y83.7860 F120.00
G01 X20.6844 Y83.8636 F120.00
G01 X20.6887 Y83.8775 F120.00
G01 X20.6940 Y83.8911 F120.00
G01 X20.7027 Y83.9085 F120.00
G01 X20.7102 Y83.9209 F120.00
G01 X20.7216 Y83.9366 F120.00
G01 X20.7631 Y83.9854 F120.00
G01 X20.7774 Y83.9992 F120.00
G01 X20.7937 Y84.0124 F120.00
G01 X20.8432 Y84.0647 F120.00
G01 X21.3442 Y84.5657 F120.00
G01 X21.3512 Y84.5724 F120.00
G01 X21.3685 Y84.5874 F120.00
G01 X21.3803 Y84.5969 F120.00
G01 X21.4000 Y84.6202 F120.00
G01 X21.4112 Y84.6324 F120.00
G01 X21.4279 Y84.6535 F120.00
G01 X21.4683 Y84.7017 F120.00
G01 X21.4949 Y84.7586 F120.00
G01 X21.5245 Y84.8177 F120.00
G01 X21.5379 Y84.8825 F120.00
G01 X21.5524 Y84.9436 F120.00
G01 X21.5505 Y85.0127 F120.00
G01 X21.5507 Y85.3739 F120.00
G01 X21.5525 Y85.3928 F120.00
G01 X21.5541 Y85.4022 F120.00
G01 X21.5573 Y85.4161 F120.00
G01 X21.5783 Y85.4878 F120.00
G01 X21.5846 Y85.5059 F120.00
G01 X21.5904 Y85.5191 F120.00
G01 X21.5996 Y85.5359 F120.00
G01 X21.6104 Y85.5517 F120.00
G01 X21.6227 Y85.5665 F120.00
G01 X21.6626 Y85.6080 F120.00
G01 X21.6745 Y85.6189 F120.00
G01 X21.8111 Y85.7554 F120.00
G01 X21.8215 Y85.7669 F120.00
G01 X21.8355 Y85.7798 F120.00
G01 X21.8975 Y85.8294 F120.00
G01 X21.9133 Y85.8403 F120.00
G01 X21.9301 Y85.8496 F120.00
G01 X21.9477 Y85.8573 F120.00
G01 X21.9614 Y85.8619 F120.00
G01 X21.9706 Y85.8644 F120.00
G01 X22.0318 Y85.8766 F120.00
G01 X22.0511 Y85.8790 F120.00
G01 X22.0656 Y85.8795 F120.00
G01 X22.3417 Y85.8795 F120.00
G01 X22.3568 Y85.8789 F120.00
G01 X22.3668 Y85.8779 F120.00
G01 X22.3767 Y85.8764 F120.00
G01 X22.3915 Y85.8732 F120.00
G01 X22.4621 Y85.8533 F120.00
G01 X22.4808 Y85.8468 F120.00
G01 X22.4945 Y85.8408 F120.00
G01 X22.5076 Y85.8338 F120.00
G01 X22.6086 Y85.7716 F120.00
G01 X22.7294 Y85.7316 F120.00
G01 X22.7985 Y85.7245 F120.00
G01 X23.4765 Y85.7245 F120.00
G01 X23.5456 Y85.7316 F120.00
G01 X23.6664 Y85.7716 F120.00
G01 X23.7736 Y85.8377 F120.00
G01 X23.7817 Y85.8451 F120.00
G01 X23.7890 Y85.8512 F120.00
G01 X23.7967 Y85.8569 F120.00
G01 X23.8086 Y85.8648 F120.00
G01 X23.8870 Y85.9075 F120.00
G01 X23.9006 Y85.9135 F120.00
G01 X23.9099 Y85.9169 F120.00
G01 X23.9194 Y85.9199 F120.00
G01 X23.9339 Y85.9234 F120.00
G01 X23.9437 Y85.9252 F120.00
G01 X23.9585 Y85.9269 F120.00
G01 X23.9734 Y85.9275 F120.00
G01 X23.9833 Y85.9272 F120.00
G01 X24.0579 Y85.9220 F120.00
G01 X24.0728 Y85.9203 F120.00
G01 X24.0876 Y85.9176 F120.00
G01 X24.0973 Y85.9152 F120.00
G01 X24.1068 Y85.9123 F120.00
G01 X24.1209 Y85.9070 F120.00
G01 X24.1389 Y85.8984 F120.00
G01 X24.1518 Y85.8907 F120.00
G01 X24.2040 Y85.8569 F120.00
G01 X24.2154 Y85.8482 F120.00
G01 X24.2267 Y85.8381 F120.00
G01 X24.3338 Y85.7720 F120.00
G01 X24.4125 Y85.7460 F120.00
G01 X24.4125 Y85.8518 F120.00
G01 X24.3996 Y85.8565 F120.00
G01 X24.3906 Y85.8602 F120.00
G01 X24.3606 Y85.8744 F120.00
G01 X24.3477 Y85.8815 F120.00
G01 X24.3237 Y85.8960 F120.00
G01 X24.3114 Y85.9044 F120.00
G01 X24.2850 Y85.9243 F120.00
G01 X24.2603 Y85.9464 F120.00
G01 X24.2497 Y85.9567 F120.00
G01 X24.2275 Y85.9812 F120.00
G01 X24.2183 Y85.9927 F120.00
G01 X24.1987 Y86.0194 F120.00
G01 X24.1815 Y86.0477 F120.00
G01 X24.1744 Y86.0606 F120.00
G01 X24.1583 Y86.0951 F120.00
G01 X24.1469 Y86.1262 F120.00
G01 X24.1425 Y86.1402 F120.00
G01 X24.1334 Y86.1771 F120.00
G01 X24.1283 Y86.2099 F120.00
G01 X24.1267 Y86.2245 F120.00
G01 X24.1251 Y86.2576 F120.00
G01 X24.1250 Y86.7375 F120.00
G01 X24.1267 Y86.7755 F120.00
G01 X24.1283 Y86.7901 F120.00
G01 X24.1334 Y86.8229 F120.00
G01 X24.1412 Y86.8550 F120.00
G01 X24.1453 Y86.8692 F120.00
G01 X24.1583 Y86.9049 F120.00
G01 X24.1722 Y86.9350 F120.00
G01 X24.1790 Y86.9480 F120.00
G01 X24.1987 Y86.9806 F120.00
G01 X24.2243 Y87.0150 F120.00
G01 X24.2531 Y87.0469 F120.00
G01 X24.2812 Y87.0725 F120.00
G01 X24.2927 Y87.0817 F120.00
G01 X24.3194 Y87.1013 F120.00
G01 X24.3520 Y87.1210 F120.00
G01 X24.3650 Y87.1278 F120.00
G01 X24.3906 Y87.1398 F120.00
G01 X24.3996 Y87.1435 F120.00
G01 X24.4125 Y87.1482 F120.00
G01 X24.4125 Y87.2540 F120.00
G01 X24.3338 Y87.2280 F120.00
G01 X24.2267 Y87.1619 F120.00
G01 X24.2190 Y87.1549 F120.00
G01 X24.2117 Y87.1488 F120.00
G01 X24.2040 Y87.1431 F120.00
G01 X24.1921 Y87.1352 F120.00
G01 X24.1137 Y87.0925 F120.00
G01 X24.0954 Y87.0847 F120.00
G01 X24.0860 Y87.0815 F120.00
G01 X24.0716 Y87.0776 F120.00
G01 X24.0619 Y87.0757 F120.00
G01 X24.0472 Y87.0736 F120.00
G01 X24.0273 Y87.0725 F120.00
G01 X24.0124 Y87.0730 F120.00
G01 X23.9427 Y87.0780 F120.00
G01 X23.9278 Y87.0797 F120.00
G01 X23.9131 Y87.0824 F120.00
G01 X23.9034 Y87.0848 F120.00
G01 X23.8891 Y87.0894 F120.00
G01 X23.8798 Y87.0930 F120.00
G01 X23.8618 Y87.1016 F120.00
G01 X23.8489 Y87.1093 F120.00
G01 X23.7983 Y87.1419 F120.00
G01 X23.7862 Y87.1511 F120.00
G01 X23.7736 Y87.1623 F120.00
G01 X23.6664 Y87.2284 F120.00
G01 X23.5456 Y87.2684 F120.00
G01 X23.4765 Y87.2755 F120.00
G01 X22.7985 Y87.2755 F120.00
G01 X22.7294 Y87.2684 F120.00
G01 X22.6086 Y87.2284 F120.00
G01 X22.5015 Y87.1624 F120.00
G01 X22.4111 Y87.0721 F120.00
G01 X22.4005 Y87.0626 F120.00
G01 X22.3891 Y87.0539 F120.00
G01 X22.3772 Y87.0460 F120.00
G01 X22.3690 Y87.0413 F120.00
G01 X22.3077 Y87.0078 F120.00
G01 X22.2900 Y86.9992 F120.00
G01 X22.2716 Y86.9925 F120.00
G01 X22.2526 Y86.9875 F120.00
G01 X22.2381 Y86.9851 F120.00
G01 X22.2015 Y86.9811 F120.00
G01 X22.1854 Y86.9805 F120.00
G01 X22.0561 Y86.9807 F120.00
G01 X22.0372 Y86.9825 F120.00
G01 X22.0185 Y86.9861 F120.00
G01 X21.9376 Y87.0097 F120.00
G01 X21.9241 Y87.0146 F120.00
G01 X21.9109 Y87.0204 F120.00
G01 X21.9024 Y87.0248 F120.00
G01 X21.8901 Y87.0322 F120.00
G01 X21.8783 Y87.0404 F120.00
G01 X21.8671 Y87.0495 F120.00
G01 X21.8255 Y87.0892 F120.00
G01 X21.8186 Y87.0961 F120.00
G01 X21.8111 Y87.1045 F120.00
G01 X21.6778 Y87.2378 F120.00
G01 X21.5273 Y87.3432 F120.00
G01 X21.3607 Y87.4209 F120.00
G01 X21.1831 Y87.4685 F120.00
G01 X21.0000 Y87.4845 F120.00
G01 X20.8169 Y87.4685 F120.00
G01 X20.6393 Y87.4209 F120.00
G01 X20.4727 Y87.3432 F120.00
G01 X20.3222 Y87.2378 F120.00
G01 X20.1922 Y87.1078 F120.00
G01 X20.0868 Y86.9573 F120.00
G01 X20.0091 Y86.7907 F120.00
G01 X19.9615 Y86.6131 F120.00
G01 X19.9455 Y86.4300 F120.00
G01 X19.9614 Y86.2481 F120.00
G01 X20.0091 Y86.0692 F120.00
G01 X20.0868 Y85.9027 F120.00
G01 X20.1922 Y85.7522 F120.00
G01 X20.3254 Y85.6189 F120.00
G01 X20.3335 Y85.6118 F120.00
G01 X20.3435 Y85.6017 F120.00
G01 X20.3528 Y85.5908 F120.00
G01 X20.3994 Y85.5325 F120.00
G01 X20.4050 Y85.5247 F120.00
G01 X20.4128 Y85.5126 F120.00
G01 X20.4217 Y85.4955 F120.00
G01 X20.4273 Y85.4823 F120.00
G01 X20.4304 Y85.4732 F120.00
G01 X20.4355 Y85.4547 F120.00
G01 X20.4457 Y85.4030 F120.00
G01 X20.4480 Y85.3886 F120.00
G01 X20.4494 Y85.3692 F120.00
G01 X20.4494 Y85.3575 F120.00
G01 X20.4490 Y85.3480 F120.00
G01 X20.4467 Y85.3291 F120.00
G01 X20.4427 Y85.3105 F120.00
G01 X20.4217 Y85.2388 F120.00
G01 X20.4170 Y85.2249 F120.00
G01 X20.4093 Y85.2069 F120.00
G01 X20.3997 Y85.1897 F120.00
G01 X20.3886 Y85.1736 F120.00
G01 X20.3689 Y85.1491 F120.00
G01 X20.3583 Y85.1370 F120.00
G01 X20.3119 Y85.0904 F120.00
G01 X20.3014 Y85.0807 F120.00
G01 X20.2941 Y85.0746 F120.00
G01 X20.2826 Y85.0662 F120.00
G01 X20.2705 Y85.0586 F120.00
G01 X20.2050 Y85.0228 F120.00
G01 X20.1918 Y85.0162 F120.00
G01 X20.1782 Y85.0106 F120.00
G01 X20.1642 Y85.0061 F120.00
G01 X20.1499 Y85.0025 F120.00
G01 X20.1305 Y84.9995 F120.00
G01 X20.0988 Y84.9961 F120.00
G01 X20.0828 Y84.9955 F120.00
G01 X19.5776 Y84.9956 F120.00
G01 X19.5588 Y84.9969 F120.00
G01 X19.5195 Y85.0024 F120.00
G01 X19.5056 Y85.0049 F120.00
G01 X19.4919 Y85.0084 F120.00
G01 X19.3665 Y85.0448 F120.00
G01 X19.3578 Y85.0455 F120.00
G01 X17.8745 Y85.0455 F120.00
G01 X17.8602 Y85.0460 F120.00
G01 X17.8413 Y85.0483 F120.00
G01 X17.8227 Y85.0523 F120.00
G01 X17.7511 Y85.0733 F120.00
G01 X17.7324 Y85.0798 F120.00
G01 X17.7143 Y85.0882 F120.00
G01 X17.6973 Y85.0983 F120.00
G01 X17.6812 Y85.1100 F120.00
G01 X17.6665 Y85.1233 F120.00
G01 X17.6563 Y85.1342 F120.00
G01 X17.6042 Y85.1947 F120.00
G01 X17.5927 Y85.2111 F120.00
G01 X17.5876 Y85.2196 F120.00
G01 X17.5807 Y85.2330 F120.00
G01 X17.5748 Y85.2468 F120.00
G01 X17.5715 Y85.2562 F120.00
G01 X17.5663 Y85.2755 F120.00
G01 X17.5533 Y85.3363 F120.00
G01 X17.5510 Y85.3552 F120.00
G01 X17.5505 Y85.3695 F120.00
G01 X17.5505 Y91.6240 F120.00
G01 X17.5510 Y91.6383 F120.00
G01 X17.5519 Y91.6478 F120.00
G01 X17.5541 Y91.6619 F120.00
G01 X17.5561 Y91.6712 F120.00
G01 X17.5813 Y91.7569 F120.00
G01 X17.5888 Y91.7753 F120.00
G01 X17.5980 Y91.7929 F120.00
G01 X17.6090 Y91.8094 F120.00
G01 X17.6215 Y91.8248 F120.00
G01 X17.6283 Y91.8321 F120.00
G01 X17.6392 Y91.8422 F120.00
G01 X17.6997 Y91.8943 F120.00
G01 X17.7117 Y91.9030 F120.00
G01 X17.7244 Y91.9109 F120.00
