(G-CODE GENERATED BY FLATCAM v8.994 - www.flatcam.org - Version Date: 2020/11/7)

(Name: Dot-Matrix-Terminal-User_1.gbr_iso_combined_cnc)
(Type: G-code from Geometry)
(Units: MM)

(Created on Thursday, 25 July 2024 at 23:00)

(This preprocessor is used with a motion controller loaded with GRBL firmware.)
(It is configured to be compatible with almost any version of GRBL firmware.)

(TOOL DIAMETER: 0.0 mm)
(Feedrate_XY: 120.0 mm/min)
(Feedrate_Z: 60.0 mm/min)
(Feedrate rapids 1500.0 mm/min)

(Z_Cut: -1.8 mm)
(DepthPerCut: 0.6 mm <=>3 passes)
(Z_Move: 2.0 mm)
(Z Start: None mm)
(Z End: 15.0 mm)
(X,Y End: None mm)
(Steps per circle: 64)
(Steps per circle: 64)
(Preprocessor Geometry: GRBL_11_no_M6)

(X range:   13.9250 ...   46.5250  mm)
(Y range:   93.9250 ...  100.0750  mm)

(Spindle Speed: 1000.0 RPM)
G21
G90
G17
G94


G01 F120.00

M5             
G00 Z15.0000
G00 X0.0000 Y0.0000                
T1
(MSG, Change to Tool Dia = 0.0000)
M0
G00 Z15.0000
        
M03 S1000.0
G01 F120.00
G00 X13.9250 Y98.3600
G01 F60.00
G01 Z-0.6000
G01 F120.00
G01 X13.9250 Y96.8600 F120.00
G01 X13.9253 Y96.8526 F120.00
G01 X13.9264 Y96.8454 F120.00
G01 X13.9282 Y96.8382 F120.00
G01 X13.9307 Y96.8313 F120.00
G01 X13.9338 Y96.8246 F120.00
G01 X13.9376 Y96.8183 F120.00
G01 X13.9420 Y96.8124 F120.00
G01 X13.9469 Y96.8069 F120.00
G01 X13.9524 Y96.8020 F120.00
G01 X13.9583 Y96.7976 F120.00
G01 X13.9646 Y96.7938 F120.00
G01 X13.9713 Y96.7907 F120.00
G01 X13.9782 Y96.7882 F120.00
G01 X13.9854 Y96.7864 F120.00
G01 X13.9926 Y96.7853 F120.00
G01 X14.0000 Y96.7850 F120.00
G01 X14.0074 Y96.7853 F120.00
G01 X14.0146 Y96.7864 F120.00
G01 X14.0218 Y96.7882 F120.00
G01 X14.0287 Y96.7907 F120.00
G01 X14.0354 Y96.7938 F120.00
G01 X14.0417 Y96.7976 F120.00
G01 X14.0476 Y96.8020 F120.00
G01 X14.0531 Y96.8069 F120.00
G01 X14.0580 Y96.8124 F120.00
G01 X14.0624 Y96.8183 F120.00
G01 X14.0662 Y96.8246 F120.00
G01 X14.0693 Y96.8313 F120.00
G01 X14.0718 Y96.8382 F120.00
G01 X14.0736 Y96.8454 F120.00
G01 X14.0747 Y96.8526 F120.00
G01 X14.0750 Y96.8600 F120.00
G01 X14.0750 Y98.3600 F120.00
G01 X14.0747 Y98.3674 F120.00
G01 X14.0736 Y98.3746 F120.00
G01 X14.0718 Y98.3818 F120.00
G01 X14.0693 Y98.3887 F120.00
G01 X14.0662 Y98.3954 F120.00
G01 X14.0624 Y98.4017 F120.00
G01 X14.0580 Y98.4076 F120.00
G01 X14.0531 Y98.4131 F120.00
G01 X14.0476 Y98.4180 F120.00
G01 X14.0417 Y98.4224 F120.00
G01 X14.0354 Y98.4262 F120.00
G01 X14.0287 Y98.4293 F120.00
G01 X14.0218 Y98.4318 F120.00
G01 X14.0146 Y98.4336 F120.00
G01 X14.0074 Y98.4347 F120.00
G01 X14.0000 Y98.4350 F120.00
G01 X13.9926 Y98.4347 F120.00
G01 X13.9854 Y98.4336 F120.00
G01 X13.9782 Y98.4318 F120.00
G01 X13.9713 Y98.4293 F120.00
G01 X13.9646 Y98.4262 F120.00
G01 X13.9583 Y98.4224 F120.00
G01 X13.9524 Y98.4180 F120.00
G01 X13.9469 Y98.4131 F120.00
G01 X13.9420 Y98.4076 F120.00
G01 X13.9376 Y98.4017 F120.00
G01 X13.9338 Y98.3954 F120.00
G01 X13.9307 Y98.3887 F120.00
G01 X13.9282 Y98.3818 F120.00
G01 X13.9264 Y98.3746 F120.00
G01 X13.9253 Y98.3674 F120.00
G01 X13.9250 Y98.3600 F120.00
G00 X13.9250 Y98.3600
G01 F60.00
G01 Z-1.2000
G01 F120.00
G01 X13.9250 Y96.8600 F120.00
G01 X13.9253 Y96.8526 F120.00
G01 X13.9264 Y96.8454 F120.00
G01 X13.9282 Y96.8382 F120.00
G01 X13.9307 Y96.8313 F120.00
G01 X13.9338 Y96.8246 F120.00
G01 X13.9376 Y96.8183 F120.00
G01 X13.9420 Y96.8124 F120.00
G01 X13.9469 Y96.8069 F120.00
G01 X13.9524 Y96.8020 F120.00
G01 X13.9583 Y96.7976 F120.00
G01 X13.9646 Y96.7938 F120.00
G01 X13.9713 Y96.7907 F120.00
G01 X13.9782 Y96.7882 F120.00
G01 X13.9854 Y96.7864 F120.00
G01 X13.9926 Y96.7853 F120.00
G01 X14.0000 Y96.7850 F120.00
G01 X14.0074 Y96.7853 F120.00
G01 X14.0146 Y96.7864 F120.00
G01 X14.0218 Y96.7882 F120.00
G01 X14.0287 Y96.7907 F120.00
G01 X14.0354 Y96.7938 F120.00
G01 X14.0417 Y96.7976 F120.00
G01 X14.0476 Y96.8020 F120.00
G01 X14.0531 Y96.8069 F120.00
G01 X14.0580 Y96.8124 F120.00
G01 X14.0624 Y96.8183 F120.00
G01 X14.0662 Y96.8246 F120.00
G01 X14.0693 Y96.8313 F120.00
G01 X14.0718 Y96.8382 F120.00
G01 X14.0736 Y96.8454 F120.00
G01 X14.0747 Y96.8526 F120.00
G01 X14.0750 Y96.8600 F120.00
G01 X14.0750 Y98.3600 F120.00
G01 X14.0747 Y98.3674 F120.00
G01 X14.0736 Y98.3746 F120.00
G01 X14.0718 Y98.3818 F120.00
G01 X14.0693 Y98.3887 F120.00
G01 X14.0662 Y98.3954 F120.00
G01 X14.0624 Y98.4017 F120.00
G01 X14.0580 Y98.4076 F120.00
G01 X14.0531 Y98.4131 F120.00
G01 X14.0476 Y98.4180 F120.00
G01 X14.0417 Y98.4224 F120.00
G01 X14.0354 Y98.4262 F120.00
G01 X14.0287 Y98.4293 F120.00
G01 X14.0218 Y98.4318 F120.00
G01 X14.0146 Y98.4336 F120.00
G01 X14.0074 Y98.4347 F120.00
G01 X14.0000 Y98.4350 F120.00
G01 X13.9926 Y98.4347 F120.00
G01 X13.9854 Y98.4336 F120.00
G01 X13.9782 Y98.4318 F120.00
G01 X13.9713 Y98.4293 F120.00
G01 X13.9646 Y98.4262 F120.00
G01 X13.9583 Y98.4224 F120.00
G01 X13.9524 Y98.4180 F120.00
G01 X13.9469 Y98.4131 F120.00
G01 X13.9420 Y98.4076 F120.00
G01 X13.9376 Y98.4017 F120.00
G01 X13.9338 Y98.3954 F120.00
G01 X13.9307 Y98.3887 F120.00
G01 X13.9282 Y98.3818 F120.00
G01 X13.9264 Y98.3746 F120.00
G01 X13.9253 Y98.3674 F120.00
G01 X13.9250 Y98.3600 F120.00
G00 X13.9250 Y98.3600
G01 F60.00
G01 Z-1.8000
G01 F120.00
G01 X13.9250 Y96.8600 F120.00
G01 X13.9253 Y96.8526 F120.00
G01 X13.9264 Y96.8454 F120.00
G01 X13.9282 Y96.8382 F120.00
G01 X13.9307 Y96.8313 F120.00
G01 X13.9338 Y96.8246 F120.00
G01 X13.9376 Y96.8183 F120.00
G01 X13.9420 Y96.8124 F120.00
G01 X13.9469 Y96.8069 F120.00
G01 X13.9524 Y96.8020 F120.00
G01 X13.9583 Y96.7976 F120.00
G01 X13.9646 Y96.7938 F120.00
G01 X13.9713 Y96.7907 F120.00
G01 X13.9782 Y96.7882 F120.00
G01 X13.9854 Y96.7864 F120.00
G01 X13.9926 Y96.7853 F120.00
G01 X14.0000 Y96.7850 F120.00
G01 X14.0074 Y96.7853 F120.00
G01 X14.0146 Y96.7864 F120.00
G01 X14.0218 Y96.7882 F120.00
G01 X14.0287 Y96.7907 F120.00
G01 X14.0354 Y96.7938 F120.00
G01 X14.0417 Y96.7976 F120.00
G01 X14.0476 Y96.8020 F120.00
G01 X14.0531 Y96.8069 F120.00
G01 X14.0580 Y96.8124 F120.00
G01 X14.0624 Y96.8183 F120.00
G01 X14.0662 Y96.8246 F120.00
G01 X14.0693 Y96.8313 F120.00
G01 X14.0718 Y96.8382 F120.00
G01 X14.0736 Y96.8454 F120.00
G01 X14.0747 Y96.8526 F120.00
G01 X14.0750 Y96.8600 F120.00
G01 X14.0750 Y98.3600 F120.00
G01 X14.0747 Y98.3674 F120.00
G01 X14.0736 Y98.3746 F120.00
G01 X14.0718 Y98.3818 F120.00
G01 X14.0693 Y98.3887 F120.00
G01 X14.0662 Y98.3954 F120.00
G01 X14.0624 Y98.4017 F120.00
G01 X14.0580 Y98.4076 F120.00
G01 X14.0531 Y98.4131 F120.00
G01 X14.0476 Y98.4180 F120.00
G01 X14.0417 Y98.4224 F120.00
G01 X14.0354 Y98.4262 F120.00
G01 X14.0287 Y98.4293 F120.00
G01 X14.0218 Y98.4318 F120.00
G01 X14.0146 Y98.4336 F120.00
G01 X14.0074 Y98.4347 F120.00
G01 X14.0000 Y98.4350 F120.00
G01 X13.9926 Y98.4347 F120.00
G01 X13.9854 Y98.4336 F120.00
G01 X13.9782 Y98.4318 F120.00
G01 X13.9713 Y98.4293 F120.00
G01 X13.9646 Y98.4262 F120.00
G01 X13.9583 Y98.4224 F120.00
G01 X13.9524 Y98.4180 F120.00
G01 X13.9469 Y98.4131 F120.00
G01 X13.9420 Y98.4076 F120.00
G01 X13.9376 Y98.4017 F120.00
G01 X13.9338 Y98.3954 F120.00
G01 X13.9307 Y98.3887 F120.00
G01 X13.9282 Y98.3818 F120.00
G01 X13.9264 Y98.3746 F120.00
G01 X13.9253 Y98.3674 F120.00
G01 X13.9250 Y98.3600 F120.00
G00 Z2.0000
G00 X25.9250 Y98.3600
G01 F60.00
G01 Z-0.6000
G01 F120.00
G01 X25.9250 Y96.8600 F120.00
G01 X25.9253 Y96.8526 F120.00
G01 X25.9264 Y96.8454 F120.00
G01 X25.9282 Y96.8382 F120.00
G01 X25.9307 Y96.8313 F120.00
G01 X25.9338 Y96.8246 F120.00
G01 X25.9376 Y96.8183 F120.00
G01 X25.9420 Y96.8124 F120.00
G01 X25.9469 Y96.8069 F120.00
G01 X25.9524 Y96.8020 F120.00
G01 X25.9583 Y96.7976 F120.00
G01 X25.9646 Y96.7938 F120.00
G01 X25.9713 Y96.7907 F120.00
G01 X25.9782 Y96.7882 F120.00
G01 X25.9854 Y96.7864 F120.00
G01 X25.9926 Y96.7853 F120.00
G01 X26.0000 Y96.7850 F120.00
G01 X26.0074 Y96.7853 F120.00
G01 X26.0146 Y96.7864 F120.00
G01 X26.0218 Y96.7882 F120.00
G01 X26.0287 Y96.7907 F120.00
G01 X26.0354 Y96.7938 F120.00
G01 X26.0417 Y96.7976 F120.00
G01 X26.0476 Y96.8020 F120.00
G01 X26.0531 Y96.8069 F120.00
G01 X26.0580 Y96.8124 F120.00
G01 X26.0624 Y96.8183 F120.00
G01 X26.0662 Y96.8246 F120.00
G01 X26.0693 Y96.8313 F120.00
G01 X26.0718 Y96.8382 F120.00
G01 X26.0736 Y96.8454 F120.00
G01 X26.0747 Y96.8526 F120.00
G01 X26.0750 Y96.8600 F120.00
G01 X26.0750 Y98.3600 F120.00
G01 X26.0747 Y98.3674 F120.00
G01 X26.0736 Y98.3746 F120.00
G01 X26.0718 Y98.3818 F120.00
G01 X26.0693 Y98.3887 F120.00
G01 X26.0662 Y98.3954 F120.00
G01 X26.0624 Y98.4017 F120.00
G01 X26.0580 Y98.4076 F120.00
G01 X26.0531 Y98.4131 F120.00
G01 X26.0476 Y98.4180 F120.00
G01 X26.0417 Y98.4224 F120.00
G01 X26.0354 Y98.4262 F120.00
G01 X26.0287 Y98.4293 F120.00
G01 X26.0218 Y98.4318 F120.00
G01 X26.0146 Y98.4336 F120.00
G01 X26.0074 Y98.4347 F120.00
G01 X26.0000 Y98.4350 F120.00
G01 X25.9926 Y98.4347 F120.00
G01 X25.9854 Y98.4336 F120.00
G01 X25.9782 Y98.4318 F120.00
G01 X25.9713 Y98.4293 F120.00
G01 X25.9646 Y98.4262 F120.00
G01 X25.9583 Y98.4224 F120.00
G01 X25.9524 Y98.4180 F120.00
G01 X25.9469 Y98.4131 F120.00
G01 X25.9420 Y98.4076 F120.00
G01 X25.9376 Y98.4017 F120.00
G01 X25.9338 Y98.3954 F120.00
G01 X25.9307 Y98.3887 F120.00
G01 X25.9282 Y98.3818 F120.00
G01 X25.9264 Y98.3746 F120.00
G01 X25.9253 Y98.3674 F120.00
G01 X25.9250 Y98.3600 F120.00
G00 X25.9250 Y98.3600
G01 F60.00
G01 Z-1.2000
G01 F120.00
G01 X25.9250 Y96.8600 F120.00
G01 X25.9253 Y96.8526 F120.00
G01 X25.9264 Y96.8454 F120.00
G01 X25.9282 Y96.8382 F120.00
G01 X25.9307 Y96.8313 F120.00
G01 X25.9338 Y96.8246 F120.00
G01 X25.9376 Y96.8183 F120.00
G01 X25.9420 Y96.8124 F120.00
G01 X25.9469 Y96.8069 F120.00
G01 X25.9524 Y96.8020 F120.00
G01 X25.9583 Y96.7976 F120.00
G01 X25.9646 Y96.7938 F120.00
G01 X25.9713 Y96.7907 F120.00
G01 X25.9782 Y96.7882 F120.00
G01 X25.9854 Y96.7864 F120.00
G01 X25.9926 Y96.7853 F120.00
G01 X26.0000 Y96.7850 F120.00
G01 X26.0074 Y96.7853 F120.00
G01 X26.0146 Y96.7864 F120.00
G01 X26.0218 Y96.7882 F120.00
G01 X26.0287 Y96.7907 F120.00
G01 X26.0354 Y96.7938 F120.00
G01 X26.0417 Y96.7976 F120.00
G01 X26.0476 Y96.8020 F120.00
G01 X26.0531 Y96.8069 F120.00
G01 X26.0580 Y96.8124 F120.00
G01 X26.0624 Y96.8183 F120.00
G01 X26.0662 Y96.8246 F120.00
G01 X26.0693 Y96.8313 F120.00
G01 X26.0718 Y96.8382 F120.00
G01 X26.0736 Y96.8454 F120.00
G01 X26.0747 Y96.8526 F120.00
G01 X26.0750 Y96.8600 F120.00
G01 X26.0750 Y98.3600 F120.00
G01 X26.0747 Y98.3674 F120.00
G01 X26.0736 Y98.3746 F120.00
G01 X26.0718 Y98.3818 F120.00
G01 X26.0693 Y98.3887 F120.00
G01 X26.0662 Y98.3954 F120.00
G01 X26.0624 Y98.4017 F120.00
G01 X26.0580 Y98.4076 F120.00
G01 X26.0531 Y98.4131 F120.00
G01 X26.0476 Y98.4180 F120.00
G01 X26.0417 Y98.4224 F120.00
G01 X26.0354 Y98.4262 F120.00
G01 X26.0287 Y98.4293 F120.00
G01 X26.0218 Y98.4318 F120.00
G01 X26.0146 Y98.4336 F120.00
G01 X26.0074 Y98.4347 F120.00
G01 X26.0000 Y98.4350 F120.00
G01 X25.9926 Y98.4347 F120.00
G01 X25.9854 Y98.4336 F120.00
G01 X25.9782 Y98.4318 F120.00
G01 X25.9713 Y98.4293 F120.00
G01 X25.9646 Y98.4262 F120.00
G01 X25.9583 Y98.4224 F120.00
G01 X25.9524 Y98.4180 F120.00
G01 X25.9469 Y98.4131 F120.00
G01 X25.9420 Y98.4076 F120.00
G01 X25.9376 Y98.4017 F120.00
G01 X25.9338 Y98.3954 F120.00
G01 X25.9307 Y98.3887 F120.00
G01 X25.9282 Y98.3818 F120.00
G01 X25.9264 Y98.3746 F120.00
G01 X25.9253 Y98.3674 F120.00
G01 X25.9250 Y98.3600 F120.00
G00 X25.9250 Y98.3600
G01 F60.00
G01 Z-1.8000
G01 F120.00
G01 X25.9250 Y96.8600 F120.00
G01 X25.9253 Y96.8526 F120.00
G01 X25.9264 Y96.8454 F120.00
G01 X25.9282 Y96.8382 F120.00
G01 X25.9307 Y96.8313 F120.00
G01 X25.9338 Y96.8246 F120.00
G01 X25.9376 Y96.8183 F120.00
G01 X25.9420 Y96.8124 F120.00
G01 X25.9469 Y96.8069 F120.00
G01 X25.9524 Y96.8020 F120.00
G01 X25.9583 Y96.7976 F120.00
G01 X25.9646 Y96.7938 F120.00
G01 X25.9713 Y96.7907 F120.00
G01 X25.9782 Y96.7882 F120.00
G01 X25.9854 Y96.7864 F120.00
G01 X25.9926 Y96.7853 F120.00
G01 X26.0000 Y96.7850 F120.00
G01 X26.0074 Y96.7853 F120.00
G01 X26.0146 Y96.7864 F120.00
G01 X26.0218 Y96.7882 F120.00
G01 X26.0287 Y96.7907 F120.00
G01 X26.0354 Y96.7938 F120.00
G01 X26.0417 Y96.7976 F120.00
G01 X26.0476 Y96.8020 F120.00
G01 X26.0531 Y96.8069 F120.00
G01 X26.0580 Y96.8124 F120.00
G01 X26.0624 Y96.8183 F120.00
G01 X26.0662 Y96.8246 F120.00
G01 X26.0693 Y96.8313 F120.00
G01 X26.0718 Y96.8382 F120.00
G01 X26.0736 Y96.8454 F120.00
G01 X26.0747 Y96.8526 F120.00
G01 X26.0750 Y96.8600 F120.00
G01 X26.0750 Y98.3600 F120.00
G01 X26.0747 Y98.3674 F120.00
G01 X26.0736 Y98.3746 F120.00
G01 X26.0718 Y98.3818 F120.00
G01 X26.0693 Y98.3887 F120.00
G01 X26.0662 Y98.3954 F120.00
G01 X26.0624 Y98.4017 F120.00
G01 X26.0580 Y98.4076 F120.00
G01 X26.0531 Y98.4131 F120.00
G01 X26.0476 Y98.4180 F120.00
G01 X26.0417 Y98.4224 F120.00
G01 X26.0354 Y98.4262 F120.00
G01 X26.0287 Y98.4293 F120.00
G01 X26.0218 Y98.4318 F120.00
G01 X26.0146 Y98.4336 F120.00
G01 X26.0074 Y98.4347 F120.00
G01 X26.0000 Y98.4350 F120.00
G01 X25.9926 Y98.4347 F120.00
G01 X25.9854 Y98.4336 F120.00
G01 X25.9782 Y98.4318 F120.00
G01 X25.9713 Y98.4293 F120.00
G01 X25.9646 Y98.4262 F120.00
G01 X25.9583 Y98.4224 F120.00
G01 X25.9524 Y98.4180 F120.00
G01 X25.9469 Y98.4131 F120.00
G01 X25.9420 Y98.4076 F120.00
G01 X25.9376 Y98.4017 F120.00
G01 X25.9338 Y98.3954 F120.00
G01 X25.9307 Y98.3887 F120.00
G01 X25.9282 Y98.3818 F120.00
G01 X25.9264 Y98.3746 F120.00
G01 X25.9253 Y98.3674 F120.00
G01 X25.9250 Y98.3600 F120.00
G00 Z2.0000
G00 X40.7500 Y99.9250
G01 F60.00
G01 Z-0.6000
G01 F120.00
G01 X42.7500 Y99.9250 F120.00
G01 X42.7574 Y99.9253 F120.00
G01 X42.7646 Y99.9264 F120.00
G01 X42.7718 Y99.9282 F120.00
G01 X42.7787 Y99.9307 F120.00
G01 X42.7854 Y99.9338 F120.00
G01 X42.7917 Y99.9376 F120.00
G01 X42.7976 Y99.9420 F120.00
G01 X42.8031 Y99.9469 F120.00
G01 X42.8080 Y99.9524 F120.00
G01 X42.8124 Y99.9583 F120.00
G01 X42.8162 Y99.9646 F120.00
G01 X42.8193 Y99.9713 F120.00
G01 X42.8218 Y99.9782 F120.00
G01 X42.8236 Y99.9854 F120.00
G01 X42.8247 Y99.9926 F120.00
G01 X42.8250 Y100.0000 F120.00
G01 X42.8247 Y100.0074 F120.00
G01 X42.8236 Y100.0146 F120.00
G01 X42.8218 Y100.0218 F120.00
G01 X42.8193 Y100.0287 F120.00
G01 X42.8162 Y100.0354 F120.00
G01 X42.8124 Y100.0417 F120.00
G01 X42.8080 Y100.0476 F120.00
G01 X42.8031 Y100.0531 F120.00
G01 X42.7976 Y100.0580 F120.00
G01 X42.7917 Y100.0624 F120.00
G01 X42.7854 Y100.0662 F120.00
G01 X42.7787 Y100.0693 F120.00
G01 X42.7718 Y100.0718 F120.00
G01 X42.7646 Y100.0736 F120.00
G01 X42.7574 Y100.0747 F120.00
G01 X42.7500 Y100.0750 F120.00
G01 X40.7500 Y100.0750 F120.00
G01 X40.7426 Y100.0747 F120.00
G01 X40.7354 Y100.0736 F120.00
G01 X40.7282 Y100.0718 F120.00
G01 X40.7213 Y100.0693 F120.00
G01 X40.7146 Y100.0662 F120.00
G01 X40.7083 Y100.0624 F120.00
G01 X40.7024 Y100.0580 F120.00
G01 X40.6969 Y100.0531 F120.00
G01 X40.6920 Y100.0476 F120.00
G01 X40.6876 Y100.0417 F120.00
G01 X40.6838 Y100.0354 F120.00
G01 X40.6807 Y100.0287 F120.00
G01 X40.6782 Y100.0218 F120.00
G01 X40.6764 Y100.0146 F120.00
G01 X40.6753 Y100.0074 F120.00
G01 X40.6750 Y100.0000 F120.00
G01 X40.6753 Y99.9926 F120.00
G01 X40.6764 Y99.9854 F120.00
G01 X40.6782 Y99.9782 F120.00
G01 X40.6807 Y99.9713 F120.00
G01 X40.6838 Y99.9646 F120.00
G01 X40.6876 Y99.9583 F120.00
G01 X40.6920 Y99.9524 F120.00
G01 X40.6969 Y99.9469 F120.00
G01 X40.7024 Y99.9420 F120.00
G01 X40.7083 Y99.9376 F120.00
G01 X40.7146 Y99.9338 F120.00
G01 X40.7213 Y99.9307 F120.00
G01 X40.7282 Y99.9282 F120.00
G01 X40.7354 Y99.9264 F120.00
G01 X40.7426 Y99.9253 F120.00
G01 X40.7500 Y99.9250 F120.00
G00 X40.7500 Y99.9250
G01 F60.00
G01 Z-1.2000
G01 F120.00
G01 X42.7500 Y99.9250 F120.00
G01 X42.7574 Y99.9253 F120.00
G01 X42.7646 Y99.9264 F120.00
G01 X42.7718 Y99.9282 F120.00
G01 X42.7787 Y99.9307 F120.00
G01 X42.7854 Y99.9338 F120.00
G01 X42.7917 Y99.9376 F120.00
G01 X42.7976 Y99.9420 F120.00
G01 X42.8031 Y99.9469 F120.00
G01 X42.8080 Y99.9524 F120.00
G01 X42.8124 Y99.9583 F120.00
G01 X42.8162 Y99.9646 F120.00
G01 X42.8193 Y99.9713 F120.00
G01 X42.8218 Y99.9782 F120.00
G01 X42.8236 Y99.9854 F120.00
G01 X42.8247 Y99.9926 F120.00
G01 X42.8250 Y100.0000 F120.00
G01 X42.8247 Y100.0074 F120.00
G01 X42.8236 Y100.0146 F120.00
G01 X42.8218 Y100.0218 F120.00
G01 X42.8193 Y100.0287 F120.00
G01 X42.8162 Y100.0354 F120.00
G01 X42.8124 Y100.0417 F120.00
G01 X42.8080 Y100.0476 F120.00
G01 X42.8031 Y100.0531 F120.00
G01 X42.7976 Y100.0580 F120.00
G01 X42.7917 Y100.0624 F120.00
G01 X42.7854 Y100.0662 F120.00
G01 X42.7787 Y100.0693 F120.00
G01 X42.7718 Y100.0718 F120.00
G01 X42.7646 Y100.0736 F120.00
G01 X42.7574 Y100.0747 F120.00
G01 X42.7500 Y100.0750 F120.00
G01 X40.7500 Y100.0750 F120.00
G01 X40.7426 Y100.0747 F120.00
G01 X40.7354 Y100.0736 F120.00
G01 X40.7282 Y100.0718 F120.00
G01 X40.7213 Y100.0693 F120.00
G01 X40.7146 Y100.0662 F120.00
G01 X40.7083 Y100.0624 F120.00
G01 X40.7024 Y100.0580 F120.00
G01 X40.6969 Y100.0531 F120.00
G01 X40.6920 Y100.0476 F120.00
G01 X40.6876 Y100.0417 F120.00
G01 X40.6838 Y100.0354 F120.00
G01 X40.6807 Y100.0287 F120.00
G01 X40.6782 Y100.0218 F120.00
G01 X40.6764 Y100.0146 F120.00
G01 X40.6753 Y100.0074 F120.00
G01 X40.6750 Y100.0000 F120.00
G01 X40.6753 Y99.9926 F120.00
G01 X40.6764 Y99.9854 F120.00
G01 X40.6782 Y99.9782 F120.00
G01 X40.6807 Y99.9713 F120.00
G01 X40.6838 Y99.9646 F120.00
G01 X40.6876 Y99.9583 F120.00
G01 X40.6920 Y99.9524 F120.00
G01 X40.6969 Y99.9469 F120.00
G01 X40.7024 Y99.9420 F120.00
G01 X40.7083 Y99.9376 F120.00
G01 X40.7146 Y99.9338 F120.00
G01 X40.7213 Y99.9307 F120.00
G01 X40.7282 Y99.9282 F120.00
G01 X40.7354 Y99.9264 F120.00
G01 X40.7426 Y99.9253 F120.00
G01 X40.7500 Y99.9250 F120.00
G00 X40.7500 Y99.9250
G01 F60.00
G01 Z-1.8000
G01 F120.00
G01 X42.7500 Y99.9250 F120.00
G01 X42.7574 Y99.9253 F120.00
G01 X42.7646 Y99.9264 F120.00
G01 X42.7718 Y99.9282 F120.00
G01 X42.7787 Y99.9307 F120.00
G01 X42.7854 Y99.9338 F120.00
G01 X42.7917 Y99.9376 F120.00
G01 X42.7976 Y99.9420 F120.00
G01 X42.8031 Y99.9469 F120.00
G01 X42.8080 Y99.9524 F120.00
G01 X42.8124 Y99.9583 F120.00
G01 X42.8162 Y99.9646 F120.00
G01 X42.8193 Y99.9713 F120.00
G01 X42.8218 Y99.9782 F120.00
G01 X42.8236 Y99.9854 F120.00
G01 X42.8247 Y99.9926 F120.00
G01 X42.8250 Y100.0000 F120.00
G01 X42.8247 Y100.0074 F120.00
G01 X42.8236 Y100.0146 F120.00
G01 X42.8218 Y100.0218 F120.00
G01 X42.8193 Y100.0287 F120.00
G01 X42.8162 Y100.0354 F120.00
G01 X42.8124 Y100.0417 F120.00
G01 X42.8080 Y100.0476 F120.00
G01 X42.8031 Y100.0531 F120.00
G01 X42.7976 Y100.0580 F120.00
G01 X42.7917 Y100.0624 F120.00
G01 X42.7854 Y100.0662 F120.00
G01 X42.7787 Y100.0693 F120.00
G01 X42.7718 Y100.0718 F120.00
G01 X42.7646 Y100.0736 F120.00
G01 X42.7574 Y100.0747 F120.00
G01 X42.7500 Y100.0750 F120.00
G01 X40.7500 Y100.0750 F120.00
G01 X40.7426 Y100.0747 F120.00
G01 X40.7354 Y100.0736 F120.00
G01 X40.7282 Y100.0718 F120.00
G01 X40.7213 Y100.0693 F120.00
G01 X40.7146 Y100.0662 F120.00
G01 X40.7083 Y100.0624 F120.00
G01 X40.7024 Y100.0580 F120.00
G01 X40.6969 Y100.0531 F120.00
G01 X40.6920 Y100.0476 F120.00
G01 X40.6876 Y100.0417 F120.00
G01 X40.6838 Y100.0354 F120.00
G01 X40.6807 Y100.0287 F120.00
G01 X40.6782 Y100.0218 F120.00
G01 X40.6764 Y100.0146 F120.00
G01 X40.6753 Y100.0074 F120.00
G01 X40.6750 Y100.0000 F120.00
G01 X40.6753 Y99.9926 F120.00
G01 X40.6764 Y99.9854 F120.00
G01 X40.6782 Y99.9782 F120.00
G01 X40.6807 Y99.9713 F120.00
G01 X40.6838 Y99.9646 F120.00
G01 X40.6876 Y99.9583 F120.00
G01 X40.6920 Y99.9524 F120.00
G01 X40.6969 Y99.9469 F120.00
G01 X40.7024 Y99.9420 F120.00
G01 X40.7083 Y99.9376 F120.00
G01 X40.7146 Y99.9338 F120.00
G01 X40.7213 Y99.9307 F120.00
G01 X40.7282 Y99.9282 F120.00
G01 X40.7354 Y99.9264 F120.00
G01 X40.7426 Y99.9253 F120.00
G01 X40.7500 Y99.9250 F120.00
G00 Z2.0000
G00 X40.7500 Y93.9250
G01 F60.00
G01 Z-0.6000
G01 F120.00
G01 X42.7500 Y93.9250 F120.00
G01 X42.7574 Y93.9253 F120.00
G01 X42.7646 Y93.9264 F120.00
G01 X42.7718 Y93.9282 F120.00
G01 X42.7787 Y93.9307 F120.00
G01 X42.7854 Y93.9338 F120.00
G01 X42.7917 Y93.9376 F120.00
G01 X42.7976 Y93.9420 F120.00
G01 X42.8031 Y93.9469 F120.00
G01 X42.8080 Y93.9524 F120.00
G01 X42.8124 Y93.9583 F120.00
G01 X42.8162 Y93.9646 F120.00
G01 X42.8193 Y93.9713 F120.00
G01 X42.8218 Y93.9782 F120.00
G01 X42.8236 Y93.9854 F120.00
G01 X42.8247 Y93.9926 F120.00
G01 X42.8250 Y94.0000 F120.00
G01 X42.8247 Y94.0074 F120.00
G01 X42.8236 Y94.0146 F120.00
G01 X42.8218 Y94.0218 F120.00
G01 X42.8193 Y94.0287 F120.00
G01 X42.8162 Y94.0354 F120.00
G01 X42.8124 Y94.0417 F120.00
G01 X42.8080 Y94.0476 F120.00
G01 X42.8031 Y94.0531 F120.00
G01 X42.7976 Y94.0580 F120.00
G01 X42.7917 Y94.0624 F120.00
G01 X42.7854 Y94.0662 F120.00
G01 X42.7787 Y94.0693 F120.00
G01 X42.7718 Y94.0718 F120.00
G01 X42.7646 Y94.0736 F120.00
G01 X42.7574 Y94.0747 F120.00
G01 X42.7500 Y94.0750 F120.00
G01 X40.7500 Y94.0750 F120.00
G01 X40.7426 Y94.0747 F120.00
G01 X40.7354 Y94.0736 F120.00
G01 X40.7282 Y94.0718 F120.00
G01 X40.7213 Y94.0693 F120.00
G01 X40.7146 Y94.0662 F120.00
G01 X40.7083 Y94.0624 F120.00
G01 X40.7024 Y94.0580 F120.00
G01 X40.6969 Y94.0531 F120.00
G01 X40.6920 Y94.0476 F120.00
G01 X40.6876 Y94.0417 F120.00
G01 X40.6838 Y94.0354 F120.00
G01 X40.6807 Y94.0287 F120.00
G01 X40.6782 Y94.0218 F120.00
G01 X40.6764 Y94.0146 F120.00
G01 X40.6753 Y94.0074 F120.00
G01 X40.6750 Y94.0000 F120.00
G01 X40.6753 Y93.9926 F120.00
G01 X40.6764 Y93.9854 F120.00
G01 X40.6782 Y93.9782 F120.00
G01 X40.6807 Y93.9713 F120.00
G01 X40.6838 Y93.9646 F120.00
G01 X40.6876 Y93.9583 F120.00
G01 X40.6920 Y93.9524 F120.00
G01 X40.6969 Y93.9469 F120.00
G01 X40.7024 Y93.9420 F120.00
G01 X40.7083 Y93.9376 F120.00
G01 X40.7146 Y93.9338 F120.00
G01 X40.7213 Y93.9307 F120.00
G01 X40.7282 Y93.9282 F120.00
G01 X40.7354 Y93.9264 F120.00
G01 X40.7426 Y93.9253 F120.00
G01 X40.7500 Y93.9250 F120.00
G00 X40.7500 Y93.9250
G01 F60.00
G01 Z-1.2000
G01 F120.00
G01 X42.7500 Y93.9250 F120.00
G01 X42.7574 Y93.9253 F120.00
G01 X42.7646 Y93.9264 F120.00
G01 X42.7718 Y93.9282 F120.00
G01 X42.7787 Y93.9307 F120.00
G01 X42.7854 Y93.9338 F120.00
G01 X42.7917 Y93.9376 F120.00
G01 X42.7976 Y93.9420 F120.00
G01 X42.8031 Y93.9469 F120.00
G01 X42.8080 Y93.9524 F120.00
G01 X42.8124 Y93.9583 F120.00
G01 X42.8162 Y93.9646 F120.00
G01 X42.8193 Y93.9713 F120.00
G01 X42.8218 Y93.9782 F120.00
G01 X42.8236 Y93.9854 F120.00
G01 X42.8247 Y93.9926 F120.00
G01 X42.8250 Y94.0000 F120.00
G01 X42.8247 Y94.0074 F120.00
G01 X42.8236 Y94.0146 F120.00
G01 X42.8218 Y94.0218 F120.00
G01 X42.8193 Y94.0287 F120.00
G01 X42.8162 Y94.0354 F120.00
G01 X42.8124 Y94.0417 F120.00
G01 X42.8080 Y94.0476 F120.00
G01 X42.8031 Y94.0531 F120.00
G01 X42.7976 Y94.0580 F120.00
G01 X42.7917 Y94.0624 F120.00
G01 X42.7854 Y94.0662 F120.00
G01 X42.7787 Y94.0693 F120.00
G01 X42.7718 Y94.0718 F120.00
G01 X42.7646 Y94.0736 F120.00
G01 X42.7574 Y94.0747 F120.00
G01 X42.7500 Y94.0750 F120.00
G01 X40.7500 Y94.0750 F120.00
G01 X40.7426 Y94.0747 F120.00
G01 X40.7354 Y94.0736 F120.00
G01 X40.7282 Y94.0718 F120.00
G01 X40.7213 Y94.0693 F120.00
G01 X40.7146 Y94.0662 F120.00
G01 X40.7083 Y94.0624 F120.00
G01 X40.7024 Y94.0580 F120.00
G01 X40.6969 Y94.0531 F120.00
G01 X40.6920 Y94.0476 F120.00
G01 X40.6876 Y94.0417 F120.00
G01 X40.6838 Y94.0354 F120.00
G01 X40.6807 Y94.0287 F120.00
G01 X40.6782 Y94.0218 F120.00
G01 X40.6764 Y94.0146 F120.00
G01 X40.6753 Y94.0074 F120.00
G01 X40.6750 Y94.0000 F120.00
G01 X40.6753 Y93.9926 F120.00
G01 X40.6764 Y93.9854 F120.00
G01 X40.6782 Y93.9782 F120.00
G01 X40.6807 Y93.9713 F120.00
G01 X40.6838 Y93.9646 F120.00
G01 X40.6876 Y93.9583 F120.00
G01 X40.6920 Y93.9524 F120.00
G01 X40.6969 Y93.9469 F120.00
G01 X40.7024 Y93.9420 F120.00
G01 X40.7083 Y93.9376 F120.00
G01 X40.7146 Y93.9338 F120.00
G01 X40.7213 Y93.9307 F120.00
G01 X40.7282 Y93.9282 F120.00
G01 X40.7354 Y93.9264 F120.00
G01 X40.7426 Y93.9253 F120.00
G01 X40.7500 Y93.9250 F120.00
G00 X40.7500 Y93.9250
G01 F60.00
G01 Z-1.8000
G01 F120.00
G01 X42.7500 Y93.9250 F120.00
G01 X42.7574 Y93.9253 F120.00
G01 X42.7646 Y93.9264 F120.00
G01 X42.7718 Y93.9282 F120.00
G01 X42.7787 Y93.9307 F120.00
G01 X42.7854 Y93.9338 F120.00
G01 X42.7917 Y93.9376 F120.00
G01 X42.7976 Y93.9420 F120.00
G01 X42.8031 Y93.9469 F120.00
G01 X42.8080 Y93.9524 F120.00
G01 X42.8124 Y93.9583 F120.00
G01 X42.8162 Y93.9646 F120.00
G01 X42.8193 Y93.9713 F120.00
G01 X42.8218 Y93.9782 F120.00
G01 X42.8236 Y93.9854 F120.00
G01 X42.8247 Y93.9926 F120.00
G01 X42.8250 Y94.0000 F120.00
G01 X42.8247 Y94.0074 F120.00
G01 X42.8236 Y94.0146 F120.00
G01 X42.8218 Y94.0218 F120.00
G01 X42.8193 Y94.0287 F120.00
G01 X42.8162 Y94.0354 F120.00
G01 X42.8124 Y94.0417 F120.00
G01 X42.8080 Y94.0476 F120.00
G01 X42.8031 Y94.0531 F120.00
G01 X42.7976 Y94.0580 F120.00
G01 X42.7917 Y94.0624 F120.00
G01 X42.7854 Y94.0662 F120.00
G01 X42.7787 Y94.0693 F120.00
G01 X42.7718 Y94.0718 F120.00
G01 X42.7646 Y94.0736 F120.00
G01 X42.7574 Y94.0747 F120.00
G01 X42.7500 Y94.0750 F120.00
G01 X40.7500 Y94.0750 F120.00
G01 X40.7426 Y94.0747 F120.00
G01 X40.7354 Y94.0736 F120.00
G01 X40.7282 Y94.0718 F120.00
G01 X40.7213 Y94.0693 F120.00
G01 X40.7146 Y94.0662 F120.00
G01 X40.7083 Y94.0624 F120.00
G01 X40.7024 Y94.0580 F120.00
G01 X40.6969 Y94.0531 F120.00
G01 X40.6920 Y94.0476 F120.00
G01 X40.6876 Y94.0417 F120.00
G01 X40.6838 Y94.0354 F120.00
G01 X40.6807 Y94.0287 F120.00
G01 X40.6782 Y94.0218 F120.00
G01 X40.6764 Y94.0146 F120.00
G01 X40.6753 Y94.0074 F120.00
G01 X40.6750 Y94.0000 F120.00
G01 X40.6753 Y93.9926 F120.00
G01 X40.6764 Y93.9854 F120.00
G01 X40.6782 Y93.9782 F120.00
G01 X40.6807 Y93.9713 F120.00
G01 X40.6838 Y93.9646 F120.00
G01 X40.6876 Y93.9583 F120.00
G01 X40.6920 Y93.9524 F120.00
G01 X40.6969 Y93.9469 F120.00
G01 X40.7024 Y93.9420 F120.00
G01 X40.7083 Y93.9376 F120.00
G01 X40.7146 Y93.9338 F120.00
G01 X40.7213 Y93.9307 F120.00
G01 X40.7282 Y93.9282 F120.00
G01 X40.7354 Y93.9264 F120.00
G01 X40.7426 Y93.9253 F120.00
G01 X40.7500 Y93.9250 F120.00
G00 Z2.0000
G00 X46.3750 Y97.7500
G01 F60.00
G01 Z-0.6000
G01 F120.00
G01 X46.3750 Y96.2500 F120.00
G01 X46.3753 Y96.2426 F120.00
G01 X46.3764 Y96.2354 F120.00
G01 X46.3782 Y96.2282 F120.00
G01 X46.3807 Y96.2213 F120.00
G01 X46.3838 Y96.2146 F120.00
G01 X46.3876 Y96.2083 F120.00
G01 X46.3920 Y96.2024 F120.00
G01 X46.3969 Y96.1969 F120.00
G01 X46.4024 Y96.1920 F120.00
G01 X46.4083 Y96.1876 F120.00
G01 X46.4146 Y96.1838 F120.00
G01 X46.4213 Y96.1807 F120.00
G01 X46.4282 Y96.1782 F120.00
G01 X46.4354 Y96.1764 F120.00
G01 X46.4426 Y96.1753 F120.00
G01 X46.4500 Y96.1750 F120.00
G01 X46.4574 Y96.1753 F120.00
G01 X46.4646 Y96.1764 F120.00
G01 X46.4718 Y96.1782 F120.00
G01 X46.4787 Y96.1807 F120.00
G01 X46.4854 Y96.1838 F120.00
G01 X46.4917 Y96.1876 F120.00
G01 X46.4976 Y96.1920 F120.00
G01 X46.5031 Y96.1969 F120.00
G01 X46.5080 Y96.2024 F120.00
G01 X46.5124 Y96.2083 F120.00
G01 X46.5162 Y96.2146 F120.00
G01 X46.5193 Y96.2213 F120.00
G01 X46.5218 Y96.2282 F120.00
G01 X46.5236 Y96.2354 F120.00
G01 X46.5247 Y96.2426 F120.00
G01 X46.5250 Y96.2500 F120.00
G01 X46.5250 Y97.7500 F120.00
G01 X46.5247 Y97.7574 F120.00
G01 X46.5236 Y97.7646 F120.00
G01 X46.5218 Y97.7718 F120.00
G01 X46.5193 Y97.7787 F120.00
G01 X46.5162 Y97.7854 F120.00
G01 X46.5124 Y97.7917 F120.00
G01 X46.5080 Y97.7976 F120.00
G01 X46.5031 Y97.8031 F120.00
G01 X46.4976 Y97.8080 F120.00
G01 X46.4917 Y97.8124 F120.00
G01 X46.4854 Y97.8162 F120.00
G01 X46.4787 Y97.8193 F120.00
G01 X46.4718 Y97.8218 F120.00
G01 X46.4646 Y97.8236 F120.00
G01 X46.4574 Y97.8247 F120.00
G01 X46.4500 Y97.8250 F120.00
G01 X46.4426 Y97.8247 F120.00
G01 X46.4354 Y97.8236 F120.00
G01 X46.4282 Y97.8218 F120.00
G01 X46.4213 Y97.8193 F120.00
G01 X46.4146 Y97.8162 F120.00
G01 X46.4083 Y97.8124 F120.00
G01 X46.4024 Y97.8080 F120.00
G01 X46.3969 Y97.8031 F120.00
G01 X46.3920 Y97.7976 F120.00
G01 X46.3876 Y97.7917 F120.00
G01 X46.3838 Y97.7854 F120.00
G01 X46.3807 Y97.7787 F120.00
G01 X46.3782 Y97.7718 F120.00
G01 X46.3764 Y97.7646 F120.00
G01 X46.3753 Y97.7574 F120.00
G01 X46.3750 Y97.7500 F120.00
G00 X46.3750 Y97.7500
G01 F60.00
G01 Z-1.2000
G01 F120.00
G01 X46.3750 Y96.2500 F120.00
G01 X46.3753 Y96.2426 F120.00
G01 X46.3764 Y96.2354 F120.00
G01 X46.3782 Y96.2282 F120.00
G01 X46.3807 Y96.2213 F120.00
G01 X46.3838 Y96.2146 F120.00
G01 X46.3876 Y96.2083 F120.00
G01 X46.3920 Y96.2024 F120.00
G01 X46.3969 Y96.1969 F120.00
G01 X46.4024 Y96.1920 F120.00
G01 X46.4083 Y96.1876 F120.00
G01 X46.4146 Y96.1838 F120.00
G01 X46.4213 Y96.1807 F120.00
G01 X46.4282 Y96.1782 F120.00
G01 X46.4354 Y96.1764 F120.00
G01 X46.4426 Y96.1753 F120.00
G01 X46.4500 Y96.1750 F120.00
G01 X46.4574 Y96.1753 F120.00
G01 X46.4646 Y96.1764 F120.00
G01 X46.4718 Y96.1782 F120.00
G01 X46.4787 Y96.1807 F120.00
G01 X46.4854 Y96.1838 F120.00
G01 X46.4917 Y96.1876 F120.00
G01 X46.4976 Y96.1920 F120.00
G01 X46.5031 Y96.1969 F120.00
G01 X46.5080 Y96.2024 F120.00
G01 X46.5124 Y96.2083 F120.00
G01 X46.5162 Y96.2146 F120.00
G01 X46.5193 Y96.2213 F120.00
G01 X46.5218 Y96.2282 F120.00
G01 X46.5236 Y96.2354 F120.00
G01 X46.5247 Y96.2426 F120.00
G01 X46.5250 Y96.2500 F120.00
G01 X46.5250 Y97.7500 F120.00
G01 X46.5247 Y97.7574 F120.00
G01 X46.5236 Y97.7646 F120.00
G01 X46.5218 Y97.7718 F120.00
G01 X46.5193 Y97.7787 F120.00
G01 X46.5162 Y97.7854 F120.00
G01 X46.5124 Y97.7917 F120.00
G01 X46.5080 Y97.7976 F120.00
G01 X46.5031 Y97.8031 F120.00
G01 X46.4976 Y97.8080 F120.00
G01 X46.4917 Y97.8124 F120.00
G01 X46.4854 Y97.8162 F120.00
G01 X46.4787 Y97.8193 F120.00
G01 X46.4718 Y97.8218 F120.00
G01 X46.4646 Y97.8236 F120.00
G01 X46.4574 Y97.8247 F120.00
G01 X46.4500 Y97.8250 F120.00
G01 X46.4426 Y97.8247 F120.00
G01 X46.4354 Y97.8236 F120.00
G01 X46.4282 Y97.8218 F120.00
G01 X46.4213 Y97.8193 F120.00
G01 X46.4146 Y97.8162 F120.00
G01 X46.4083 Y97.8124 F120.00
G01 X46.4024 Y97.8080 F120.00
G01 X46.3969 Y97.8031 F120.00
G01 X46.3920 Y97.7976 F120.00
G01 X46.3876 Y97.7917 F120.00
G01 X46.3838 Y97.7854 F120.00
G01 X46.3807 Y97.7787 F120.00
G01 X46.3782 Y97.7718 F120.00
G01 X46.3764 Y97.7646 F120.00
G01 X46.3753 Y97.7574 F120.00
G01 X46.3750 Y97.7500 F120.00
G00 X46.3750 Y97.7500
G01 F60.00
G01 Z-1.8000
G01 F120.00
G01 X46.3750 Y96.2500 F120.00
G01 X46.3753 Y96.2426 F120.00
G01 X46.3764 Y96.2354 F120.00
G01 X46.3782 Y96.2282 F120.00
G01 X46.3807 Y96.2213 F120.00
G01 X46.3838 Y96.2146 F120.00
G01 X46.3876 Y96.2083 F120.00
G01 X46.3920 Y96.2024 F120.00
G01 X46.3969 Y96.1969 F120.00
G01 X46.4024 Y96.1920 F120.00
G01 X46.4083 Y96.1876 F120.00
G01 X46.4146 Y96.1838 F120.00
G01 X46.4213 Y96.1807 F120.00
G01 X46.4282 Y96.1782 F120.00
G01 X46.4354 Y96.1764 F120.00
G01 X46.4426 Y96.1753 F120.00
G01 X46.4500 Y96.1750 F120.00
G01 X46.4574 Y96.1753 F120.00
G01 X46.4646 Y96.1764 F120.00
G01 X46.4718 Y96.1782 F120.00
G01 X46.4787 Y96.1807 F120.00
G01 X46.4854 Y96.1838 F120.00
G01 X46.4917 Y96.1876 F120.00
G01 X46.4976 Y96.1920 F120.00
G01 X46.5031 Y96.1969 F120.00
G01 X46.5080 Y96.2024 F120.00
G01 X46.5124 Y96.2083 F120.00
G01 X46.5162 Y96.2146 F120.00
G01 X46.5193 Y96.2213 F120.00
G01 X46.5218 Y96.2282 F120.00
G01 X46.5236 Y96.2354 F120.00
G01 X46.5247 Y96.2426 F120.00
G01 X46.5250 Y96.2500 F120.00
G01 X46.5250 Y97.7500 F120.00
G01 X46.5247 Y97.7574 F120.00
G01 X46.5236 Y97.7646 F120.00
G01 X46.5218 Y97.7718 F120.00
G01 X46.5193 Y97.7787 F120.00
G01 X46.5162 Y97.7854 F120.00
G01 X46.5124 Y97.7917 F120.00
G01 X46.5080 Y97.7976 F120.00
G01 X46.5031 Y97.8031 F120.00
G01 X46.4976 Y97.8080 F120.00
G01 X46.4917 Y97.8124 F120.00
G01 X46.4854 Y97.8162 F120.00
G01 X46.4787 Y97.8193 F120.00
G01 X46.4718 Y97.8218 F120.00
G01 X46.4646 Y97.8236 F120.00
G01 X46.4574 Y97.8247 F120.00
G01 X46.4500 Y97.8250 F120.00
G01 X46.4426 Y97.8247 F120.00
G01 X46.4354 Y97.8236 F120.00
G01 X46.4282 Y97.8218 F120.00
G01 X46.4213 Y97.8193 F120.00
G01 X46.4146 Y97.8162 F120.00
G01 X46.4083 Y97.8124 F120.00
G01 X46.4024 Y97.8080 F120.00
G01 X46.3969 Y97.8031 F120.00
G01 X46.3920 Y97.7976 F120.00
G01 X46.3876 Y97.7917 F120.00
G01 X46.3838 Y97.7854 F120.00
G01 X46.3807 Y97.7787 F120.00
G01 X46.3782 Y97.7718 F120.00
G01 X46.3764 Y97.7646 F120.00
G01 X46.3753 Y97.7574 F120.00
G01 X46.3750 Y97.7500 F120.00
G00 Z2.0000
M05
G00 Z2.0000
G00 Z15.00


